; generated by PrusaSlicer 2.4.1+arm64 on 2022-06-20 at 15:20:42 UTC

; 

; external perimeters extrusion width = 0.45mm
; perimeters extrusion width = 0.45mm
; infill extrusion width = 0.45mm
; solid infill extrusion width = 0.45mm
; top infill extrusion width = 0.40mm
; first layer extrusion width = 0.60mm

M107
;TYPE:Custom
G90 ; use absolute coordinates
M83 ; extruder relative mode
M140 S70 ; set final bed temp
M104 S150 ; set temporary nozzle temp to prevent oozing during homing
G4 S10 ; allow partial nozzle warmup
G28 ; home all axis
G1 Z50 F240
G1 X2 Y10 F3000
M104 S215 ; set final nozzle temp
M190 S70 ; wait for bed temp to stabilize
M109 S215 ; wait for nozzle temp to stabilize
G1 Z0.28 F240
G92 E0
G1 Y140 E10 F1500 ; prime the nozzle
G1 X2.3 F5000
G92 E0
G1 Y10 E10 F1200 ; prime the nozzle
G92 E0
G21 ; set units to millimeters
G90 ; use absolute coordinates
M83 ; use relative distances for extrusion
; Filament gcode
M107
;LAYER_CHANGE
;Z:0.3
;HEIGHT:0.3
;BEFORE_LAYER_CHANGE
G92 E0
;0.3


G1 E-5 F3600
G1 Z.3 F9000
;AFTER_LAYER_CHANGE
;0.3
G1 X77.869 Y77.261
G1 E5 F2400
M204 S500
;TYPE:Skirt/Brim
;WIDTH:0.6
G1 F1200
G1 X78.661 Y76.599 E.06897
G1 X79.232 Y76.197 E.04666
G1 X79.842 Y75.827 E.04764
G1 X80.622 Y75.43 E.0585
G1 X81.541 Y75.061 E.06613
G1 X82.483 Y74.782 E.06564
G1 X83.277 Y74.619 E.05417
G1 X84.068 Y74.518 E.05323
G1 X84.85 Y74.478 E.05234
G1 X135.136 Y74.478 E3.35939
G1 X135.851 Y74.511 E.04779
G1 X136.574 Y74.594 E.04864
G1 X137.404 Y74.754 E.05644
G1 X138.233 Y74.985 E.05749
G1 X139.045 Y75.285 E.05784
G1 X139.881 Y75.677 E.0617
G1 X140.674 Y76.137 E.0612
G1 X141.439 Y76.676 E.06252
G1 X142.139 Y77.268 E.06123
G1 X142.831 Y77.97 E.0659
G1 X143.312 Y78.545 E.05005
G1 X143.738 Y79.135 E.04864
G1 X144.175 Y79.846 E.05576
G1 X144.57 Y80.621 E.05812
G1 X144.91 Y81.458 E.06035
G1 X145.178 Y82.325 E.0606
G1 X145.366 Y83.185 E.05882
G1 X145.483 Y84.075 E.05995
G1 X145.524 Y84.946 E.05825
G1 X145.521 Y135.195 E3.35692
G1 X145.485 Y135.903 E.04736
G1 X145.403 Y136.59 E.04623
G1 X145.241 Y137.425 E.0568
G1 X145.006 Y138.26 E.05798
G1 X144.7 Y139.083 E.05864
G1 X144.303 Y139.915 E.0616
G1 X143.898 Y140.619 E.05421
G1 X143.405 Y141.333 E.05797
G1 X142.85 Y142.009 E.05843
G1 X142.138 Y142.733 E.06786
G1 X141.352 Y143.391 E.0685
G1 X140.765 Y143.805 E.04797
G1 X140.138 Y144.184 E.04893
G1 X139.372 Y144.573 E.05738
G1 X138.431 Y144.949 E.06775
G1 X137.446 Y145.236 E.06851
G1 X136.742 Y145.379 E.04799
G1 X136.014 Y145.475 E.0491
G1 X135.06 Y145.524 E.0638
G1 X84.805 Y145.521 E3.35728
G1 X84.097 Y145.485 E.04736
G1 X83.41 Y145.403 E.04623
G1 X82.575 Y145.241 E.0568
G1 X81.74 Y145.006 E.05798
G1 X80.925 Y144.703 E.0581
G1 X80.137 Y144.333 E.0581
G1 X79.383 Y143.9 E.05811
G1 X78.667 Y143.405 E.05811
G1 X77.991 Y142.85 E.05844
G1 X77.267 Y142.138 E.06786
G1 X76.609 Y141.352 E.06851
G1 X76.195 Y140.765 E.04797
G1 X75.816 Y140.138 E.04892
G1 X75.427 Y139.372 E.05738
G1 X75.051 Y138.431 E.06775
G1 X74.764 Y137.446 E.06852
G1 X74.621 Y136.742 E.048
G1 X74.525 Y136.013 E.04909
G1 X74.476 Y135.06 E.06379
G1 X74.479 Y84.801 E3.35759
G1 X74.515 Y84.096 E.0471
G1 X74.596 Y83.412 E.04603
G1 X74.759 Y82.578 E.05677
G1 X74.994 Y81.74 E.05814
G1 X75.297 Y80.925 E.05813
G1 X75.669 Y80.134 E.05832
G1 X76.101 Y79.382 E.05797
G1 X76.592 Y78.671 E.0577
G1 X77.147 Y77.994 E.05851
G1 X77.827 Y77.304 E.06471
G1 X78.208 Y77.68 F9000
G1 F1200
G1 X78.978 Y77.031 E.06729
G1 X79.533 Y76.641 E.04532
G1 X80.111 Y76.29 E.04514
G1 X80.854 Y75.913 E.05568
G1 X81.728 Y75.563 E.06289
G1 X82.624 Y75.299 E.06239
G1 X83.356 Y75.149 E.04992
G1 X84.105 Y75.052 E.0505
G1 X84.857 Y75.014 E.05027
G1 X135.13 Y75.014 E3.35852
G1 X135.817 Y75.045 E.04592
G1 X136.502 Y75.125 E.04607
G1 X137.291 Y75.278 E.0537
G1 X138.078 Y75.498 E.05458
G1 X138.848 Y75.783 E.05488
G1 X139.643 Y76.157 E.05864
G1 X140.394 Y76.594 E.05806
G1 X141.12 Y77.106 E.05937
G1 X141.783 Y77.668 E.05806
G1 X142.442 Y78.338 E.06275
G1 X142.883 Y78.867 E.04603
G1 X143.287 Y79.424 E.046
G1 X143.713 Y80.117 E.05433
G1 X144.087 Y80.853 E.05516
G1 X144.409 Y81.649 E.05732
G1 X144.663 Y82.472 E.05753
G1 X144.84 Y83.288 E.05579
G1 X144.95 Y84.133 E.05693
G1 X144.988 Y84.952 E.05479
G1 X144.986 Y135.175 E3.35518
G1 X144.952 Y135.849 E.04507
G1 X144.873 Y136.517 E.04493
G1 X144.717 Y137.311 E.05406
G1 X144.494 Y138.104 E.05505
G1 X144.202 Y138.884 E.05563
G1 X143.825 Y139.675 E.05854
G1 X143.44 Y140.341 E.05138
G1 X142.971 Y141.018 E.05503
G1 X142.445 Y141.659 E.0554
G1 X141.766 Y142.347 E.06459
G1 X141.034 Y142.96 E.06371
G1 X140.464 Y143.361 E.0466
G1 X139.87 Y143.721 E.04639
G1 X139.142 Y144.089 E.05454
G1 X138.245 Y144.446 E.0645
G1 X137.329 Y144.713 E.06372
G1 X136.645 Y144.852 E.04662
G1 X135.954 Y144.943 E.04652
G1 X135.053 Y144.988 E.06029
G1 X84.825 Y144.986 E3.35551
G1 X84.151 Y144.952 E.04507
G1 X83.483 Y144.873 E.04493
G1 X82.689 Y144.717 E.05406
G1 X81.896 Y144.494 E.05505
G1 X81.123 Y144.205 E.05515
G1 X80.376 Y143.853 E.05515
G1 X79.66 Y143.441 E.05515
G1 X78.982 Y142.971 E.05515
G1 X78.341 Y142.445 E.05541
G1 X77.653 Y141.766 E.06459
G1 X77.04 Y141.034 E.06371
G1 X76.639 Y140.464 E.0466
G1 X76.279 Y139.87 E.04638
G1 X75.911 Y139.142 E.05454
G1 X75.554 Y138.244 E.0645
G1 X75.287 Y137.329 E.06373
G1 X75.148 Y136.645 E.04663
G1 X75.057 Y135.954 E.04651
G1 X75.012 Y135.053 E.06028
G1 X75.015 Y84.82 E3.35581
G1 X75.048 Y84.15 E.04482
G1 X75.127 Y83.486 E.04474
G1 X75.282 Y82.692 E.05403
G1 X75.506 Y81.896 E.05521
G1 X75.795 Y81.123 E.05517
G1 X76.148 Y80.373 E.05536
G1 X76.559 Y79.659 E.05502
G1 X77.026 Y78.985 E.05476
G1 X77.553 Y78.343 E.05549
G1 X78.166 Y77.723 E.05828
G1 X78.546 Y78.098 F9000
G1 F1200
G1 X79.296 Y77.462 E.06567
G1 X79.819 Y77.094 E.04273
G1 X80.38 Y76.754 E.04383
G1 X81.085 Y76.396 E.05282
G1 X81.914 Y76.066 E.05964
G1 X82.764 Y75.816 E.05912
G1 X83.453 Y75.676 E.047
G1 X84.143 Y75.586 E.04651
G1 X84.864 Y75.549 E.0482
G1 X135.124 Y75.549 E3.35764
G1 X135.782 Y75.58 E.04404
G1 X136.429 Y75.656 E.04349
G1 X137.178 Y75.802 E.05095
G1 X137.922 Y76.011 E.05167
G1 X138.651 Y76.281 E.05193
G1 X139.403 Y76.636 E.05558
G1 X140.114 Y77.05 E.05492
G1 X140.8 Y77.536 E.05622
G1 X141.427 Y78.068 E.05491
G1 X142.038 Y78.69 E.0582
G1 X142.455 Y79.188 E.04345
G1 X142.847 Y79.73 E.04468
G1 X143.251 Y80.388 E.05154
G1 X143.604 Y81.085 E.0522
G1 X143.908 Y81.838 E.05428
G1 X144.147 Y82.618 E.05446
G1 X144.314 Y83.389 E.05276
G1 X144.418 Y84.19 E.05392
G1 X144.453 Y84.958 E.05135
G1 X144.45 Y135.156 E3.35348
G1 X144.419 Y135.795 E.04277
G1 X144.342 Y136.443 E.04361
G1 X144.194 Y137.197 E.05129
G1 X143.981 Y137.947 E.05212
G1 X143.705 Y138.685 E.05263
G1 X143.346 Y139.434 E.05548
G1 X142.982 Y140.063 E.04856
G1 X142.538 Y140.704 E.0521
G1 X142.039 Y141.309 E.0524
G1 X141.412 Y141.945 E.05968
G1 X140.716 Y142.528 E.06063
G1 X140.179 Y142.908 E.04397
G1 X139.602 Y143.257 E.04506
G1 X138.911 Y143.606 E.05169
G1 X138.082 Y143.936 E.05961
G1 X137.211 Y144.191 E.06063
G1 X136.566 Y144.322 E.04398
G1 X135.895 Y144.41 E.04516
G1 X135.046 Y144.453 E.05678
G1 X84.844 Y144.45 E3.35377
G1 X84.205 Y144.419 E.04277
G1 X83.557 Y144.342 E.04361
G1 X82.803 Y144.194 E.05129
G1 X82.053 Y143.981 E.05212
G1 X81.321 Y143.707 E.05219
G1 X80.615 Y143.374 E.05219
G1 X79.938 Y142.983 E.05219
G1 X79.296 Y142.538 E.05219
G1 X78.691 Y142.039 E.05241
G1 X78.055 Y141.412 E.05967
G1 X77.471 Y140.716 E.06063
G1 X77.092 Y140.179 E.04397
G1 X76.743 Y139.602 E.04506
G1 X76.394 Y138.911 E.05169
G1 X76.064 Y138.082 E.05961
G1 X75.809 Y137.211 E.06064
G1 X75.678 Y136.565 E.04399
G1 X75.59 Y135.895 E.04515
G1 X75.547 Y135.046 E.05677
G1 X75.55 Y84.84 E3.35406
G1 X75.581 Y84.204 E.04251
G1 X75.658 Y83.559 E.04343
G1 X75.806 Y82.806 E.05127
G1 X76.019 Y82.053 E.05227
G1 X76.293 Y81.321 E.05221
G1 X76.628 Y80.612 E.05239
G1 X77.018 Y79.937 E.05206
G1 X77.46 Y79.3 E.05181
G1 X77.959 Y78.693 E.05248
G1 X78.504 Y78.141 E.05186
G1 X78.885 Y78.517 F9000
G1 F1200
G1 X79.614 Y77.894 E.06406
G1 X80.12 Y77.537 E.04137
G1 X80.648 Y77.217 E.04128
G1 X81.316 Y76.88 E.04997
G1 X82.1 Y76.568 E.05639
G1 X82.903 Y76.333 E.05587
G1 X83.532 Y76.205 E.04286
G1 X84.182 Y76.121 E.0438
G1 X84.871 Y76.085 E.0461
G1 X135.106 Y76.085 E3.35597
G1 X135.73 Y76.113 E.04171
G1 X136.356 Y76.187 E.04214
G1 X137.064 Y76.325 E.04817
G1 X137.766 Y76.523 E.04875
G1 X138.453 Y76.779 E.04897
G1 X139.164 Y77.115 E.05252
G1 X139.833 Y77.506 E.05178
G1 X140.48 Y77.966 E.05306
G1 X141.07 Y78.468 E.05177
G1 X141.634 Y79.041 E.05368
G1 X142.038 Y79.525 E.04209
G1 X142.407 Y80.035 E.0421
G1 X142.788 Y80.658 E.04875
G1 X143.12 Y81.316 E.04924
G1 X143.407 Y82.027 E.05124
G1 X143.632 Y82.763 E.05139
G1 X143.788 Y83.491 E.04973
G1 X143.885 Y84.247 E.05092
G1 X143.917 Y84.964 E.04795
G1 X143.915 Y135.136 E3.35178
G1 X143.885 Y135.759 E.04169
G1 X143.811 Y136.369 E.04103
G1 X143.671 Y137.082 E.04853
G1 X143.469 Y137.79 E.04918
G1 X143.208 Y138.485 E.04962
G1 X142.868 Y139.192 E.05242
G1 X142.525 Y139.785 E.04574
G1 X142.104 Y140.389 E.04916
G1 X141.634 Y140.959 E.04939
G1 X141.04 Y141.56 E.05645
G1 X140.399 Y142.097 E.05589
G1 X139.878 Y142.465 E.04258
G1 X139.334 Y142.793 E.04246
G1 X138.681 Y143.122 E.04883
G1 X137.896 Y143.433 E.0564
G1 X137.093 Y143.668 E.0559
G1 X136.468 Y143.795 E.0426
G1 X135.837 Y143.878 E.04253
G1 X135.04 Y143.917 E.0533
G1 X84.864 Y143.915 E3.35203
G1 X84.241 Y143.885 E.04169
G1 X83.631 Y143.811 E.04103
G1 X82.918 Y143.671 E.04853
G1 X82.21 Y143.469 E.04918
G1 X81.52 Y143.21 E.04924
G1 X80.854 Y142.895 E.04923
G1 X80.216 Y142.525 E.04924
G1 X79.611 Y142.104 E.04923
G1 X79.041 Y141.634 E.04939
G1 X78.44 Y141.04 E.05645
G1 X77.903 Y140.399 E.05589
G1 X77.535 Y139.878 E.04258
G1 X77.207 Y139.334 E.04246
G1 X76.878 Y138.681 E.04883
G1 X76.567 Y137.896 E.05641
G1 X76.332 Y137.093 E.0559
G1 X76.205 Y136.468 E.04261
G1 X76.122 Y135.837 E.04252
G1 X76.083 Y135.04 E.05329
G1 X76.085 Y84.86 E3.35231
G1 X76.115 Y84.24 E.04144
G1 X76.188 Y83.633 E.04085
G1 X76.329 Y82.921 E.04851
G1 X76.531 Y82.21 E.04933
G1 X76.79 Y81.52 E.04925
G1 X77.107 Y80.852 E.04943
G1 X77.475 Y80.216 E.04911
G1 X77.893 Y79.615 E.04887
G1 X78.364 Y79.044 E.04947
G1 X78.843 Y78.56 E.04546
G1 X79.223 Y78.935 F9000
G1 F1200
G1 X79.932 Y78.325 E.06252
G1 X80.405 Y77.99 E.03872
G1 X80.917 Y77.681 E.03994
G1 X81.546 Y77.364 E.04708
G1 X82.285 Y77.071 E.05313
G1 X83.041 Y76.851 E.05261
G1 X83.628 Y76.732 E.03999
G1 X84.22 Y76.655 E.03988
G1 X84.878 Y76.621 E.044
G1 X135.088 Y76.62 E3.35429
G1 X135.696 Y76.648 E.04064
G1 X136.282 Y76.717 E.03949
G1 X136.949 Y76.849 E.0454
G1 X137.609 Y77.035 E.04583
G1 X138.254 Y77.277 E.04601
G1 X138.923 Y77.594 E.04945
G1 X139.551 Y77.962 E.04864
G1 X140.16 Y78.395 E.04991
G1 X140.714 Y78.868 E.04864
G1 X141.23 Y79.394 E.04923
G1 X141.61 Y79.846 E.03946
G1 X141.967 Y80.341 E.04074
G1 X142.325 Y80.927 E.04592
G1 X142.637 Y81.546 E.04628
G1 X142.905 Y82.216 E.04821
G1 X143.116 Y82.908 E.04832
G1 X143.262 Y83.591 E.0467
G1 X143.352 Y84.303 E.04791
G1 X143.382 Y84.969 E.04458
G1 X143.38 Y135.117 E3.35013
G1 X143.352 Y135.705 E.03934
G1 X143.281 Y136.295 E.03968
G1 X143.147 Y136.966 E.04573
G1 X142.957 Y137.632 E.04624
G1 X142.711 Y138.285 E.04661
G1 X142.39 Y138.95 E.04936
G1 X142.067 Y139.506 E.04292
G1 X141.672 Y140.073 E.04622
G1 X141.229 Y140.608 E.0464
G1 X140.686 Y141.158 E.05163
G1 X140.08 Y141.666 E.05283
G1 X139.592 Y142.011 E.03989
G1 X139.066 Y142.329 E.0411
G1 X138.451 Y142.638 E.04596
G1 X137.733 Y142.923 E.05159
G1 X136.975 Y143.145 E.0528
G1 X136.371 Y143.268 E.04118
G1 X135.779 Y143.345 E.03988
G1 X135.034 Y143.382 E.04985
G1 X84.883 Y143.38 E3.35033
G1 X84.295 Y143.352 E.03933
G1 X83.705 Y143.281 E.03968
G1 X83.034 Y143.147 E.04573
G1 X82.368 Y142.957 E.04624
G1 X81.72 Y142.713 E.04628
G1 X81.094 Y142.416 E.04627
G1 X80.495 Y142.068 E.04628
G1 X79.927 Y141.672 E.04628
G1 X79.392 Y141.229 E.0464
G1 X78.842 Y140.686 E.05163
G1 X78.334 Y140.08 E.05283
G1 X77.989 Y139.592 E.03989
G1 X77.671 Y139.066 E.0411
G1 X77.362 Y138.451 E.04596
G1 X77.077 Y137.733 E.05159
G1 X76.854 Y136.974 E.05284
G1 X76.735 Y136.389 E.03992
G1 X76.655 Y135.778 E.04114
G1 X76.618 Y135.034 E.0498
G1 X76.62 Y84.879 E3.35061
G1 X76.648 Y84.294 E.03909
G1 X76.719 Y83.707 E.03951
G1 X76.852 Y83.036 E.04571
G1 X77.043 Y82.368 E.04639
G1 X77.287 Y81.72 E.04628
G1 X77.586 Y81.092 E.04647
G1 X77.933 Y80.494 E.04616
G1 X78.326 Y79.93 E.04592
G1 X78.769 Y79.394 E.04648
G1 X79.18 Y78.978 E.03908
G1 X79.561 Y79.355 F9000
G1 F1200
G1 X79.691 Y79.223 E.01239
G1 X80.25 Y78.756 E.04865
G1 X80.706 Y78.433 E.03734
G1 X81.184 Y78.145 E.03731
G1 X81.776 Y77.847 E.04422
G1 X82.448 Y77.581 E.04829
G1 X83.159 Y77.373 E.04952
G1 X83.707 Y77.262 E.03735
G1 X84.279 Y77.188 E.03853
G1 X84.898 Y77.156 E.04143
G1 X135.07 Y77.156 E3.35176
G1 X135.642 Y77.181 E.03825
G1 X136.209 Y77.248 E.03811
G1 X136.834 Y77.372 E.04259
G1 X137.452 Y77.548 E.04291
G1 X138.055 Y77.774 E.04305
G1 X138.682 Y78.072 E.04639
G1 X139.27 Y78.418 E.04552
G1 X139.822 Y78.811 E.04528
G1 X140.341 Y79.253 E.04552
G1 X140.827 Y79.746 E.04627
G1 X141.193 Y80.183 E.03807
G1 X141.526 Y80.645 E.03809
G1 X141.862 Y81.196 E.04311
G1 X142.153 Y81.776 E.04331
G1 X142.404 Y82.404 E.04516
G1 X142.6 Y83.052 E.04525
G1 X142.736 Y83.691 E.04366
G1 X142.819 Y84.358 E.04491
G1 X142.846 Y84.975 E.04125
G1 X142.844 Y135.098 E3.34847
G1 X142.817 Y135.67 E.03825
G1 X142.75 Y136.22 E.03703
G1 X142.624 Y136.85 E.04294
G1 X142.446 Y137.473 E.0433
G1 X142.214 Y138.084 E.0436
G1 X141.913 Y138.707 E.04629
G1 X141.61 Y139.226 E.0401
G1 X141.239 Y139.757 E.04328
G1 X140.824 Y140.257 E.04339
G1 X140.314 Y140.772 E.04846
G1 X139.762 Y141.235 E.04815
G1 X139.291 Y141.568 E.03849
G1 X138.799 Y141.865 E.03843
G1 X138.222 Y142.154 E.04309
G1 X137.548 Y142.42 E.04844
G1 X136.856 Y142.623 E.04813
G1 X136.292 Y142.739 E.03848
G1 X135.721 Y142.813 E.03848
G1 X135.027 Y142.846 E.0464
G1 X84.902 Y142.844 E3.34862
G1 X84.33 Y142.817 E.03824
G1 X83.78 Y142.75 E.03703
G1 X83.15 Y142.624 E.04294
G1 X82.527 Y142.446 E.0433
G1 X81.92 Y142.216 E.04332
G1 X81.335 Y141.937 E.04332
G1 X80.775 Y141.611 E.04332
G1 X80.243 Y141.239 E.04332
G1 X79.743 Y140.824 E.04339
G1 X79.228 Y140.314 E.04846
G1 X78.765 Y139.762 E.04815
G1 X78.432 Y139.291 E.03849
G1 X78.135 Y138.799 E.03843
G1 X77.846 Y138.222 E.04309
G1 X77.58 Y137.548 E.04844
G1 X77.377 Y136.856 E.04816
G1 X77.261 Y136.291 E.03851
G1 X77.187 Y135.72 E.03845
G1 X77.154 Y135.027 E.04636
G1 X77.156 Y84.898 E3.3489
G1 X77.183 Y84.33 E.038
G1 X77.249 Y83.782 E.03687
G1 X77.375 Y83.152 E.04292
G1 X77.554 Y82.527 E.04344
G1 X77.784 Y81.92 E.04332
G1 X78.064 Y81.333 E.0435
G1 X78.39 Y80.774 E.0432
G1 X78.758 Y80.247 E.04298
G1 X79.174 Y79.745 E.04348
G1 X79.518 Y79.398 E.03272
G1 X79.898 Y79.774 F9000
G1 F1200
G1 X80.045 Y79.626 E.01394
G1 X80.568 Y79.187 E.04563
G1 X80.992 Y78.887 E.03464
G1 X81.452 Y78.609 E.03593
G1 X82.005 Y78.332 E.0413
G1 X82.633 Y78.084 E.04509
G1 X83.277 Y77.896 E.04483
G1 X83.804 Y77.789 E.03594
G1 X84.337 Y77.72 E.0359
G1 X84.918 Y77.691 E.03888
G1 X135.053 Y77.691 E3.3493
G1 X135.589 Y77.714 E.03584
G1 X136.135 Y77.779 E.03671
G1 X136.718 Y77.895 E.03973
G1 X137.294 Y78.059 E.03999
G1 X137.855 Y78.271 E.04009
G1 X138.441 Y78.55 E.04332
G1 X138.987 Y78.873 E.04238
G1 X139.501 Y79.24 E.04218
G1 X139.984 Y79.652 E.04244
G1 X140.423 Y80.098 E.04182
G1 X140.776 Y80.519 E.03668
G1 X141.085 Y80.949 E.0354
G1 X141.398 Y81.465 E.04028
G1 X141.668 Y82.005 E.04034
G1 X141.902 Y82.591 E.04213
G1 X142.084 Y83.195 E.04217
G1 X142.209 Y83.79 E.04063
G1 X142.286 Y84.413 E.04192
G1 X142.31 Y84.981 E.03795
G1 X142.309 Y135.079 E3.34687
G1 X142.284 Y135.615 E.03584
G1 X142.22 Y136.145 E.03565
G1 X142.102 Y136.733 E.04011
G1 X141.934 Y137.314 E.04035
G1 X141.718 Y137.882 E.04059
G1 X141.436 Y138.464 E.04323
G1 X141.154 Y138.946 E.03729
G1 X140.807 Y139.44 E.04033
G1 X140.42 Y139.905 E.04042
G1 X139.96 Y140.37 E.04373
G1 X139.443 Y140.805 E.04512
G1 X139.006 Y141.114 E.03574
G1 X138.531 Y141.4 E.03703
G1 X137.993 Y141.669 E.04019
G1 X137.385 Y141.91 E.04372
G1 X136.737 Y142.101 E.0451
