; generated by PrusaSlicer 2.4.1+arm64 on 2022-08-05 at 21:09:01 UTC

; 

; external perimeters extrusion width = 0.45mm
; perimeters extrusion width = 0.45mm
; infill extrusion width = 0.45mm
; solid infill extrusion width = 0.45mm
; top infill extrusion width = 0.40mm
; first layer extrusion width = 0.42mm

M107
;TYPE:Custom
G90 ; use absolute coordinates
M83 ; extruder relative mode
M140 S70 ; set final bed temp
M104 S150 ; set temporary nozzle temp to prevent oozing during homing
G4 S10 ; allow partial nozzle warmup
G28 ; home all axis
G1 Z50 F240
G1 X2 Y10 F3000
M104 S215 ; set final nozzle temp
M190 S70 ; wait for bed temp to stabilize
M109 S215 ; wait for nozzle temp to stabilize
G1 Z0.28 F240
G92 E0
G1 Y140 E10 F1500 ; prime the nozzle
G1 X2.3 F5000
G92 E0
G1 Y10 E10 F1200 ; prime the nozzle
G92 E0
G21 ; set units to millimeters
G90 ; use absolute coordinates
M83 ; use relative distances for extrusion
; Filament gcode
M107
;LAYER_CHANGE
;Z:0.3
;HEIGHT:0.3
;BEFORE_LAYER_CHANGE
G92 E0
;0.3


G1 E-5 F3600
G1 Z.3 F9000
;AFTER_LAYER_CHANGE
;0.3
G1 X93.671 Y98.61
G1 E5 F2400
M204 S500
;TYPE:Skirt/Brim
;WIDTH:0.42
G1 F1200
G1 X94.871 Y97.676 E.06745
G1 X96.149 Y96.974 E.06466
G1 X97.588 Y96.461 E.06778
G1 X99.103 Y96.188 E.06827
G1 X120.047 Y96.145 E.92897
G1 X121.579 Y96.279 E.06821
G1 X123.101 Y96.673 E.06972
G1 X124.515 Y97.306 E.06871
G1 X125.787 Y98.149 E.0677
G1 X126.912 Y99.196 E.06817
G1 X127.857 Y100.421 E.06862
G1 X128.584 Y101.78 E.06835
G1 X129.076 Y103.231 E.06797
G1 X129.282 Y104.328 E.0495
G1 X129.355 Y105.399 E.04764
G1 X129.355 Y114.586 E.40749
G1 X129.244 Y115.941 E.0603
G1 X128.883 Y117.436 E.06821
G1 X128.263 Y118.887 E.06995
G1 X127.43 Y120.185 E.06845
G1 X126.329 Y121.39 E.07241
G1 X125.194 Y122.282 E.06401
G1 X123.849 Y123.027 E.06821
G1 X122.4 Y123.543 E.06821
G1 X120.889 Y123.813 E.06809
G1 X99.812 Y123.854 E.93484
G1 X97.976 Y123.634 E.08205
G1 X96.151 Y123.027 E.08528
G1 X94.539 Y122.097 E.08256
G1 X93.776 Y121.484 E.04341
G1 X93.083 Y120.799 E.04321
G1 X92.243 Y119.731 E.06028
G1 X91.55 Y118.517 E.06201
G1 X91.046 Y117.212 E.06203
G1 X90.757 Y115.95 E.05745
G1 X90.645 Y114.592 E.0604
G1 X90.647 Y105.279 E.4131
G1 X90.886 Y103.389 E.0845
G1 X91.473 Y101.651 E.08135
G1 X92.4 Y100.044 E.08231
G1 X93.632 Y98.655 E.08234
G1 E-3.5 F3600
;WIPE_START
G1 F7200
G1 X94.871 Y97.676 E-.75032
G1 X96.116 Y96.992 E-.67468
;WIPE_END
G1 E-.075 F3600
G1 X98.612 Y104.092 F9000
G1 E5 F2400
;TYPE:Perimeter
G1 F1200
G1 X98.791 Y103.936 E.01049
G1 X98.983 Y103.805 E.01034
G1 X99.223 Y103.682 E.01196
G1 X99.475 Y103.594 E.01184
G1 X99.702 Y103.546 E.01029
G1 X99.995 Y103.522 E.01301
G1 X119.993 Y103.522 E.88701
G1 X120.382 Y103.562 E.01736
G1 X120.722 Y103.662 E.01569
G1 X121.038 Y103.82 E.01571
G1 X121.322 Y104.032 E.0157
G1 X121.577 Y104.307 E.01663
G1 X121.759 Y104.598 E.01525
G1 X121.896 Y104.946 E.01658
G1 X121.968 Y105.311 E.01647
G1 X121.979 Y114.472 E.40635
G1 X121.963 Y114.74 E.01189
G1 X121.929 Y114.937 E.00887
G1 X121.783 Y115.355 E.01964
G1 X121.666 Y115.564 E.01064
G1 X121.527 Y115.756 E.01049
G1 X121.364 Y115.932 E.01065
G1 X121.017 Y116.195 E.01933
G1 X120.777 Y116.318 E.01195
G1 X120.526 Y116.405 E.0118
G1 X120.262 Y116.459 E.01195
G1 X120.009 Y116.478 E.01125
G1 X99.919 Y116.476 E.89111
G1 X99.677 Y116.45 E.01076
G1 X99.414 Y116.388 E.012
G1 X99.196 Y116.306 E.01034
G1 X98.986 Y116.197 E.01049
G1 X98.791 Y116.064 E.01049
G1 X98.613 Y115.908 E.01049
G1 X98.457 Y115.735 E.01034
G1 X98.301 Y115.511 E.0121
G1 X98.194 Y115.304 E.01033
G1 X98.112 Y115.086 E.01035
G1 X98.05 Y114.823 E.01199
G1 X98.024 Y114.582 E.01074
G1 X98.029 Y105.346 E.40967
G1 X98.06 Y105.118 E.01019
G1 X98.12 Y104.889 E.01049
G1 X98.206 Y104.669 E.01049
G1 X98.318 Y104.461 E.01048
G1 X98.572 Y104.136 E.01829
G1 X98.362 Y103.838 F9000
G1 F1200
G1 X98.573 Y103.654 E.01238
G1 X98.802 Y103.498 E.01229
G1 X99.083 Y103.355 E.01402
G1 X99.379 Y103.251 E.0139
G1 X99.65 Y103.193 E.0123
G1 X99.98 Y103.166 E.01467
G1 X120.011 Y103.166 E.88848
G1 X120.451 Y103.212 E.01961
G1 X120.852 Y103.329 E.01854
G1 X121.226 Y103.516 E.01854
G1 X121.56 Y103.767 E.01854
G1 X121.854 Y104.083 E.01911
G1 X122.081 Y104.445 E.01896
G1 X122.239 Y104.846 E.01913
G1 X122.321 Y105.267 E.01901
G1 X122.334 Y105.515 E.01104
G1 X122.334 Y114.483 E.39775
G1 X122.317 Y114.781 E.01324
G1 X122.275 Y115.017 E.01065
G1 X122.196 Y115.289 E.01257
G1 X122.103 Y115.511 E.01065
G1 X121.966 Y115.756 E.01247
G1 X121.802 Y115.982 E.01238
G1 X121.611 Y116.188 E.01248
G1 X121.429 Y116.345 E.01064
G1 X121.198 Y116.502 E.01238
G1 X120.917 Y116.645 E.01402
G1 X120.621 Y116.749 E.01392
G1 X120.311 Y116.812 E.01402
G1 X120.022 Y116.834 E.01285
G1 X99.9 Y116.831 E.89253
G1 X99.617 Y116.802 E.01259
G1 X99.31 Y116.729 E.014
G1 X99.051 Y116.632 E.01229
G1 X98.803 Y116.503 E.01238
G1 X98.573 Y116.346 E.01238
G1 X98.362 Y116.162 E.01238
G1 X98.177 Y115.956 E.01229
G1 X97.996 Y115.695 E.01411
G1 X97.868 Y115.449 E.01228
G1 X97.771 Y115.19 E.01229
G1 X97.698 Y114.882 E.014
G1 X97.669 Y114.6 E.01258
G1 X97.674 Y105.322 E.41156
G1 X97.711 Y105.049 E.0122
G1 X97.781 Y104.779 E.01238
G1 X97.883 Y104.519 E.01238
G1 X98.015 Y104.273 E.01237
G1 X98.176 Y104.045 E.01238
G1 X98.322 Y103.882 E.00971
G1 X98.112 Y103.584 F9000
;TYPE:External perimeter
G1 F1200
G1 X98.355 Y103.372 E.01427
G1 X98.62 Y103.192 E.01424
G1 X98.943 Y103.027 E.01609
G1 X99.283 Y102.908 E.01597
G1 X99.598 Y102.841 E.01431
G1 X99.965 Y102.81 E.01633
G1 X120.03 Y102.81 E.88996
G1 X120.52 Y102.862 E.02185
G1 X120.982 Y102.997 E.02138
G1 X121.414 Y103.212 E.02138
G1 X121.799 Y103.502 E.02138
G1 X122.131 Y103.858 E.02159
G1 X122.403 Y104.291 E.02267
G1 X122.581 Y104.746 E.02167
G1 X122.675 Y105.223 E.02156
G1 X122.69 Y105.506 E.01257
G1 X122.69 Y114.493 E.39864
G1 X122.67 Y114.822 E.0146
G1 X122.622 Y115.098 E.01242
G1 X122.532 Y115.408 E.01434
G1 X122.424 Y115.666 E.01242
G1 X122.267 Y115.948 E.0143
G1 X122.078 Y116.208 E.01427
G1 X121.858 Y116.445 E.01431
G1 X121.646 Y116.627 E.01241
G1 X121.38 Y116.808 E.01427
G1 X121.057 Y116.973 E.01608
G1 X120.716 Y117.093 E.01605
G1 X120.36 Y117.165 E.01609
G1 X120.036 Y117.19 E.01444
G1 X99.881 Y117.187 E.89395
G1 X99.558 Y117.153 E.01442
G1 X99.207 Y117.07 E.016
G1 X98.906 Y116.957 E.01424
G1 X98.62 Y116.809 E.01427
G1 X98.355 Y116.628 E.01427
G1 X98.112 Y116.416 E.01427
G1 X97.898 Y116.178 E.01424
G1 X97.691 Y115.879 E.01612
G1 X97.543 Y115.594 E.01423
G1 X97.43 Y115.293 E.01424
G1 X97.347 Y114.942 E.016
G1 X97.313 Y114.619 E.01442
G1 X97.318 Y105.298 E.41346
G1 X97.361 Y104.98 E.0142
G1 X97.442 Y104.669 E.01427
G1 X97.56 Y104.369 E.01427
G1 X97.712 Y104.086 E.01426
G1 X97.897 Y103.823 E.01427
G1 X98.072 Y103.629 E.0116
G1 X98.423 Y103.67 F9000
G1 E-3.5 F3600
;WIPE_START
G1 F7200
G1 X98.355 Y103.372 E-.18115
G1 X98.62 Y103.192 E-.15246
G1 X98.943 Y103.027 E-.17226
G1 X99.283 Y102.908 E-.17099
G1 X99.598 Y102.841 E-.15327
G1 X99.965 Y102.81 E-.17488
G1 X100.849 Y102.81 E-.41998
;WIPE_END
G1 E-.075 F3600
G1 X121.732 Y104.821 F9000
G1 E5 F2400
;TYPE:Solid infill
;WIDTH:0.4214
G1 F1200
G1 X121.141 Y104.23 E.03723
G1 X120.897 Y104.048 E.01354
G1 X120.624 Y103.911 E.01363
G1 X120.33 Y103.825 E.01362
G1 X120.219 Y103.813 E.00497
G1 X121.691 Y105.285 E.09266
G1 X121.712 Y105.811 E.02345
G1 X119.689 Y103.788 E.12739
G1 X119.184 Y103.788 E.02248
G1 X121.712 Y106.316 E.15919
G1 X121.712 Y106.821 E.02248
G1 X118.679 Y103.788 E.19098
G1 X118.174 Y103.788 E.02248
G1 X121.712 Y107.326 E.22278
G1 X121.712 Y107.831 E.02248
G1 X117.67 Y103.788 E.25457
G1 X117.165 Y103.788 E.02248
G1 X121.712 Y108.336 E.28637
G1 X121.712 Y108.841 E.02248
G1 X116.66 Y103.788 E.31816
G1 X116.155 Y103.788 E.02248
G1 X121.712 Y109.345 E.34996
G1 X121.712 Y109.85 E.02248
G1 X115.65 Y103.788 E.38175
G1 X115.145 Y103.788 E.02248
G1 X121.712 Y110.355 E.41355
G1 X121.712 Y110.86 E.02248
G1 X114.64 Y103.788 E.44535
G1 X114.135 Y103.788 E.02248
G1 X121.712 Y111.365 E.47714
G1 X121.712 Y111.87 E.02248
G1 X113.63 Y103.788 E.50894
G1 X113.125 Y103.788 E.02248
G1 X121.712 Y112.375 E.54073
G1 X121.712 Y112.88 E.02248
G1 X112.621 Y103.788 E.57253
G1 X112.116 Y103.788 E.02248
G1 X121.712 Y113.385 E.60432
G1 X121.712 Y113.89 E.02248
G1 X111.611 Y103.788 E.63612
G1 X111.106 Y103.788 E.02248
G1 X121.712 Y114.394 E.66792
G1 X121.698 Y114.7 E.01364
G1 X121.662 Y114.85 E.00683
G1 X110.601 Y103.788 E.69658
G1 X110.096 Y103.788 E.02248
G1 X121.535 Y115.227 E.72035
G1 X121.437 Y115.426 E.00987
G1 X121.349 Y115.547 E.00663
G1 X109.591 Y103.788 E.74047
G1 X109.086 Y103.788 E.02248
G1 X121.097 Y115.799 E.75638
G1 X120.8 Y116.007 E.01615
G1 X108.581 Y103.788 E.76944
G1 X108.076 Y103.788 E.02248
G1 X120.439 Y116.151 E.77853
G1 X120.225 Y116.195 E.00973
G1 X119.995 Y116.212 E.01027
G1 X107.572 Y103.788 E.78236
G1 X107.067 Y103.788 E.02248
G1 X119.49 Y116.212 E.78235
G1 X118.985 Y116.212 E.02249
G1 X106.562 Y103.788 E.78235
G1 X106.057 Y103.788 E.02248
G1 X118.48 Y116.212 E.78234
G1 X117.975 Y116.211 E.02249
G1 X105.552 Y103.788 E.78234
G1 X105.047 Y103.788 E.02248
G1 X117.47 Y116.211 E.78234
G1 X116.965 Y116.211 E.02249
G1 X104.542 Y103.788 E.78233
G1 X104.037 Y103.788 E.02248
G1 X116.46 Y116.211 E.78233
G1 X115.955 Y116.211 E.02249
G1 X103.532 Y103.788 E.78232
G1 X103.027 Y103.788 E.02248
G1 X115.45 Y116.211 E.78232
G1 X114.945 Y116.211 E.02249
G1 X102.523 Y103.788 E.78231
G1 X102.018 Y103.788 E.02248
G1 X114.44 Y116.211 E.78231
G1 X113.935 Y116.211 E.02249
G1 X101.513 Y103.788 E.78231
G1 X101.008 Y103.788 E.02248
G1 X113.43 Y116.211 E.7823
G1 X112.925 Y116.211 E.02249
G1 X100.503 Y103.788 E.7823
G1 X99.999 Y103.789 E.02246
G1 X112.421 Y116.211 E.78226
G1 X111.916 Y116.211 E.02249
G1 X99.555 Y103.85 E.77842
G1 X99.328 Y103.928 E.01066
G1 X99.196 Y103.996 E.00663
G1 X111.411 Y116.211 E.76922
G1 X110.906 Y116.211 E.02249
G1 X98.894 Y104.199 E.75639
G1 X98.647 Y104.457 E.0159
G1 X110.401 Y116.21 E.74018
G1 X109.896 Y116.21 E.02249
G1 X98.455 Y104.77 E.72048
G1 X98.374 Y104.972 E.00969
G1 X98.328 Y105.148 E.0081
G1 X109.391 Y116.21 E.69666
G1 X108.886 Y116.21 E.02249
G1 X98.296 Y105.62 E.66689
G1 X98.296 Y106.125 E.02247
G1 X108.381 Y116.21 E.63511
G1 X107.876 Y116.21 E.02249
G1 X98.295 Y106.63 E.60332
G1 X98.295 Y107.134 E.02247
G1 X107.371 Y116.21 E.57154
G1 X106.866 Y116.21 E.02249
G1 X98.295 Y107.639 E.53976
G1 X98.294 Y108.143 E.02247
G1 X106.361 Y116.21 E.50798
G1 X105.856 Y116.21 E.02249
G1 X98.294 Y108.648 E.4762
G1 X98.294 Y109.153 E.02247
G1 X105.351 Y116.21 E.44441
G1 X104.846 Y116.21 E.02249
G1 X98.294 Y109.657 E.41263
G1 X98.293 Y110.162 E.02247
G1 X104.341 Y116.21 E.38085
G1 X103.836 Y116.21 E.02249
G1 X98.293 Y110.667 E.34907
G1 X98.293 Y111.171 E.02247
G1 X103.331 Y116.21 E.31729
G1 X102.826 Y116.21 E.02249
G1 X98.293 Y111.676 E.2855
G1 X98.292 Y112.18 E.02247
G1 X102.321 Y116.209 E.25372
G1 X101.816 Y116.209 E.02249
G1 X98.292 Y112.685 E.22194
G1 X98.292 Y113.19 E.02247
G1 X101.311 Y116.209 E.19016
G1 X100.806 Y116.209 E.02249
G1 X98.291 Y113.694 E.15838
G1 X98.291 Y114.199 E.02247
G1 X100.301 Y116.209 E.12659
G1 X99.78 Y116.193 E.02321
G1 X98.307 Y114.72 E.09279
G1 X98.368 Y115.008 E.01312
G1 X98.53 Y115.373 E.0178
G1 X98.666 Y115.569 E.01064
G1 X98.796 Y115.713 E.00862
G1 X99.322 Y116.24 E.03314
M106 S255
;LAYER_CHANGE
;Z:0.38
;HEIGHT:0.08
;BEFORE_LAYER_CHANGE
G92 E0
;0.38


G1 E-3.5 F3600
;WIPE_START
G1 F7200
G1 X98.796 Y115.713 E-.35349
G1 X98.666 Y115.569 E-.09197
G1 X98.53 Y115.373 E-.11348
G1 X98.368 Y115.008 E-.18985
G1 X98.307 Y114.72 E-.13991
G1 X99.105 Y115.518 E-.5363
;WIPE_END
G1 E-.075 F3600
G1 Z.38 F9000
;AFTER_LAYER_CHANGE
;0.38
M104 S210 ; set temperature
M140 S60 ; set bed temperature
G1 X95.115 Y122.429
G1 E5 F2400
;TYPE:Skirt/Brim
;WIDTH:0.42
G1 X94.539 Y122.097 E.00891
G1 X93.776 Y121.484 E.01311
G1 X93.083 Y120.799 E.01305
G1 X92.243 Y119.731 E.01821
G1 X91.55 Y118.517 E.01873
G1 X91.046 Y117.212 E.01874
G1 X90.757 Y115.95 E.01735
G1 X90.645 Y114.592 E.01824
G1 X90.647 Y105.279 E.12479
G1 X90.886 Y103.389 E.02552
G1 X91.473 Y101.651 E.02457
G1 X92.4 Y100.044 E.02486
G1 X93.671 Y98.61 E.02568
G1 X94.871 Y97.676 E.02037
G1 X96.149 Y96.974 E.01953
G1 X97.588 Y96.461 E.02048
G1 X99.103 Y96.188 E.02062
G1 X120.047 Y96.145 E.28061
G1 X121.579 Y96.279 E.0206
G1 X123.101 Y96.673 E.02106
G1 X124.515 Y97.306 E.02075
G1 X125.787 Y98.149 E.02045
G1 X126.912 Y99.196 E.02059
G1 X127.857 Y100.421 E.02073
G1 X128.584 Y101.78 E.02065
G1 X129.076 Y103.231 E.02053
G1 X129.282 Y104.328 E.01495
G1 X129.355 Y105.399 E.01439
G1 X129.355 Y114.586 E.12309
G1 X129.244 Y115.941 E.01822
G1 X128.883 Y117.436 E.0206
G1 X128.263 Y118.887 E.02113
G1 X127.43 Y120.185 E.02068
G1 X126.329 Y121.39 E.02187
G1 X125.194 Y122.282 E.01934
G1 X123.849 Y123.027 E.0206
G1 X122.4 Y123.543 E.0206
G1 X120.889 Y123.813 E.02057
G1 X99.812 Y123.854 E.28239
G1 X97.976 Y123.634 E.02478
G1 X96.151 Y123.027 E.02576
G1 X95.167 Y122.459 E.01523
G1 E-3.5 F3600
;WIPE_START
G1 F7200
G1 X94.539 Y122.097 E-.34433
G1 X93.776 Y121.484 E-.46492
G1 X93.083 Y120.799 E-.4627
G1 X92.884 Y120.546 E-.15306
;WIPE_END
G1 E-.075 F3600
G1 X99.022 Y116.137 F9000
G1 E5 F2400
;TYPE:Perimeter
;WIDTH:0.45
G1 X98.837 Y116.011 E.00323
G1 X98.639 Y115.836 E.00381
G1 X98.491 Y115.667 E.00323
G1 X98.363 Y115.478 E.00328
G1 X98.259 Y115.279 E.00323
G1 X98.168 Y115.031 E.00381
G1 X98.118 Y114.812 E.00323
G1 X98.094 Y114.578 E.0034
G1 X98.099 Y105.35 E.13285
G1 X98.129 Y105.131 E.00317
G1 X98.186 Y104.911 E.00328
G1 X98.269 Y104.698 E.00328
G1 X98.377 Y104.497 E.00328
G1 X98.509 Y104.311 E.00328
G1 X98.661 Y104.141 E.00329
G1 X98.833 Y103.991 E.00328
G1 X99.022 Y103.863 E.00328
G1 X99.221 Y103.759 E.00323
G1 X99.465 Y103.67 E.00375
G1 X99.716 Y103.614 E.00369
G1 X100 Y103.591 E.00411
G1 X119.982 Y103.591 E.28766
G1 X120.369 Y103.631 E.00559
G1 X120.696 Y103.727 E.00491
G1 X121.001 Y103.88 E.00492
G1 X121.275 Y104.084 E.00492
G1 X121.524 Y104.353 E.00527
G1 X121.694 Y104.624 E.00461
G1 X121.829 Y104.966 E.00529
G1 X121.898 Y105.321 E.0052
G1 X121.909 Y105.529 E.00299
G1 X121.909 Y114.467 E.12868
G1 X121.893 Y114.732 E.00382
G1 X121.796 Y115.143 E.00609
G1 X121.706 Y115.354 E.00329
G1 X121.593 Y115.55 E.00326
G1 X121.316 Y115.881 E.00621
G1 X120.982 Y116.135 E.00603
G1 X120.749 Y116.253 E.00376
G1 X120.507 Y116.338 E.00369
G1 X120.252 Y116.39 E.00375
G1 X120.004 Y116.409 E.00358
G1 X99.923 Y116.406 E.28909
G1 X99.692 Y116.382 E.00334
G1 X99.434 Y116.321 E.00381
G1 X99.075 Y116.165 E.00564
G1 X98.799 Y116.51 F9000
G1 F2400
G1 X98.57 Y116.353 E.004
G1 X98.331 Y116.141 E.0046
G1 X98.148 Y115.932 E.004
G1 X97.99 Y115.701 E.00403
G1 X97.863 Y115.454 E.004
G1 X97.752 Y115.154 E.0046
G1 X97.691 Y114.884 E.004
G1 X97.661 Y114.6 E.0041
G1 X97.666 Y105.32 E.1336
G1 X97.703 Y105.048 E.00396
G1 X97.774 Y104.777 E.00403
G1 X97.876 Y104.516 E.00403
G1 X98.009 Y104.269 E.00403
G1 X98.17 Y104.04 E.00403
G1 X98.357 Y103.832 E.00403
G1 X98.568 Y103.648 E.00403
G1 X98.799 Y103.49 E.00403
G1 X99.046 Y103.363 E.004
G1 X99.344 Y103.253 E.00457
G1 X99.651 Y103.185 E.00453
G1 X99.982 Y103.158 E.00478
G1 X120.005 Y103.158 E.28824
G1 X120.452 Y103.205 E.00648
G1 X120.855 Y103.322 E.00603
G1 X121.23 Y103.51 E.00604
G1 X121.565 Y103.761 E.00604
G1 X121.861 Y104.08 E.00625
G1 X122.085 Y104.437 E.00608
G1 X122.246 Y104.844 E.0063
G1 X122.329 Y105.268 E.00621
G1 X122.342 Y105.517 E.0036
G1 X122.342 Y114.48 E.12903
G1 X122.324 Y114.782 E.00435
G1 X122.283 Y115.019 E.00346
G1 X122.204 Y115.29 E.00407
G1 X122.094 Y115.547 E.00404
G1 X121.955 Y115.787 E.00398
G1 X121.81 Y115.985 E.00354
G1 X121.616 Y116.194 E.00409
G1 X121.43 Y116.354 E.00354
G1 X121.203 Y116.508 E.00395
G1 X120.92 Y116.652 E.00457
G1 X120.623 Y116.756 E.00453
G1 X120.312 Y116.82 E.00457
G1 X120.02 Y116.842 E.00421
G1 X99.9 Y116.839 E.28965
G1 X99.619 Y116.81 E.00407
G1 X99.308 Y116.736 E.0046
G1 X99.048 Y116.639 E.004
G1 X98.853 Y116.537 E.00317
G1 X98.577 Y116.882 F9000
;TYPE:External perimeter
G1 F1500
G1 X98.303 Y116.695 E.00477
G1 X98.023 Y116.447 E.0054
G1 X97.805 Y116.197 E.00477
G1 X97.618 Y115.923 E.00478
G1 X97.466 Y115.629 E.00477
