; generated by PrusaSlicer 2.4.1-beta3+arm64 on 2022-02-27 at 07:00:43 UTC

; 

; external perimeters extrusion width = 0.45mm
; perimeters extrusion width = 0.45mm
; infill extrusion width = 0.45mm
; solid infill extrusion width = 0.45mm
; top infill extrusion width = 0.40mm
; first layer extrusion width = 0.60mm

; external perimeters extrusion width = 0.45mm
; perimeters extrusion width = 0.45mm
; infill extrusion width = 0.45mm
; solid infill extrusion width = 0.45mm
; top infill extrusion width = 0.40mm
; first layer extrusion width = 0.60mm

M107
;TYPE:Custom
G90 ; use absolute coordinates
M83 ; extruder relative mode
M140 S70 ; set final bed temp
M104 S150 ; set temporary nozzle temp to prevent oozing during homing
G4 S10 ; allow partial nozzle warmup
G28 ; home all axis
G1 Z50 F240
G1 X2 Y10 F3000
M104 S215 ; set final nozzle temp
M190 S70 ; wait for bed temp to stabilize
M109 S215 ; wait for nozzle temp to stabilize
G1 Z0.28 F240
G92 E0
G1 Y140 E10 F1500 ; prime the nozzle
G1 X2.3 F5000
G92 E0
G1 Y10 E10 F1200 ; prime the nozzle
G92 E0
G21 ; set units to millimeters
G90 ; use absolute coordinates
M83 ; use relative distances for extrusion
; Filament gcode
M107
;LAYER_CHANGE
;Z:0.2
;HEIGHT:0.2
;BEFORE_LAYER_CHANGE
G92 E0
;0.2


G1 E-5 F3600
G1 Z.2 F9000
;AFTER_LAYER_CHANGE
;0.2
G1 X121.282 Y72.485
G1 E5 F2400
M204 S500
;TYPE:Skirt/Brim
;WIDTH:0.6
G1 F1200
G1 X122.597 Y71.128 E.08753
G1 X123.238 Y70.712 E.03539
G1 X123.977 Y70.389 E.03732
G1 X125 Y70.167 E.04853
G1 X149.205 Y70.16 E1.12119
G1 X150.178 Y70.357 E.04597
G1 X151.09 Y70.749 E.04599
G1 X151.757 Y71.204 E.03738
G1 X152.65 Y72.076 E.05784
G1 X153.348 Y73.12 E.05819
G1 X153.675 Y73.999 E.04345
G1 X153.822 Y74.887 E.0417
G1 X153.822 Y145.802 E3.28486
G1 X153.588 Y146.98 E.05565
G1 X153.329 Y147.597 E.03098
G1 X152.978 Y148.198 E.03223
G1 X151.664 Y149.554 E.08751
G1 X151.023 Y149.97 E.03538
G1 X150.285 Y150.293 E.03731
G1 X149.262 Y150.516 E.0485
G1 X139.259 Y150.537 E.46334
G1 X137.811 Y150.631 E.06722
G1 X136.542 Y150.634 E.0588
G1 X135.002 Y150.537 E.07146
G1 X125.168 Y150.534 E.45553
G1 X123.99 Y150.299 E.05565
G1 X123.373 Y150.04 E.03097
G1 X122.772 Y149.689 E.03223
G1 X121.416 Y148.374 E.08751
G1 X121.001 Y147.733 E.03538
G1 X120.678 Y146.994 E.03732
G1 X120.438 Y145.802 E.05633
G1 X120.438 Y74.881 E3.28517
G1 X120.672 Y73.702 E.05567
G1 X120.931 Y73.086 E.03098
G1 X121.252 Y72.537 E.02946
G1 X121.732 Y72.819 F9000
G1 F1200
G1 X122.927 Y71.578 E.0798
G1 X123.522 Y71.193 E.03283
G1 X124.171 Y70.912 E.03277
G1 X125.087 Y70.718 E.04337
G1 X149.125 Y70.712 E1.11349
G1 X149.988 Y70.881 E.04073
G1 X150.802 Y71.227 E.04096
G1 X151.386 Y71.62 E.03263
G1 X152.241 Y72.454 E.0553
G1 X152.838 Y73.348 E.04981
G1 X153.131 Y74.121 E.03826
G1 X153.265 Y74.911 E.03716
G1 X153.265 Y145.775 E3.28248
G1 X153.063 Y146.791 E.048
G1 X152.823 Y147.364 E.02878
G1 X152.516 Y147.886 E.02807
G1 X151.334 Y149.104 E.0786
G1 X150.74 Y149.49 E.03282
G1 X150.09 Y149.771 E.03276
G1 X149.175 Y149.965 E.04334
G1 X139.241 Y149.98 E.46018
G1 X137.784 Y150.074 E.06763
G1 X136.55 Y150.077 E.05716
G1 X135.02 Y149.98 E.07101
G1 X125.195 Y149.977 E.45508
G1 X124.179 Y149.774 E.048
G1 X123.606 Y149.534 E.02878
G1 X123.084 Y149.226 E.02807
G1 X121.867 Y148.044 E.0786
G1 X121.481 Y147.45 E.03282
G1 X121.201 Y146.801 E.03273
G1 X120.995 Y145.775 E.04849
G1 X120.995 Y74.908 E3.28262
G1 X121.197 Y73.892 E.04801
G1 X121.437 Y73.319 E.02879
G1 X121.701 Y72.871 E.02408
G1 X122.181 Y73.154 F9000
G1 F1200
G1 X123.256 Y72.029 E.07207
G1 X123.804 Y71.674 E.03023
G1 X124.362 Y71.436 E.02811
G1 X125.171 Y71.269 E.03825
G1 X149.098 Y71.269 E1.10835
G1 X149.8 Y71.406 E.03312
G1 X150.517 Y71.706 E.03602
G1 X151.016 Y72.038 E.02776
G1 X151.831 Y72.833 E.05272
G1 X152.33 Y73.578 E.04156
G1 X152.587 Y74.245 E.03309
G1 X152.708 Y74.936 E.03252
G1 X152.708 Y145.747 E3.28006
G1 X152.538 Y146.604 E.04044
G1 X152.333 Y147.099 E.02482
G1 X152.052 Y147.575 E.0256
G1 X151.005 Y148.654 E.06967
G1 X150.457 Y149.009 E.03023
G1 X149.899 Y149.247 E.02811
G1 X149.091 Y149.414 E.03823
G1 X139.223 Y149.423 E.45711
G1 X137.757 Y149.518 E.06805
G1 X136.558 Y149.52 E.05551
G1 X135.038 Y149.423 E.07057
G1 X125.223 Y149.42 E.45463
G1 X124.367 Y149.249 E.04044
G1 X123.872 Y149.044 E.02482
G1 X123.396 Y148.763 E.0256
G1 X122.317 Y147.715 E.06967
G1 X121.962 Y147.167 E.03023
G1 X121.725 Y146.61 E.02807
G1 X121.552 Y145.747 E.04075
G1 X121.552 Y74.936 E3.28008
G1 X121.722 Y74.079 E.04045
G1 X121.927 Y73.584 E.02482
G1 X122.151 Y73.205 E.02037
G1 X122.629 Y73.49 F9000
G1 F1200
G1 X122.669 Y73.422 E.00368
G1 X123.588 Y72.477 E.06104
G1 X124.046 Y72.176 E.02537
G1 X124.553 Y71.96 E.02555
G1 X125.252 Y71.821 E.03301
G1 X149.069 Y71.826 E1.10325
G1 X149.661 Y71.946 E.02798
G1 X150.235 Y72.187 E.02882
G1 X150.648 Y72.456 E.02283
G1 X151.421 Y73.211 E.05007
G1 X151.823 Y73.811 E.03344
G1 X152.044 Y74.373 E.02795
G1 X152.151 Y74.962 E.02775
G1 X152.151 Y145.72 E3.2776
G1 X152.013 Y146.416 E.03286
G1 X151.826 Y146.866 E.02259
G1 X151.591 Y147.261 E.02129
G1 X150.673 Y148.206 E.06103
G1 X150.215 Y148.507 E.02537
G1 X149.708 Y148.723 E.02554
G1 X149.01 Y148.862 E.03299
G1 X139.205 Y148.866 E.45418
G1 X137.729 Y148.961 E.06847
G1 X136.567 Y148.963 E.05386
G1 X135.056 Y148.866 E.07014
G1 X125.25 Y148.862 E.45419
G1 X124.555 Y148.724 E.03286
G1 X124.104 Y148.537 E.02259
G1 X123.709 Y148.302 E.02129
G1 X122.765 Y147.383 E.06103
G1 X122.464 Y146.926 E.02537
G1 X122.248 Y146.418 E.02554
G1 X122.109 Y145.72 E.03299
G1 X122.109 Y74.963 E3.27755
G1 X122.247 Y74.267 E.03287
G1 X122.434 Y73.817 E.02259
G1 X122.598 Y73.542 E.01483
G1 X123.074 Y73.829 F9000
G1 F1200
G1 X123.129 Y73.738 E.00494
G1 X123.923 Y72.923 E.05269
G1 X124.289 Y72.678 E.02041
G1 X124.745 Y72.484 E.02295
G1 X125.279 Y72.378 E.02523
G1 X149.041 Y72.383 E1.10068
G1 X149.474 Y72.471 E.02047
G1 X149.958 Y72.671 E.02426
G1 X150.28 Y72.876 E.01768
G1 X151.012 Y73.59 E.04734
G1 X151.318 Y74.047 E.02549
G1 X151.503 Y74.505 E.02287
G1 X151.594 Y74.989 E.02283
G1 X151.594 Y145.693 E3.27508
G1 X151.488 Y146.228 E.02528
G1 X151.32 Y146.633 E.02031
G1 X151.131 Y146.945 E.0169
G1 X150.338 Y147.76 E.05268
G1 X149.972 Y148.005 E.02041
G1 X149.516 Y148.199 E.02294
G1 X148.982 Y148.305 E.02522
G1 X139.186 Y148.309 E.45375
G1 X137.702 Y148.405 E.06888
G1 X136.576 Y148.406 E.0522
G1 X135.074 Y148.309 E.06971
G1 X125.278 Y148.305 E.45375
G1 X124.743 Y148.199 E.02528
G1 X124.338 Y148.031 E.02031
G1 X124.026 Y147.842 E.01689
G1 X123.211 Y147.048 E.05268
G1 X122.966 Y146.682 E.02041
G1 X122.772 Y146.227 E.02294
G1 X122.666 Y145.693 E.02522
G1 X122.666 Y74.991 E3.27502
G1 X122.773 Y74.455 E.02529
G1 X122.94 Y74.05 E.02031
G1 X123.043 Y73.88 E.00918
G1 X123.516 Y74.171 F9000
G1 F1200
G1 X123.586 Y74.057 E.00623
G1 X124.257 Y73.37 E.04446
G1 X124.575 Y73.157 E.01774
G1 X124.931 Y73.009 E.01787
G1 X125.306 Y72.935 E.01771
G1 X149.009 Y72.94 E1.09795
G1 X149.33 Y73.01 E.01518
G1 X149.687 Y73.158 E.01792
G1 X149.915 Y73.298 E.01239
G1 X150.602 Y73.968 E.04446
G1 X150.815 Y74.287 E.01774
G1 X150.962 Y74.643 E.01787
G1 X151.037 Y75.018 E.01771
G1 X151.037 Y145.665 E3.27248
G1 X150.962 Y146.04 E.0177
G1 X150.814 Y146.398 E.01796
G1 X150.674 Y146.626 E.01239
G1 X150.004 Y147.313 E.04445
G1 X149.686 Y147.526 E.01774
G1 X149.329 Y147.674 E.01787
G1 X148.955 Y147.748 E.0177
G1 X139.168 Y147.752 E.45332
G1 X137.675 Y147.848 E.06929
G1 X136.585 Y147.848 E.05052
G1 X135.092 Y147.752 E.06929
G1 X125.306 Y147.748 E.45332
G1 X124.931 Y147.674 E.0177
G1 X124.573 Y147.525 E.01796
G1 X124.345 Y147.385 E.01239
G1 X123.658 Y146.715 E.04445
G1 X123.445 Y146.396 E.01774
G1 X123.298 Y146.04 E.01787
G1 X123.223 Y145.665 E.0177
G1 X123.223 Y75.018 E3.27248
G1 X123.298 Y74.643 E.0177
G1 X123.484 Y74.223 E.02131
G1 X123.953 Y74.519 F9000
G1 F1200
G1 X124.039 Y74.382 E.0075
G1 X124.632 Y73.782 E.03908
G1 X124.813 Y73.661 E.01008
G1 X125.119 Y73.534 E.01534
G1 X125.334 Y73.492 E.01012
G1 X148.977 Y73.497 E1.09521
G1 X149.138 Y73.533 E.0076
G1 X149.45 Y73.663 E.01566
G1 X149.589 Y73.751 E.00764
G1 X150.189 Y74.344 E.03908
G1 X150.31 Y74.525 E.01008
G1 X150.437 Y74.831 E.01534
G1 X150.48 Y75.045 E.01012
G1 X150.48 Y145.638 E3.26995
G1 X150.437 Y145.852 E.01012
G1 X150.309 Y146.161 E.0155
G1 X150.221 Y146.301 E.00764
G1 X149.628 Y146.901 E.03907
G1 X149.447 Y147.022 E.01008
G1 X149.141 Y147.149 E.01534
G1 X148.927 Y147.191 E.01012
G1 X139.163 Y147.195 E.45228
G1 X138.74 Y147.209 E.01963
G1 X137.663 Y147.291 E.05001
G1 X136.597 Y147.291 E.04938
G1 X135.521 Y147.209 E.05001
G1 X135.097 Y147.195 E.01963
G1 X125.333 Y147.191 E.45228
G1 X125.119 Y147.149 E.01012
G1 X124.81 Y147.02 E.0155
G1 X124.67 Y146.932 E.00764
G1 X124.071 Y146.339 E.03908
G1 X123.95 Y146.158 E.01008
G1 X123.823 Y145.852 E.01534
G1 X123.78 Y145.638 E.01012
G1 X123.78 Y75.045 E3.26995
G1 X123.823 Y74.831 E.01012
G1 X123.929 Y74.574 E.01287
G1 X124.444 Y74.787 F9000
G1 F1200
G1 X124.484 Y74.718 E.00373
G1 X125.006 Y74.196 E.03418
G1 X125.361 Y74.049 E.01779
G1 X148.899 Y74.049 E1.09031
G1 X149.254 Y74.196 E.01779
G1 X149.776 Y74.718 E.03418
G1 X149.912 Y75.019 E.01531
G1 X149.923 Y145.611 E3.2699
G1 X149.776 Y145.965 E.01779
G1 X149.254 Y146.487 E.03418
G1 X148.953 Y146.623 E.0153
G1 X139.154 Y146.638 E.45393
G1 X138.709 Y146.653 E.02063
G1 X137.652 Y146.734 E.04908
G1 X136.608 Y146.734 E.04838
G1 X135.551 Y146.653 E.04908
G1 X135.106 Y146.638 E.02063
G1 X125.361 Y146.634 E.45144
G1 X125.006 Y146.487 E.01779
G1 X124.484 Y145.965 E.03418
G1 X124.348 Y145.664 E.0153
G1 X124.337 Y75.073 E3.2699
G1 X124.421 Y74.843 E.01133
G1 X124.936 Y75.056 F9000
G1 F1200
G1 X125.342 Y74.648 E.02665
G1 X125.444 Y74.606 E.00513
G1 X148.816 Y74.606 E1.08264
G1 X148.919 Y74.648 E.00513
G1 X149.323 Y75.053 E.02651
G1 X149.366 Y75.155 E.00513
G1 X149.366 Y145.528 E3.25974
G1 X149.323 Y145.63 E.00513
G1 X148.919 Y146.035 E.0265
G1 X148.816 Y146.077 E.00513
G1 X139.144 Y146.081 E.44803
G1 X138.677 Y146.096 E.02164
G1 X137.641 Y146.177 E.04814
G1 X136.619 Y146.177 E.04736
G1 X135.583 Y146.096 E.04814
G1 X135.116 Y146.081 E.02164
G1 X125.444 Y146.077 E.44803
G1 X125.341 Y146.035 E.00513
G1 X124.937 Y145.63 E.0265
G1 X124.894 Y145.528 E.00513
G1 X124.894 Y75.155 E3.25974
G1 X124.913 Y75.111 E.00221
G1 X125.452 Y75.326 F9000
G1 F1200
G1 X125.615 Y75.163 E.01069
G1 X148.645 Y75.163 E1.06682
G1 X148.809 Y75.326 E.01069
G1 X148.809 Y145.357 E3.24392
G1 X148.646 Y145.52 E.01069
G1 X139.135 Y145.523 E.44055
G1 X138.646 Y145.54 E.02266
G1 X137.63 Y145.62 E.0472
G1 X136.63 Y145.62 E.04633
G1 X135.614 Y145.54 E.0472
G1 X135.125 Y145.523 E.02266
G1 X125.615 Y145.52 E.44055
G1 X125.452 Y145.357 E.01069
G1 X125.452 Y75.386 E3.24114
G1 E-3.5 F3600
;WIPE_START
G1 F7200
G1 X125.615 Y75.163 E-.13131
G1 X128.338 Y75.163 E-1.29369
;WIPE_END
G1 E-.075 F3600
G1 X105.035 Y75.386 F9000
G1 E5 F2400
G1 F1200
G1 X105.035 Y145.85 E3.26398
G1 X104.801 Y147.028 E.05565
G1 X104.542 Y147.645 E.03098
G1 X104.191 Y148.246 E.03223
G1 X102.877 Y149.602 E.08751
G1 X102.236 Y150.018 E.03538
G1 X101.498 Y150.341 E.03731
G1 X100.475 Y150.564 E.0485
G1 X90.472 Y150.585 E.46334
G1 X89.024 Y150.679 E.06722
G1 X87.755 Y150.682 E.0588
G1 X86.215 Y150.585 E.07146
G1 X76.381 Y150.582 E.45553
G1 X75.202 Y150.347 E.05565
G1 X74.586 Y150.088 E.03097
G1 X73.985 Y149.737 E.03223
G1 X72.629 Y148.422 E.08751
G1 X72.214 Y147.781 E.03538
G1 X71.891 Y147.042 E.03732
G1 X71.651 Y145.85 E.05633
G1 X71.651 Y74.929 E3.28517
G1 X71.885 Y73.75 E.05567
G1 X72.144 Y73.134 E.03098
G1 X72.495 Y72.533 E.03224
G1 X73.81 Y71.176 E.08753
G1 X74.451 Y70.76 E.03539
G1 X75.19 Y70.437 E.03732
G1 X76.213 Y70.215 E.04853
G1 X100.418 Y70.208 E1.12119
G1 X101.391 Y70.404 E.04597
G1 X102.303 Y70.797 E.04599
G1 X102.97 Y71.251 E.03738
G1 X103.863 Y72.124 E.05784
G1 X104.561 Y73.168 E.05819
G1 X104.888 Y74.047 E.04345
G1 X105.035 Y74.935 E.0417
G1 X105.035 Y75.326 E.0181
G1 X104.478 Y75.326 F9000
G1 F1200
G1 X104.478 Y145.823 E3.26549
G1 X104.276 Y146.839 E.048
G1 X104.036 Y147.412 E.02878
G1 X103.728 Y147.934 E.02807
G1 X102.547 Y149.152 E.0786
G1 X101.953 Y149.538 E.03282
G1 X101.303 Y149.819 E.03276
G1 X100.388 Y150.013 E.04334
G1 X90.454 Y150.028 E.46018
G1 X88.997 Y150.122 E.06763
G1 X87.763 Y150.125 E.05716
G1 X86.233 Y150.028 E.07101
G1 X76.408 Y150.025 E.45508
G1 X75.392 Y149.822 E.048
G1 X74.819 Y149.582 E.02878
G1 X74.297 Y149.274 E.02807
G1 X73.079 Y148.092 E.0786
G1 X72.694 Y147.498 E.03282
G1 X72.414 Y146.849 E.03273
G1 X72.208 Y145.823 E.04849
G1 X72.208 Y74.956 E3.28262
G1 X72.41 Y73.94 E.04801
G1 X72.65 Y73.367 E.02879
G1 X72.958 Y72.844 E.02808
G1 X74.14 Y71.626 E.07862
G1 X74.734 Y71.241 E.03283
G1 X75.384 Y70.96 E.03277
G1 X76.3 Y70.766 E.04337
G1 X100.338 Y70.76 E1.11349
G1 X101.201 Y70.929 E.04073
G1 X102.015 Y71.275 E.04096
G1 X102.599 Y71.668 E.03263
G1 X103.454 Y72.502 E.0553
G1 X104.051 Y73.396 E.04981
G1 X104.344 Y74.168 E.03826
G1 X104.478 Y74.959 E.03716
G1 X104.478 Y75.266 E.01421
G1 X103.921 Y75.266 F9000
G1 F1200
G1 X103.921 Y145.795 E3.267
G1 X103.751 Y146.652 E.04044
G1 X103.546 Y147.147 E.02482
G1 X103.265 Y147.623 E.0256
G1 X102.218 Y148.702 E.06967
G1 X101.67 Y149.057 E.03023
G1 X101.112 Y149.295 E.02811
G1 X100.304 Y149.462 E.03823
G1 X90.436 Y149.471 E.45711
G1 X88.969 Y149.566 E.06805
G1 X87.771 Y149.568 E.05551
G1 X86.251 Y149.471 E.07057
G1 X76.436 Y149.467 E.45463
G1 X75.58 Y149.297 E.04044
G1 X75.085 Y149.092 E.02482
G1 X74.609 Y148.811 E.0256
G1 X73.53 Y147.763 E.06967
G1 X73.175 Y147.215 E.03023
G1 X72.938 Y146.658 E.02807
G1 X72.765 Y145.795 E.04075
G1 X72.765 Y74.984 E3.28008
G1 X72.935 Y74.127 E.04045
G1 X73.14 Y73.632 E.02482
G1 X73.421 Y73.156 E.02561
G1 X74.469 Y72.077 E.06969
G1 X75.017 Y71.722 E.03023
G1 X75.575 Y71.484 E.02811
G1 X76.384 Y71.317 E.03825
G1 X100.311 Y71.317 E1.10835
G1 X101.013 Y71.454 E.03312
G1 X101.73 Y71.754 E.03602
G1 X102.229 Y72.086 E.02776
G1 X103.044 Y72.881 E.05272
G1 X103.543 Y73.626 E.04156
G1 X103.8 Y74.293 E.03309
G1 X103.921 Y74.984 E.03252
G1 X103.921 Y75.206 E.01028
G1 X103.364 Y75.206 F9000
G1 F1200
G1 X103.364 Y145.768 E3.26851
G1 X103.226 Y146.464 E.03286
G1 X103.039 Y146.914 E.02259
G1 X102.804 Y147.309 E.02129
G1 X101.886 Y148.254 E.06103
G1 X101.428 Y148.555 E.02537
G1 X100.921 Y148.771 E.02554
G1 X100.223 Y148.91 E.03299
G1 X90.417 Y148.914 E.45418
G1 X88.942 Y149.009 E.06847
G1 X87.78 Y149.011 E.05386
G1 X86.269 Y148.914 E.07014
G1 X76.463 Y148.91 E.45419
G1 X75.768 Y148.772 E.03286
G1 X75.317 Y148.585 E.02259
G1 X74.922 Y148.35 E.02129
G1 X73.978 Y147.431 E.06103
G1 X73.677 Y146.973 E.02537
G1 X73.461 Y146.466 E.02554
G1 X73.322 Y145.768 E.03299
G1 X73.322 Y75.011 E3.27755
G1 X73.46 Y74.315 E.03287
G1 X73.647 Y73.865 E.02259
G1 X73.882 Y73.47 E.0213
G1 X74.801 Y72.525 E.06104
G1 X75.259 Y72.224 E.02537
G1 X75.766 Y72.008 E.02555
G1 X76.465 Y71.869 E.03301
G1 X100.282 Y71.874 E1.10325
G1 X100.874 Y71.994 E.02798
G1 X101.448 Y72.235 E.02882
G1 X101.861 Y72.504 E.02283
G1 X102.634 Y73.259 E.05007
G1 X103.036 Y73.859 E.03344
G1 X103.257 Y74.421 E.02795
G1 X103.364 Y75.01 E.02775
G1 X103.364 Y75.146 E.00631
G1 X102.807 Y75.146 F9000
G1 F1200
G1 X102.807 Y145.741 E3.27002
G1 X102.7 Y146.276 E.02528
G1 X102.533 Y146.681 E.02031
G1 X102.344 Y146.993 E.0169
G1 X101.551 Y147.808 E.05268
G1 X101.185 Y148.053 E.02041
G1 X100.729 Y148.247 E.02294
G1 X100.195 Y148.353 E.02522
G1 X90.399 Y148.357 E.45375
G1 X88.915 Y148.453 E.06888
G1 X87.789 Y148.453 E.0522
G1 X86.287 Y148.357 E.06971
G1 X76.491 Y148.353 E.45375
G1 X75.956 Y148.247 E.02528
G1 X75.551 Y148.079 E.02031
G1 X75.239 Y147.89 E.01689
G1 X74.424 Y147.096 E.05268
G1 X74.179 Y146.73 E.02041
G1 X73.985 Y146.274 E.02294
G1 X73.879 Y145.741 E.02522
G1 X73.879 Y75.038 E3.27502
G1 X73.986 Y74.503 E.02529
G1 X74.153 Y74.098 E.02031
G1 X74.342 Y73.786 E.0169
G1 X75.136 Y72.971 E.05269
G1 X75.502 Y72.726 E.02041
G1 X75.958 Y72.532 E.02295
G1 X76.492 Y72.426 E.02523
G1 X100.254 Y72.431 E1.10068
G1 X100.687 Y72.519 E.02047
G1 X101.171 Y72.719 E.02426
G1 X101.493 Y72.924 E.01768
G1 X102.225 Y73.638 E.04734
G1 X102.531 Y74.095 E.02549
