; generated by PrusaSlicer 2.4.1-beta3+arm64 on 2022-02-28 at 02:19:27 UTC

; 

; external perimeters extrusion width = 0.45mm
; perimeters extrusion width = 0.45mm
; infill extrusion width = 0.45mm
; solid infill extrusion width = 0.45mm
; top infill extrusion width = 0.40mm
; first layer extrusion width = 0.60mm

M107
;TYPE:Custom
G90 ; use absolute coordinates
M83 ; extruder relative mode
M140 S70 ; set final bed temp
M104 S150 ; set temporary nozzle temp to prevent oozing during homing
G4 S10 ; allow partial nozzle warmup
G28 ; home all axis
G1 Z50 F240
G1 X2 Y10 F3000
M104 S215 ; set final nozzle temp
M190 S70 ; wait for bed temp to stabilize
M109 S215 ; wait for nozzle temp to stabilize
G1 Z0.28 F240
G92 E0
G1 Y140 E10 F1500 ; prime the nozzle
G1 X2.3 F5000
G92 E0
G1 Y10 E10 F1200 ; prime the nozzle
G92 E0
G21 ; set units to millimeters
G90 ; use absolute coordinates
M83 ; use relative distances for extrusion
; Filament gcode
M107
;LAYER_CHANGE
;Z:0.2
;HEIGHT:0.2
;BEFORE_LAYER_CHANGE
G92 E0
;0.2


G1 E-5 F3600
G1 Z.2 F9000
;AFTER_LAYER_CHANGE
;0.2
G1 X61.095 Y80.803
G1 E5 F2400
M204 S500
;TYPE:Skirt/Brim
;WIDTH:0.6
G1 F1200
G1 X63.118 Y79.555 E.11012
G1 X64.908 Y79.089 E.08568
G1 X98.102 Y74.941 E1.54955
G1 X98.984 Y74.886 E.04094
G1 X119.209 Y74.886 E.93685
G1 X121.553 Y75.283 E.11012
G1 X123.635 Y76.43 E.11012
G1 X124.91 Y77.744 E.08479
G1 X159.91 Y124.625 E2.71003
G1 X160.994 Y126.741 E.11012
G1 X161.324 Y128.881 E.10031
G1 X161.324 Y138 E.4224
G1 X160.926 Y140.344 E.11012
G1 X159.779 Y142.426 E.11012
G1 X158.01 Y144.014 E.11012
G1 X155.817 Y144.93 E.11012
G1 X154.21 Y145.114 E.07493
G1 X111.209 Y145.114 E1.99182
G1 X73.42 Y142.797 E1.75373
G1 X71.106 Y142.256 E.11012
G1 X69.098 Y140.983 E.11012
G1 X67.622 Y139.119 E.11012
G1 X66.876 Y137.058 E.10153
G1 X65.683 Y130.92 E.28967
G1 X58.764 Y87.262 E2.04754
G1 X58.789 Y84.884 E.11012
G1 X59.597 Y82.648 E.11012
G1 X61.058 Y80.85 E.10734
G1 X61.504 Y81.239 F9000
G1 F1200
G1 X61.674 Y81.044 E.01197
G1 X63.672 Y79.943 E.10569
G1 X64.977 Y79.642 E.06207
G1 X98.171 Y75.494 E1.54955
G1 X119.209 Y75.443 E.97451
G1 X121.456 Y75.84 E.10569
G1 X123.431 Y76.983 E.10569
G1 X124.464 Y78.077 E.06971
G1 X159.464 Y124.958 E2.71003
G1 X160.49 Y126.996 E.10569
G1 X160.767 Y128.881 E.08824
G1 X160.767 Y138 E.4224
G1 X160.37 Y140.247 E.10569
G1 X159.227 Y142.222 E.10569
G1 X157.477 Y143.685 E.10569
G1 X154.21 Y144.557 E.15663
G1 X111.209 Y144.557 E1.99182
G1 X73.455 Y142.241 E1.75214
G1 X71.237 Y141.706 E.10569
G1 X69.336 Y140.444 E.10569
G1 X67.983 Y138.607 E.10569
G1 X67.423 Y136.951 E.08095
G1 X66.233 Y130.832 E.28875
G1 X59.314 Y87.174 E2.04754
G1 X59.355 Y84.893 E.10569
G1 X60.174 Y82.764 E.10569
G1 X61.465 Y81.284 E.09094
G1 E-3.5 F3600
;WIPE_START
G1 F7200
G1 X61.674 Y81.044 E-.15125
G1 X63.672 Y79.943 E-1.08376
G1 X64.062 Y79.853 E-.19
;WIPE_END
G1 E-.075 F3600
G1 X66.893 Y86.975 F9000
G1 E5 F2400
;TYPE:Perimeter
G1 F1200
G1 X98.475 Y83.028 E1.4743
G1 X108.753 Y100.736 E.94842
G1 X110.547 Y105.066 E.21712
G1 X112.167 Y104.744 E.07649
G1 X112.167 Y82.957 E1.00921
G1 X118.252 Y82.957 E.2819
G1 X118.252 Y132.959 E2.31616
G1 X152.17 Y132.959 E1.57109
G1 X152.17 Y129.818 E.14548
G1 X153.244 Y129.829 E.04975
G1 X153.196 Y134.957 E.23756
G1 X153.252 Y134.957 E.00263
G1 X153.252 Y137.043 E.09662
G1 X112.167 Y137.043 E1.90315
G1 X112.167 Y130.157 E.31896
G1 X105.924 Y129.086 E.29341
G1 X106.049 Y128.441 E.03043
G1 X104.232 Y128.795 E.08577
G1 X102.936 Y128.573 E.06087
G1 X103.001 Y129.035 E.02162
G1 X74.615 Y134.573 E1.3397
G1 X73.832 Y130.562 E.1893
G1 X74.898 Y130.354 E.05031
G1 X75.472 Y133.3 E.13899
G1 X104.807 Y127.577 E1.38443
G1 X109.663 Y104.467 E1.09384
G1 X97.809 Y84.044 E1.09385
G1 X68.126 Y87.809 E1.38595
G1 X68.608 Y90.803 E.14048
G1 X67.536 Y90.976 E.05034
G1 X66.902 Y87.034 E.18494
G1 X66.251 Y86.494 F9000
;TYPE:External perimeter
G1 F1200
G1 X98.771 Y82.43 E1.5181
G1 X109.254 Y100.488 E.96721
G1 X110.887 Y104.431 E.19766
G1 X111.609 Y104.287 E.03414
G1 X111.609 Y82.4 E1.01384
G1 X118.809 Y82.4 E.33351
G1 X118.809 Y132.402 E2.31616
G1 X151.612 Y132.402 E1.51948
G1 X151.612 Y129.256 E.14573
G1 X153.806 Y129.277 E.1016
G1 X153.758 Y134.4 E.23731
G1 X153.81 Y134.4 E.00239
G1 X153.81 Y137.6 E.14823
G1 X111.609 Y137.6 E1.95476
G1 X111.609 Y130.627 E.32301
G1 X105.268 Y129.538 E.29804
G1 X105.344 Y129.146 E.01853
G1 X104.238 Y129.362 E.05221
G1 X103.594 Y129.251 E.03026
G1 X103.626 Y129.481 E.01074
G1 X74.175 Y135.227 E1.38998
G1 X73.179 Y130.122 E.24092
G1 X75.338 Y129.701 E.10192
G1 X75.912 Y132.646 E.13899
G1 X104.337 Y127.101 E1.34151
G1 X109.074 Y104.562 E1.06683
G1 X97.512 Y84.643 E1.06684
G1 X68.768 Y88.289 E1.34215
G1 X69.247 Y91.265 E.1396
G1 X67.074 Y91.614 E.10195
G1 X66.261 Y86.553 E.23747
G1 X66.638 Y86.594 F9000
G1 X67.545 Y87.611
;TYPE:Gap fill
;WIDTH:0.572299
G1 F1200
G1 X68.028 Y90.615 E.13391
G1 E-3.5 F3600
;WIPE_START
G1 F7200
G1 X67.551 Y87.653 E-1.425
;WIPE_END
G1 E-.075 F3600
G1 X67.545 Y87.611 F9000
G1 E5 F2400
;WIDTH:0.564226
G1 F1200
G1 X67.542 Y87.462 E.00648
G1 X67.7 Y87.393 E.00747
;WIDTH:0.515706
G1 X67.779 Y87.359 E.00339
;WIDTH:0.467186
G1 X82.856 Y85.46 E.5361
;WIDTH:0.438845
G1 X97.934 Y83.562 E.50029
;WIDTH:0.450751
G1 X97.997 Y83.574 E.00218
;WIDTH:0.490997
G1 X98.06 Y83.587 E.00239
;WIDTH:0.531243
G1 X98.123 Y83.599 E.0026
;WIDTH:0.57149
G1 X98.185 Y83.611 E.00282
;WIDTH:0.571628
G1 X98.186 Y83.611 E.00001
;WIDTH:0.57235
G1 X108.265 Y100.977 E.88393
;WIDTH:0.572348
G1 X108.419 Y101.289 E.01529
;WIDTH:0.526605
G1 X108.573 Y101.6 E.01397
;WIDTH:0.480862
G1 X108.727 Y101.911 E.01265
;WIDTH:0.43512
G1 X108.881 Y102.223 E.01133
;WIDTH:0.389377
G1 X109.035 Y102.534 E.01
;WIDTH:0.343634
G1 X109.189 Y102.845 E.00868
;WIDTH:0.297891
G1 X109.343 Y103.156 E.00736
;WIDTH:0.252148
G1 X109.497 Y103.468 E.00604
;WIDTH:0.206406
G1 X109.651 Y103.779 E.00472
;WIDTH:0.160663
G1 X109.805 Y104.09 E.0034
G1 E-3.5 F3600
;WIPE_START
G1 F7200
G1 X109.651 Y103.779 E-.16496
;WIPE_END
G1 E-1.33504 F3600
G1 X118.085 Y84.261 F9000
G1 E5 F2400
;TYPE:Solid infill
;WIDTH:0.604972
G1 F1200
G1 X117.199 Y83.375 E.05856
G1 X116.404 Y83.375 E.03715
G1 X117.835 Y84.805 E.09452
G1 X117.835 Y85.6 E.03715
G1 X115.61 Y83.375 E.14706
G1 X114.815 Y83.375 E.03715
G1 X117.835 Y86.395 E.19959
G1 X117.835 Y87.19 E.03715
G1 X114.02 Y83.375 E.25213
G1 X113.225 Y83.375 E.03715
G1 X117.835 Y87.984 E.30466
G1 X117.835 Y88.779 E.03715
G1 X112.584 Y83.529 E.347
G1 X112.584 Y84.324 E.03715
G1 X117.835 Y89.574 E.347
G1 X117.835 Y90.369 E.03715
G1 X112.584 Y85.119 E.347
G1 X112.584 Y85.914 E.03715
G1 X117.835 Y91.164 E.347
G1 X117.835 Y91.959 E.03715
G1 X112.584 Y86.709 E.347
G1 X112.584 Y87.503 E.03715
G1 X117.835 Y92.754 E.347
G1 X117.835 Y93.549 E.03715
G1 X112.584 Y88.298 E.347
G1 X112.584 Y89.093 E.03715
G1 X117.835 Y94.343 E.347
G1 X117.835 Y95.138 E.03715
G1 X112.584 Y89.888 E.347
G1 X112.584 Y90.683 E.03715
G1 X117.835 Y95.933 E.347
G1 X117.835 Y96.728 E.03715
G1 X112.584 Y91.478 E.347
G1 X112.584 Y92.273 E.03715
G1 X117.835 Y97.523 E.347
G1 X117.835 Y98.318 E.03715
G1 X112.584 Y93.067 E.347
G1 X112.584 Y93.862 E.03715
G1 X117.835 Y99.113 E.347
G1 X117.835 Y99.907 E.03715
G1 X112.584 Y94.657 E.347
G1 X112.584 Y95.452 E.03715
G1 X117.835 Y100.702 E.347
G1 X117.835 Y101.497 E.03715
G1 X112.584 Y96.247 E.347
G1 X112.584 Y97.042 E.03715
G1 X117.835 Y102.292 E.347
G1 X117.835 Y103.087 E.03715
G1 X112.584 Y97.837 E.347
G1 X112.584 Y98.631 E.03715
G1 X117.835 Y103.882 E.347
G1 X117.835 Y104.677 E.03715
G1 X112.584 Y99.426 E.347
G1 X112.584 Y100.221 E.03715
G1 X117.835 Y105.471 E.347
G1 X117.835 Y106.266 E.03715
G1 X112.584 Y101.016 E.347
G1 X112.584 Y101.811 E.03715
G1 X117.835 Y107.061 E.347
G1 X117.835 Y107.856 E.03715
G1 X112.584 Y102.606 E.347
G1 X112.584 Y103.401 E.03715
G1 X117.835 Y108.651 E.347
G1 X117.835 Y109.446 E.03715
G1 X112.584 Y104.195 E.347
G1 X112.584 Y104.99 E.03715
G1 X117.835 Y110.241 E.347
G1 X117.835 Y111.035 E.03715
G1 X112.002 Y105.203 E.38549
G1 X111.339 Y105.335 E.03159
G1 X117.835 Y111.83 E.4293
G1 X117.835 Y112.625 E.03715
G1 X110.676 Y105.467 E.47312
G1 X110.292 Y105.543 E.0183
G1 X110.008 Y104.857 E.03473
G1 X109.88 Y105.465 E.02907
G1 X117.835 Y113.42 E.52575
G1 X117.835 Y114.215 E.03715
G1 X109.742 Y106.122 E.53488
G1 X109.604 Y106.779 E.03137
G1 X117.835 Y115.01 E.544
G1 X117.835 Y115.805 E.03715
G1 X109.466 Y107.436 E.55312
G1 X109.328 Y108.093 E.03137
G1 X117.835 Y116.599 E.56224
G1 X117.835 Y117.394 E.03715
G1 X109.19 Y108.749 E.57136
G1 X109.052 Y109.406 E.03137
G1 X117.835 Y118.189 E.58049
G1 X117.835 Y118.984 E.03715
G1 X108.914 Y110.063 E.58961
G1 X108.776 Y110.72 E.03137
G1 X117.835 Y119.779 E.59873
G1 X117.835 Y120.574 E.03715
G1 X108.638 Y111.377 E.60785
G1 X108.5 Y112.034 E.03137
G1 X117.835 Y121.369 E.61698
G1 X117.835 Y122.164 E.03715
G1 X108.362 Y112.691 E.6261
G1 X108.224 Y113.347 E.03137
G1 X117.835 Y122.958 E.63522
G1 X117.835 Y123.753 E.03715
G1 X108.086 Y114.004 E.64434
G1 X107.948 Y114.661 E.03137
G1 X117.835 Y124.548 E.65347
G1 X117.835 Y125.343 E.03715
G1 X107.81 Y115.318 E.66259
G1 X107.672 Y115.975 E.03137
G1 X117.835 Y126.138 E.67171
G1 X117.835 Y126.933 E.03715
G1 X107.533 Y116.632 E.68083
G1 X107.395 Y117.288 E.03137
G1 X117.835 Y127.728 E.68995
G1 X117.835 Y128.522 E.03715
G1 X107.257 Y117.945 E.69908
G1 X107.119 Y118.602 E.03137
G1 X117.835 Y129.317 E.7082
G1 X117.835 Y130.112 E.03715
G1 X106.981 Y119.259 E.71732
G1 X106.843 Y119.916 E.03137
G1 X117.835 Y130.907 E.72644
G1 X117.835 Y131.702 E.03715
G1 X106.705 Y120.573 E.73557
G1 X106.567 Y121.229 E.03137
G1 X118.085 Y132.747 E.76126
G1 X118.464 Y133.126 F9000
G1 F1200
G1 X121.963 Y136.625 E.23125
G1 X122.758 Y136.625 E.03715
G1 X119.51 Y133.377 E.21469
G1 X120.305 Y133.377 E.03715
G1 X123.553 Y136.625 E.21469
G1 X124.348 Y136.625 E.03715
G1 X121.099 Y133.377 E.21469
G1 X121.894 Y133.377 E.03715
G1 X125.142 Y136.625 E.21469
G1 X125.937 Y136.625 E.03715
G1 X122.689 Y133.377 E.21469
G1 X123.484 Y133.377 E.03715
G1 X126.732 Y136.625 E.21469
G1 X127.527 Y136.625 E.03715
G1 X124.279 Y133.377 E.21469
G1 X125.074 Y133.377 E.03715
G1 X128.322 Y136.625 E.21469
G1 X129.117 Y136.625 E.03715
G1 X125.869 Y133.377 E.21469
G1 X126.663 Y133.377 E.03715
G1 X129.912 Y136.625 E.21469
G1 X130.707 Y136.625 E.03715
G1 X127.458 Y133.377 E.21469
G1 X128.253 Y133.377 E.03715
G1 X131.501 Y136.625 E.21469
G1 X132.296 Y136.625 E.03715
G1 X129.048 Y133.377 E.21469
G1 X129.843 Y133.377 E.03715
G1 X133.091 Y136.625 E.21469
G1 X133.886 Y136.625 E.03715
G1 X130.638 Y133.377 E.21469
G1 X131.433 Y133.377 E.03715
G1 X134.681 Y136.625 E.21469
G1 X135.476 Y136.625 E.03715
G1 X132.227 Y133.377 E.21469
G1 X133.022 Y133.377 E.03715
G1 X136.271 Y136.625 E.21469
G1 X137.065 Y136.625 E.03715
G1 X133.817 Y133.377 E.21469
G1 X134.612 Y133.377 E.03715
G1 X137.86 Y136.625 E.21469
G1 X138.655 Y136.625 E.03715
G1 X135.407 Y133.377 E.21469
G1 X136.202 Y133.377 E.03715
G1 X139.45 Y136.625 E.21469
G1 X140.245 Y136.625 E.03715
G1 X136.997 Y133.377 E.21469
G1 X137.791 Y133.377 E.03715
G1 X141.04 Y136.625 E.21469
G1 X141.835 Y136.625 E.03715
G1 X138.586 Y133.377 E.21469
G1 X139.381 Y133.377 E.03715
G1 X142.629 Y136.625 E.21469
G1 X143.424 Y136.625 E.03715
G1 X140.176 Y133.377 E.21469
G1 X140.971 Y133.377 E.03715
G1 X144.219 Y136.625 E.21469
G1 X145.014 Y136.625 E.03715
G1 X141.766 Y133.377 E.21469
G1 X142.561 Y133.377 E.03715
G1 X145.809 Y136.625 E.21469
G1 X146.604 Y136.625 E.03715
G1 X143.355 Y133.377 E.21469
G1 X144.15 Y133.377 E.03715
G1 X147.399 Y136.625 E.21469
G1 X148.193 Y136.625 E.03715
G1 X144.945 Y133.377 E.21469
G1 X145.74 Y133.377 E.03715
G1 X148.988 Y136.625 E.21469
G1 X149.783 Y136.625 E.03715
G1 X146.535 Y133.377 E.21469
G1 X147.33 Y133.377 E.03715
G1 X150.578 Y136.625 E.21469
G1 X151.373 Y136.625 E.03715
G1 X148.125 Y133.377 E.21469
G1 X148.92 Y133.377 E.03715
G1 X152.168 Y136.625 E.21469
G1 X152.835 Y136.625 E.03117
G1 X152.835 Y136.497 E.00598
G1 X149.714 Y133.377 E.20623
G1 X150.509 Y133.377 E.03715
G1 X152.835 Y135.702 E.15369
G1 X152.835 Y135.375 E.0153
G1 X152.774 Y135.375 E.00284
G1 X152.779 Y134.852 E.02446
G1 X151.304 Y133.377 E.09747
G1 X151.995 Y133.377 E.03228
G1 X151.993 Y133.652 E.01287
G1 X152.376 Y133.654 E.01788
G1 X153.035 Y134.312 E.04352
G1 X152.691 Y133.238 F9000
;TYPE:Gap fill
;WIDTH:0.554835
G1 F1200
G1 X152.705 Y130.102 E.13347
G1 E-3.5 F3600
;WIPE_START
G1 F7200
G1 X152.691 Y133.102 E-1.425
;WIPE_END
G1 E-.075 F3600
G1 X113.47 Y136.876 F9000
G1 E5 F2400
;TYPE:Solid infill
;WIDTH:0.604972
G1 F1200
G1 X112.584 Y135.99 E.05855
G1 X112.584 Y135.195 E.03715
G1 X114.014 Y136.625 E.09452
G1 X114.809 Y136.625 E.03715
G1 X112.584 Y134.4 E.14705
G1 X112.584 Y133.605 E.03715
G1 X115.604 Y136.625 E.19958
G1 X116.399 Y136.625 E.03715
G1 X112.584 Y132.811 E.25212
G1 X112.584 Y132.016 E.03715
G1 X117.194 Y136.625 E.30465
G1 X117.989 Y136.625 E.03715
G1 X112.584 Y131.221 E.35719
G1 X112.584 Y130.426 E.03715
G1 X119.034 Y136.876 E.42629
G1 E-3.5 F3600
;WIPE_START
G1 F7200
G1 X116.913 Y134.754 E-1.425
;WIPE_END
G1 E-.075 F3600
G1 X121.419 Y136.876 F9000
G1 E5 F2400
G1 F1200
G1 X106.429 Y121.886 E.9907
G1 X106.291 Y122.543 E.03137
G1 X120.373 Y136.625 E.93072
G1 X119.578 Y136.625 E.03715
G1 X106.153 Y123.2 E.88731
G1 X106.015 Y123.857 E.03137
G1 X111.835 Y129.676 E.38463
G1 X110.875 Y129.512 E.0455
G1 X105.877 Y124.514 E.33033
G1 X105.739 Y125.17 E.03137
G1 X109.916 Y129.347 E.27604
G1 X108.956 Y129.182 E.0455
G1 X105.601 Y125.827 E.22174
G1 X105.463 Y126.484 E.03137
G1 X107.997 Y129.018 E.16744
G1 X107.037 Y128.853 E.0455
G1 X105.325 Y127.141 E.11314
G1 X105.271 Y127.396 E.0122
G1 X105.389 Y128 E.02873
G1 X105.723 Y128.334 E.02208
G1 X104.982 Y128.096 F9000
;TYPE:Gap fill
;WIDTH:0.571617
G1 F1200
G1 X104.225 Y128.243 E.0339
;WIDTH:0.571616
G1 X104.095 Y128.245 E.00572
;WIDTH:0.525947
G1 X103.965 Y128.246 E.00523
;WIDTH:0.480277
G1 X103.835 Y128.248 E.00474
;WIDTH:0.434608
G1 X103.705 Y128.249 E.00424
;WIDTH:0.388938
G1 X103.574 Y128.251 E.00375
;WIDTH:0.343269
G1 X103.444 Y128.252 E.00325
;WIDTH:0.297599
G1 X103.314 Y128.254 E.00276
;WIDTH:0.25193
G1 X103.184 Y128.255 E.00226
;WIDTH:0.20626
G1 X103.053 Y128.257 E.00177
;WIDTH:0.160591
G1 X102.923 Y128.258 E.00127
G1 X102.652 Y128.55 F9000
;WIDTH:0.571748
G1 F1200
G1 X75.303 Y133.886 E1.22528
G1 X75.079 Y133.883 E.00983
G1 X74.993 Y133.677 E.00984
;WIDTH:0.571857
G1 X74.418 Y130.732 E.13197
M106 S255
;LAYER_CHANGE
;Z:0.36
;HEIGHT:0.16
;BEFORE_LAYER_CHANGE
G92 E0
;0.36


G1 E-3.5 F3600
;WIPE_START
G1 F7200
G1 X74.993 Y133.676 E-1.425
;WIPE_END
G1 E-.075 F3600
G1 Z.36 F9000
;AFTER_LAYER_CHANGE
;0.36
M104 S210 ; set temperature
M140 S60 ; set bed temperature
G1 X66.538 Y135.319
G1 E5 F2400
;TYPE:Skirt/Brim
;WIDTH:0.6
G1 X65.683 Y130.92 E.16865
G1 X58.764 Y87.262 E1.66327
G1 X58.789 Y84.884 E.08945
G1 X59.597 Y82.648 E.08945
G1 X61.095 Y80.803 E.08945
G1 X63.118 Y79.555 E.08945
G1 X64.908 Y79.089 E.0696
G1 X98.102 Y74.941 E1.25874
G1 X98.984 Y74.886 E.03326
G1 X119.209 Y74.886 E.76103
G1 X121.553 Y75.283 E.08945
G1 X123.635 Y76.43 E.08945
G1 X124.91 Y77.744 E.06888
G1 X159.91 Y124.625 E2.20143
G1 X160.994 Y126.741 E.08945
G1 X161.324 Y128.881 E.08148
G1 X161.324 Y138 E.34313
G1 X160.926 Y140.344 E.08945
G1 X159.779 Y142.426 E.08945
G1 X158.01 Y144.014 E.08945
G1 X155.817 Y144.93 E.08945
G1 X154.21 Y145.114 E.06087
G1 X111.209 Y145.114 E1.61801
G1 X73.42 Y142.797 E1.4246
G1 X71.106 Y142.256 E.08945
G1 X69.098 Y140.983 E.08945
G1 X67.622 Y139.119 E.08945
G1 X66.876 Y137.058 E.08248
G1 X66.549 Y135.378 E.06439
G1 X67.096 Y135.272 F9000
G1 F2400
G1 X66.233 Y130.832 E.17018
G1 X59.314 Y87.174 E1.66327
G1 X59.355 Y84.893 E.08585
G1 X60.174 Y82.764 E.08585
G1 X61.674 Y81.044 E.08585
G1 X63.672 Y79.943 E.08585
G1 X64.977 Y79.642 E.05042
G1 X98.171 Y75.494 E1.25874
G1 X119.209 Y75.443 E.79162
G1 X121.456 Y75.84 E.08585
G1 X123.431 Y76.983 E.08585
G1 X124.464 Y78.077 E.05663
G1 X159.464 Y124.958 E2.20143
G1 X160.49 Y126.996 E.08585
G1 X160.767 Y128.881 E.07168
G1 X160.767 Y138 E.34313
G1 X160.37 Y140.247 E.08585
G1 X159.227 Y142.222 E.08585
