; generated by PrusaSlicer 2.4.1-beta3+arm64 on 2022-03-13 at 22:18:30 UTC

; 

; external perimeters extrusion width = 0.45mm
; perimeters extrusion width = 0.45mm
; infill extrusion width = 0.45mm
; solid infill extrusion width = 0.45mm
; top infill extrusion width = 0.40mm
; support material extrusion width = 0.38mm
; first layer extrusion width = 0.60mm

M107
;TYPE:Custom
G90 ; use absolute coordinates
M83 ; extruder relative mode
M140 S70 ; set final bed temp
M104 S150 ; set temporary nozzle temp to prevent oozing during homing
G4 S10 ; allow partial nozzle warmup
G28 ; home all axis
G1 Z50 F240
G1 X2 Y10 F3000
M104 S215 ; set final nozzle temp
M190 S70 ; wait for bed temp to stabilize
M109 S215 ; wait for nozzle temp to stabilize
G1 Z0.28 F240
G92 E0
G1 Y140 E10 F1500 ; prime the nozzle
G1 X2.3 F5000
G92 E0
G1 Y10 E10 F1200 ; prime the nozzle
G92 E0
G21 ; set units to millimeters
G90 ; use absolute coordinates
M83 ; use relative distances for extrusion
; Filament gcode
M107
;LAYER_CHANGE
;Z:0.3
;HEIGHT:0.3
;BEFORE_LAYER_CHANGE
G92 E0
;0.3


G1 E-5 F3600
G1 Z.3 F9000
;AFTER_LAYER_CHANGE
;0.3
G1 X94.702 Y90.82
G1 E5 F2400
M204 S500
;TYPE:Skirt/Brim
;WIDTH:0.6
G1 F1200
G1 X96.517 Y89.297 E.15833
G1 X98.734 Y88.459 E.15833
G1 X100.09 Y88.328 E.09102
G1 X119.91 Y88.328 E1.32405
G1 X122.246 Y88.725 E.15833
G1 X124.32 Y89.872 E.15833
G1 X125.899 Y91.64 E.15833
G1 X126.805 Y93.83 E.15833
G1 X126.978 Y95.181 E.09102
G1 X127.121 Y99.95 E.31873
G1 X127.121 Y120.05 E1.34279
G1 X126.724 Y122.387 E.15833
G1 X125.577 Y124.461 E.15833
G1 X123.809 Y126.039 E.15833
G1 X121.619 Y126.945 E.15833
G1 X120.05 Y127.121 E.1055
G1 X99.95 Y127.121 E1.34279
G1 X97.613 Y126.724 E.15833
G1 X95.539 Y125.577 E.15833
G1 X93.961 Y123.809 E.15833
G1 X93.055 Y121.619 E.15833
G1 X92.879 Y120.05 E.1055
G1 X92.879 Y99.95 E1.34279
G1 X93.022 Y95.181 E.31873
G1 X93.491 Y92.858 E.15833
G1 X94.671 Y90.872 E.15432
G1 X95.144 Y91.166 F9000
G1 F1200
G1 X95.226 Y91.034 E.01042
G1 X97.02 Y89.629 E.15217
G1 X100.09 Y88.863 E.2114
G1 X119.91 Y88.863 E1.32405
G1 X122.153 Y89.26 E.15217
G1 X124.123 Y90.403 E.15217
G1 X125.582 Y92.152 E.15217
G1 X126.442 Y95.198 E.2114
G1 X126.586 Y99.95 E.31763
G1 X126.586 Y120.05 E1.34279
G1 X126.189 Y122.293 E.15217
G1 X125.046 Y124.263 E.15217
G1 X123.297 Y125.722 E.15217
G1 X120.05 Y126.586 E.22443
G1 X99.95 Y126.586 E1.34279
G1 X97.707 Y126.189 E.15217
G1 X95.737 Y125.046 E.15217
G1 X94.278 Y123.297 E.15217
G1 X93.414 Y120.05 E.22443
G1 X93.414 Y99.95 E1.34279
G1 X93.558 Y95.198 E.31763
G1 X94.024 Y92.968 E.15217
G1 X95.112 Y91.217 E.13775
G1 E-3.5 F3600
;WIPE_START
G1 F7200
G1 X95.226 Y91.034 E-.10257
G1 X97.02 Y89.629 E-1.08197
G1 X97.511 Y89.507 E-.24046
;WIPE_END
G1 E-.075 F3600
G1 X119.91 Y99.38 F9000
G1 E5 F2400
;TYPE:Support material
G1 F1200
G1 X114.664 Y99.38 E.35046
G1 X114.33 Y99.714 E.03155
G1 X114.33 Y103.49 E.25227
G1 X105.657 Y103.49 E.57938
G1 X105.656 Y99.714 E.25228
G1 X105.322 Y99.38 E.03154
G1 X100.09 Y99.38 E.3495
G1 X100.09 Y95.399 E.26596
G1 X119.91 Y95.399 E1.32405
G1 X119.91 Y99.3 E.26059
G1 X118.927 Y99.139 F9000
G1 F1200
G1 X118.927 Y95.881 E.21765
G1 X118.332 Y95.881 E.03976
G1 X118.332 Y98.898 E.20155
G1 X117.737 Y98.898 E.03976
G1 X117.737 Y95.881 E.20155
G1 X117.142 Y95.881 E.03976
G1 X117.142 Y98.898 E.20155
G1 X116.546 Y98.898 E.03976
G1 X116.546 Y95.881 E.20155
G1 X115.951 Y95.881 E.03976
G1 X115.951 Y98.898 E.20155
G1 X115.356 Y98.898 E.03976
G1 X115.356 Y95.881 E.20155
G1 X114.761 Y95.881 E.03976
G1 X114.761 Y98.898 E.20155
G1 X114.464 Y98.898 E.01984
G1 X114.166 Y99.196 E.02816
G1 X114.166 Y95.881 E.22146
G1 X113.571 Y95.881 E.03976
G1 X113.571 Y103.008 E.47612
G1 X112.976 Y103.008 E.03976
G1 X112.976 Y95.881 E.47612
G1 X112.381 Y95.881 E.03976
G1 X112.381 Y103.008 E.47612
G1 X111.785 Y103.008 E.03976
G1 X111.785 Y95.881 E.47612
G1 X111.19 Y95.881 E.03976
G1 X111.19 Y103.008 E.47612
G1 X110.595 Y103.008 E.03976
G1 X110.595 Y95.881 E.47612
G1 X110 Y95.881 E.03976
G1 X110 Y103.008 E.47612
G1 X109.405 Y103.008 E.03976
G1 X109.405 Y95.881 E.47612
G1 X108.81 Y95.881 E.03976
G1 X108.81 Y103.008 E.47612
G1 X108.215 Y103.008 E.03976
G1 X108.215 Y95.881 E.47612
G1 X107.619 Y95.881 E.03976
G1 X107.619 Y103.008 E.47612
G1 X107.024 Y103.008 E.03976
G1 X107.024 Y95.881 E.47612
G1 X106.429 Y95.881 E.03976
G1 X106.429 Y103.008 E.47612
G1 X106.139 Y103.008 E.01939
G1 X106.138 Y99.514 E.23342
G1 X105.834 Y99.21 E.02869
G1 X105.834 Y95.881 E.22242
G1 X105.239 Y95.881 E.03976
G1 X105.239 Y98.898 E.20155
G1 X104.644 Y98.898 E.03976
G1 X104.644 Y95.881 E.20155
G1 X104.049 Y95.881 E.03976
G1 X104.049 Y98.898 E.20155
G1 X103.454 Y98.898 E.03976
G1 X103.454 Y95.881 E.20155
G1 X102.858 Y95.881 E.03976
G1 X102.858 Y98.898 E.20155
G1 X102.263 Y98.898 E.03976
G1 X102.263 Y95.881 E.20155
G1 X101.668 Y95.881 E.03976
G1 X101.668 Y98.898 E.20155
G1 X101.073 Y98.898 E.03976
G1 X101.073 Y95.64 E.21765
G1 E-3.5 F3600
;WIPE_START
G1 F7200
G1 X101.073 Y98.64 E-1.425
;WIPE_END
G1 E-.075 F3600
G1 X104.155 Y117.71 F9000
G1 E5 F2400
;TYPE:Perimeter
G1 F1200
G1 X115.833 Y117.706 E.78015
G1 X115.835 Y100.886 E1.12367
G1 X119.114 Y100.886 E.21906
G1 X119.114 Y119.114 E1.21778
G1 X100.886 Y119.114 E1.21778
G1 X100.886 Y100.886 E1.21778
G1 X104.151 Y100.886 E.21811
G1 X104.155 Y117.65 E1.11994
G1 X104.691 Y117.174 F9000
;TYPE:External perimeter
G1 F1200
G1 X115.298 Y117.17 E.7086
G1 X115.3 Y100.35 E1.12369
G1 X119.65 Y100.35 E.29062
G1 X119.65 Y119.65 E1.28934
G1 X100.35 Y119.65 E1.28934
G1 X100.35 Y100.35 E1.28934
G1 X104.686 Y100.35 E.28967
G1 X104.691 Y117.114 E1.11992
G1 X104.725 Y117.573 F9000
G1 E-3.5 F3600
;WIPE_START
G1 F7200
G1 X107.691 Y117.13 E-1.425
;WIPE_END
G1 E-.075 F3600
G1 X101.046 Y117.861 F9000
G1 E5 F2400
;TYPE:Solid infill
;WIDTH:0.60482
G1 F1200
G1 X101.898 Y118.713 E.0812
G1 X102.662 Y118.713 E.05152
G1 X101.287 Y117.338 E.13108
G1 X101.287 Y116.573 E.05152
G1 X103.427 Y118.713 E.20394
G1 X104.191 Y118.713 E.05152
G1 X101.287 Y115.809 E.2768
G1 X101.287 Y115.045 E.05152
G1 X103.754 Y117.511 E.23511
G1 X103.754 Y118.112 E.04048
G1 X104.354 Y118.111 E.04046
G1 X104.955 Y118.713 E.05732
G1 X105.72 Y118.713 E.05152
G1 X105.118 Y118.111 E.05734
G1 X105.882 Y118.111 E.0515
G1 X106.484 Y118.713 E.05737
G1 X107.248 Y118.713 E.05152
G1 X106.646 Y118.111 E.05739
G1 X107.41 Y118.11 E.0515
G1 X108.012 Y118.713 E.05742
G1 X108.777 Y118.713 E.05152
G1 X108.174 Y118.11 E.05744
G1 X108.938 Y118.11 E.0515
G1 X109.541 Y118.713 E.05747
G1 X110.305 Y118.713 E.05152
G1 X109.702 Y118.11 E.05749
G1 X110.466 Y118.109 E.0515
G1 X111.07 Y118.713 E.05752
G1 X111.834 Y118.713 E.05152
G1 X111.23 Y118.109 E.05754
G1 X111.994 Y118.109 E.0515
G1 X112.598 Y118.713 E.05757
G1 X113.363 Y118.713 E.05152
G1 X112.758 Y118.108 E.05759
G1 X113.522 Y118.108 E.0515
G1 X114.127 Y118.713 E.05762
G1 X114.891 Y118.713 E.05152
G1 X114.286 Y118.108 E.05765
G1 X115.05 Y118.108 E.0515
G1 X115.655 Y118.713 E.05767
G1 X116.42 Y118.713 E.05152
G1 X115.815 Y118.107 E.0577
G1 X116.235 Y118.107 E.02835
G1 X116.235 Y117.764 E.02316
G1 X117.184 Y118.713 E.09046
G1 X117.948 Y118.713 E.05152
G1 X116.235 Y117 E.16331
G1 X116.235 Y116.235 E.05151
G1 X118.713 Y118.713 E.23616
G1 X118.713 Y117.948 E.05151
G1 X116.235 Y115.471 E.23616
G1 X116.235 Y114.707 E.05151
G1 X118.713 Y117.184 E.23615
G1 X118.713 Y116.42 E.05152
G1 X116.236 Y113.943 E.23614
G1 X116.236 Y113.178 E.05151
G1 X118.713 Y115.656 E.23613
G1 X118.713 Y114.891 E.05152
G1 X116.236 Y112.414 E.23612
G1 X116.236 Y111.65 E.05151
G1 X118.713 Y114.127 E.23612
G1 X118.713 Y113.363 E.05152
G1 X116.236 Y110.886 E.23611
G1 X116.236 Y110.122 E.05151
G1 X118.713 Y112.598 E.2361
G1 X118.713 Y111.834 E.05152
G1 X116.236 Y109.357 E.23609
G1 X116.236 Y108.593 E.05151
G1 X118.713 Y111.07 E.23608
G1 X118.713 Y110.305 E.05152
G1 X116.236 Y107.829 E.23607
G1 X116.236 Y107.065 E.05151
G1 X118.713 Y109.541 E.23607
G1 X118.713 Y108.777 E.05152
G1 X116.236 Y106.301 E.23606
G1 X116.236 Y105.536 E.05151
G1 X118.713 Y108.013 E.23605
G1 X118.713 Y107.248 E.05152
G1 X116.237 Y104.772 E.23604
G1 X116.237 Y104.008 E.05151
G1 X118.713 Y106.484 E.23603
G1 X118.713 Y105.72 E.05152
G1 X116.237 Y103.244 E.23602
G1 X116.237 Y102.48 E.05151
G1 X118.713 Y104.955 E.23601
G1 X118.713 Y104.191 E.05152
G1 X116.237 Y101.715 E.23601
G1 X116.237 Y101.287 E.02885
G1 X116.573 Y101.287 E.02266
G1 X118.713 Y103.427 E.20395
G1 X118.713 Y102.663 E.05152
G1 X117.337 Y101.287 E.13109
G1 X118.102 Y101.287 E.05152
G1 X118.954 Y102.139 E.08121
G1 E-3.5 F3600
;WIPE_START
G1 F7200
G1 X118.102 Y101.287 E-.57228
G1 X117.337 Y101.287 E-.36304
G1 X118.066 Y102.016 E-.48968
;WIPE_END
G1 E-.075 F3600
G1 X103.99 Y101.697 F9000
G1 E5 F2400
G1 F1200
G1 X103.58 Y101.287 E.03908
G1 X102.816 Y101.287 E.05152
G1 X103.749 Y102.221 E.08897
G1 X103.749 Y102.985 E.05153
G1 X102.052 Y101.287 E.16185
G1 X101.287 Y101.287 E.05152
G1 X103.75 Y103.75 E.23473
G1 X103.75 Y104.514 E.05153
G1 X101.287 Y102.052 E.23475
G1 X101.287 Y102.816 E.05152
G1 X103.75 Y105.279 E.23477
G1 X103.75 Y106.043 E.05153
G1 X101.287 Y103.58 E.23479
G1 X101.287 Y104.345 E.05152
G1 X103.751 Y106.808 E.23481
G1 X103.751 Y107.572 E.05153
G1 X101.287 Y105.109 E.23483
G1 X101.287 Y105.873 E.05152
G1 X103.751 Y108.337 E.23485
G1 X103.751 Y109.101 E.05153
G1 X101.287 Y106.637 E.23487
G1 X101.287 Y107.402 E.05152
G1 X103.751 Y109.866 E.2349
G1 X103.752 Y110.63 E.05153
G1 X101.287 Y108.166 E.23492
G1 X101.287 Y108.93 E.05152
G1 X103.752 Y111.395 E.23494
G1 X103.752 Y112.159 E.05153
G1 X101.287 Y109.695 E.23496
G1 X101.287 Y110.459 E.05152
G1 X103.752 Y112.924 E.23498
G1 X103.753 Y113.688 E.05153
G1 X101.287 Y111.223 E.235
G1 X101.287 Y111.988 E.05152
G1 X103.753 Y114.453 E.23502
G1 X103.753 Y115.217 E.05153
G1 X101.287 Y112.752 E.23504
G1 X101.287 Y113.516 E.05152
G1 X103.753 Y115.982 E.23506
G1 X103.753 Y116.746 E.05153
G1 X101.046 Y114.039 E.25806
M106 S255
;LAYER_CHANGE
;Z:0.46
;HEIGHT:0.16
;BEFORE_LAYER_CHANGE
G92 E0
;0.46


G1 E-3.5 F3600
;WIPE_START
G1 F7200
G1 X103.168 Y116.161 E-1.425
;WIPE_END
G1 E-.075 F3600
G1 Z.46 F9000
;AFTER_LAYER_CHANGE
;0.46
M104 S210 ; set temperature
M140 S60 ; set bed temperature
G1 X92.879 Y116.161
G1 E5 F2400
;TYPE:Skirt/Brim
;WIDTH:0.6
G1 X92.879 Y99.95 E.60998
G1 X93.022 Y95.181 E.17953
G1 X93.491 Y92.858 E.08918
G1 X94.702 Y90.82 E.08918
G1 X96.517 Y89.297 E.08918
G1 X98.734 Y88.459 E.08918
G1 X100.09 Y88.328 E.05127
G1 X119.91 Y88.328 E.74577
G1 X122.246 Y88.725 E.08918
G1 X124.32 Y89.872 E.08918
G1 X125.899 Y91.64 E.08918
G1 X126.805 Y93.83 E.08918
G1 X126.978 Y95.181 E.05127
G1 X127.121 Y99.95 E.17953
G1 X127.121 Y120.05 E.75633
G1 X126.724 Y122.387 E.08918
G1 X125.577 Y124.461 E.08918
G1 X123.809 Y126.039 E.08918
G1 X121.619 Y126.945 E.08918
G1 X120.05 Y127.121 E.05942
G1 X99.95 Y127.121 E.75633
G1 X97.613 Y126.724 E.08918
G1 X95.539 Y125.577 E.08918
G1 X93.961 Y123.809 E.08918
G1 X93.055 Y121.619 E.08918
G1 X92.879 Y120.05 E.05942
G1 X92.879 Y116.221 E.14409
G1 X93.414 Y116.221 F9000
G1 F2400
G1 X93.414 Y99.95 E.61224
G1 X93.558 Y95.198 E.17891
G1 X94.024 Y92.968 E.08571
G1 X95.226 Y91.034 E.08571
G1 X97.02 Y89.629 E.08571
G1 X100.09 Y88.863 E.11907
G1 X119.91 Y88.863 E.74577
G1 X122.153 Y89.26 E.08571
G1 X124.123 Y90.403 E.08571
G1 X125.582 Y92.152 E.08571
G1 X126.442 Y95.198 E.11907
G1 X126.586 Y99.95 E.1789
G1 X126.586 Y120.05 E.75633
G1 X126.189 Y122.293 E.08571
G1 X125.046 Y124.263 E.08571
G1 X123.297 Y125.722 E.08571
G1 X120.05 Y126.586 E.12641
G1 X99.95 Y126.586 E.75633
G1 X97.707 Y126.189 E.08571
G1 X95.737 Y125.046 E.08571
G1 X94.278 Y123.297 E.08571
G1 X93.414 Y120.05 E.12641
G1 X93.414 Y116.281 E.14183
G1 E-3.5 F3600
;WIPE_START
G1 F7200
G1 X93.414 Y113.281 E-1.425
;WIPE_END
G1 E-.075 F3600
G1 X104.452 Y117.416 F9000
G1 E5 F2400
;TYPE:Perimeter
;WIDTH:0.45
G1 X115.537 Y117.413 E.3065
G1 X115.539 Y100.591 E.46514
G1 X119.409 Y100.591 E.10703
G1 X119.409 Y119.409 E.52034
G1 X100.591 Y119.409 E.52034
G1 X100.591 Y100.591 E.52034
G1 X104.448 Y100.591 E.10666
G1 X104.452 Y117.356 E.46356
G1 X104.867 Y117 F9000
;TYPE:External perimeter
G1 F1500
G1 X115.121 Y116.997 E.28352
G1 X115.123 Y100.175 E.46514
G1 X119.825 Y100.175 E.13001
G1 X119.825 Y119.825 E.54332
G1 X100.175 Y119.825 E.54332
G1 X100.175 Y100.175 E.54332
G1 X104.864 Y100.175 E.12964
G1 X104.867 Y116.94 E.46356
G1 X104.904 Y117.399 F9000
G1 E-3.5 F3600
;WIPE_START
G1 F7200
G1 X107.867 Y116.957 E-1.425
;WIPE_END
G1 E-.075 F3600
G1 X115.662 Y117.336 F9000
G1 E5 F2400
;TYPE:Solid infill
;WIDTH:0.452109
G1 X119.098 Y113.9 E.13504
G1 X119.098 Y113.31 E.01642
G1 X115.849 Y116.558 E.12768
G1 X115.849 Y115.967 E.01642
G1 X119.098 Y112.719 E.12768
G1 X119.098 Y112.128 E.01642
G1 X115.849 Y115.377 E.12768
G1 X115.849 Y114.786 E.01642
G1 X119.098 Y111.537 E.12768
G1 X119.098 Y110.946 E.01642
G1 X115.849 Y114.195 E.12767
G1 X115.849 Y113.604 E.01642
G1 X119.098 Y110.355 E.12767
G1 X119.098 Y109.765 E.01642
G1 X115.849 Y113.013 E.12767
G1 X115.849 Y112.422 E.01642
G1 X119.098 Y109.174 E.12767
G1 X119.098 Y108.583 E.01642
G1 X115.849 Y111.831 E.12767
G1 X115.849 Y111.24 E.01642
G1 X119.098 Y107.992 E.12766
G1 X119.098 Y107.401 E.01642
G1 X115.849 Y110.65 E.12766
G1 X115.849 Y110.059 E.01642
G1 X119.098 Y106.811 E.12766
G1 X119.098 Y106.22 E.01642
G1 X115.849 Y109.468 E.12766
G1 X115.85 Y108.877 E.01642
G1 X119.098 Y105.629 E.12765
G1 X119.098 Y105.038 E.01642
G1 X115.85 Y108.286 E.12765
G1 X115.85 Y107.695 E.01642
G1 X119.098 Y104.447 E.12765
G1 X119.098 Y103.856 E.01642
G1 X115.85 Y107.104 E.12765
G1 X115.85 Y106.514 E.01642
G1 X119.098 Y103.266 E.12765
G1 X119.098 Y102.675 E.01642
G1 X115.85 Y105.923 E.12764
G1 X115.85 Y105.332 E.01642
G1 X119.098 Y102.084 E.12764
G1 X119.098 Y101.493 E.01642
G1 X115.85 Y104.741 E.12764
G1 X115.85 Y104.15 E.01642
G1 X119.098 Y100.902 E.12764
G1 X118.507 Y100.902 E.01642
G1 X115.85 Y103.559 E.10441
G1 X115.85 Y102.968 E.01642
G1 X117.916 Y100.902 E.08119
G1 X117.325 Y100.902 E.01642
G1 X115.85 Y102.377 E.05797
G1 X115.85 Y101.787 E.01642
G1 X116.734 Y100.902 E.03475
G1 X116.143 Y100.902 E.01642
G1 X115.663 Y101.383 E.01888
G1 E-3.5 F3600
;WIPE_START
G1 F7200
G1 X116.143 Y100.902 E-.32264
G1 X116.734 Y100.902 E-.28064
G1 X115.85 Y101.787 E-.5939
G1 X115.85 Y102.266 E-.22782
;WIPE_END
G1 E-.075 F3600
G1 X101.56 Y100.715 F9000
G1 E5 F2400
G1 X100.902 Y101.373 E.02584
G1 X100.902 Y101.964 E.01642
G1 X101.964 Y100.902 E.04171
G1 X102.555 Y100.902 E.01642
G1 X100.902 Y102.555 E.06493
G1 X100.902 Y103.145 E.01642
G1 X103.145 Y100.902 E.08815
G1 X103.736 Y100.902 E.01642
G1 X100.902 Y103.736 E.11137
G1 X100.902 Y104.327 E.01642
G1 X104.136 Y101.093 E.1271
G1 X104.137 Y101.684 E.01642
G1 X100.902 Y104.918 E.12711
G1 X100.902 Y105.509 E.01642
G1 X104.137 Y102.274 E.12711
G1 X104.137 Y102.865 E.01642
G1 X100.902 Y106.099 E.12712
G1 X100.902 Y106.69 E.01642
G1 X104.137 Y103.456 E.12712
G1 X104.137 Y104.046 E.01642
G1 X100.902 Y107.281 E.12713
G1 X100.902 Y107.872 E.01642
G1 X104.137 Y104.637 E.12713
G1 X104.137 Y105.228 E.01642
G1 X100.902 Y108.463 E.12714
G1 X100.902 Y109.054 E.01642
G1 X104.137 Y105.819 E.12714
G1 X104.138 Y106.409 E.01642
G1 X100.902 Y109.644 E.12715
G1 X100.902 Y110.235 E.01642
G1 X104.138 Y107 E.12715
G1 X104.138 Y107.591 E.01642
G1 X100.902 Y110.826 E.12716
G1 X100.902 Y111.417 E.01642
G1 X104.138 Y108.181 E.12716
G1 X104.138 Y108.772 E.01642
G1 X100.902 Y112.008 E.12717
G1 X100.902 Y112.599 E.01642
G1 X104.138 Y109.363 E.12717
G1 X104.138 Y109.953 E.01642
G1 X100.902 Y113.189 E.12718
G1 X100.902 Y113.78 E.01642
G1 X104.139 Y110.544 E.12718
G1 X104.139 Y111.135 E.01642
G1 X100.902 Y114.371 E.12719
G1 X100.902 Y114.962 E.01642
G1 X104.139 Y111.725 E.1272
G1 X104.139 Y112.316 E.01642
G1 X100.902 Y115.553 E.1272
G1 X100.902 Y116.143 E.01642
G1 X104.139 Y112.907 E.12721
G1 X104.139 Y113.497 E.01642
G1 X100.902 Y116.734 E.12721
G1 X100.902 Y117.325 E.01642
G1 X104.139 Y114.088 E.12722
G1 X104.139 Y114.679 E.01642
G1 X100.902 Y117.916 E.12722
G1 X100.902 Y118.507 E.01642
G1 X104.14 Y115.269 E.12723
G1 X104.14 Y115.86 E.01642
G1 X100.902 Y119.098 E.12723
