; generated by PrusaSlicer 2.4.1-beta3+arm64 on 2022-03-13 at 21:55:35 UTC

; 

; external perimeters extrusion width = 0.45mm
; perimeters extrusion width = 0.45mm
; infill extrusion width = 0.45mm
; solid infill extrusion width = 0.45mm
; top infill extrusion width = 0.40mm
; first layer extrusion width = 0.60mm

M107
;TYPE:Custom
G90 ; use absolute coordinates
M83 ; extruder relative mode
M140 S70 ; set final bed temp
M104 S150 ; set temporary nozzle temp to prevent oozing during homing
G4 S10 ; allow partial nozzle warmup
G28 ; home all axis
G1 Z50 F240
G1 X2 Y10 F3000
M104 S215 ; set final nozzle temp
M190 S70 ; wait for bed temp to stabilize
M109 S215 ; wait for nozzle temp to stabilize
G1 Z0.28 F240
G92 E0
G1 Y140 E10 F1500 ; prime the nozzle
G1 X2.3 F5000
G92 E0
G1 Y10 E10 F1200 ; prime the nozzle
G92 E0
G21 ; set units to millimeters
G90 ; use absolute coordinates
M83 ; use relative distances for extrusion
; Filament gcode
M107
;LAYER_CHANGE
;Z:0.3
;HEIGHT:0.3
;BEFORE_LAYER_CHANGE
G92 E0
;0.3


G1 E-5 F3600
G1 Z.3 F9000
;AFTER_LAYER_CHANGE
;0.3
G1 X113.84 Y56.267
G1 E5 F2400
M204 S500
;TYPE:Skirt/Brim
;WIDTH:0.6
G1 F1200
G1 X114.779 Y54.367 E.14158
G1 X115.657 Y53.008 E.10807
G1 X117.012 Y51.362 E.14244
G1 X118.36 Y50.101 E.12332
G1 X120.095 Y48.861 E.14244
G1 X121.724 Y47.993 E.12332
G1 X123.72 Y47.244 E.14244
G1 X125.518 Y46.827 E.12332
G1 X127.64 Y46.62 E.14244
G1 X129.485 Y46.683 E.12332
G1 X131.589 Y47.033 E.14244
G1 X133.355 Y47.57 E.12332
G1 X135.296 Y48.453 E.14244
G1 X136.862 Y49.429 E.12331
G1 X138.509 Y50.783 E.14244
G1 X139.769 Y52.132 E.12332
G1 X141.009 Y53.867 E.14244
G1 X142.064 Y56.065 E.16291
G1 X142.784 Y58.674 E.18077
G1 X143.003 Y59.846 E.07966
G1 X143.146 Y61.3 E.09762
G1 X143.132 Y62.813 E.10111
G1 X143 Y63.934 E.07538
G1 X142.695 Y65.32 E.0948
G1 X141.681 Y68.401 E.21672
G1 X109.545 Y163.698 E6.71858
G1 X108.621 Y165.517 E.13629
G1 X104.126 Y171.884 E.52068
G1 X102.454 Y173.564 E.15833
G1 X100.321 Y174.597 E.15833
G1 X98.348 Y174.877 E.13317
G1 X86.712 Y174.872 E.77728
G1 X84.376 Y174.474 E.15833
G1 X82.303 Y173.326 E.15833
G1 X80.863 Y171.769 E.14165
G1 X76.57 Y165.437 E.51108
G1 X75.588 Y163.28 E.15833
G1 X75.429 Y160.423 E.19116
G1 X77.538 Y146.319 E.95274
G1 X79.524 Y135.672 E.72351
G1 X84.004 Y119.647 E1.11161
G1 X86.451 Y113.216 E.45966
G1 X92.401 Y99.643 E.99006
G1 X113.814 Y56.321 E3.2284
G1 X114.294 Y56.558 F9000
G1 F1200
G1 X115.259 Y54.604 E.14558
G1 X116.071 Y53.349 E.09988
G1 X117.425 Y51.702 E.14244
G1 X118.672 Y50.537 E.11398
G1 X120.406 Y49.297 E.14244
G1 X121.912 Y48.494 E.11397
G1 X123.908 Y47.746 E.14244
G1 X125.57 Y47.36 E.11398
G1 X127.692 Y47.153 E.14244
G1 X129.398 Y47.211 E.11398
G1 X131.501 Y47.561 E.14244
G1 X133.133 Y48.058 E.11398
G1 X135.074 Y48.94 E.14244
G1 X136.522 Y49.843 E.11397
G1 X138.168 Y51.197 E.14244
G1 X139.333 Y52.444 E.11398
G1 X140.573 Y54.178 E.14244
G1 X141.548 Y56.21 E.15057
G1 X142.268 Y58.816 E.18059
G1 X142.47 Y59.899 E.07363
G1 X142.613 Y61.352 E.09753
G1 X142.6 Y62.751 E.09345
G1 X142.469 Y63.872 E.07538
G1 X142.186 Y65.152 E.08762
G1 X141.173 Y68.23 E.21645
G1 X109.038 Y163.527 E6.71858
G1 X108.184 Y165.208 E.12597
G1 X103.689 Y171.575 E.52068
G1 X102.071 Y173.179 E.15217
G1 X100.001 Y174.129 E.15217
G1 X98.348 Y174.342 E.11135
G1 X86.713 Y174.337 E.77728
G1 X84.47 Y173.939 E.15217
G1 X82.5 Y172.795 E.15217
G1 X81.306 Y171.469 E.1192
G1 X77.013 Y165.137 E.51108
G1 X76.083 Y163.057 E.15217
G1 X75.959 Y160.503 E.17088
G1 X78.068 Y146.398 E.95274
G1 X80.05 Y135.771 E.72221
G1 X84.505 Y119.837 E1.10526
G1 X86.942 Y113.431 E.45788
G1 X92.886 Y99.87 E.98918
G1 X114.267 Y56.612 E3.22359
G1 E-3.5 F3600
;WIPE_START
G1 F7200
G1 X115.259 Y54.604 E-1.06363
G1 X115.672 Y53.965 E-.36137
;WIPE_END
G1 E-.075 F3600
G1 X96.246 Y160.503 F9000
G1 E5 F2400
;TYPE:Perimeter
G1 F1200
G1 X96.251 Y163.243 E.18304
G1 X98.683 Y164.741 E.19077
G1 X97.741 Y166.87 E.15555
G1 X87.346 Y166.866 E.69438
G1 X86.493 Y164.759 E.1519
G1 X88.97 Y163.25 E.19377
G1 X89.004 Y160.498 E.18382
G1 X83.645 Y160.527 E.35806
G1 X84.909 Y155.821 E.32557
G1 X85.462 Y147.482 E.5583
G1 X87.387 Y137.184 E.69989
G1 X91.465 Y122.573 E1.01339
G1 X93.804 Y116.405 E.44069
G1 X99.58 Y103.193 E.96328
G1 X99.7 Y102.953 E.01792
G1 X103.695 Y95.836 E.54522
G1 X109.841 Y85.523 E.80206
G1 X115.959 Y76.191 E.74542
G1 X122.637 Y68.98 E.6566
G1 X122.261 Y67.561 E.09807
G1 X122.162 Y65.631 E.12908
G1 X122.887 Y66.645 E.08326
G1 X124.312 Y67.817 E.12322
G1 X125.991 Y68.58 E.12322
G1 X127.81 Y68.882 E.12322
G1 X128.349 Y68.83 E.03618
G1 X127.525 Y70.211 E.10743
G1 X127.261 Y70.413 E.02222
G1 X126.818 Y70.525 E.03053
G1 X121.22 Y78.315 E.64082
G1 X116.817 Y87.763 E.69639
G1 X111.725 Y98.539 E.7962
G1 X108.858 Y106.308 E.55326
G1 X104.728 Y119.175 E.90277
G1 X102.742 Y125.908 E.46896
G1 X100.97 Y138.103 E.82323
G1 X100.014 Y147.335 E.62005
G1 X100.357 Y155.809 E.56659
G1 X101.623 Y160.503 E.32479
G1 X96.306 Y160.503 E.35521
G1 X96.783 Y161.039 F9000
;TYPE:External perimeter
G1 F1200
G1 X96.787 Y162.944 E.12725
G1 X99.362 Y164.53 E.20207
G1 X98.089 Y167.406 E.21009
G1 X86.986 Y167.401 E.74179
G1 X85.825 Y164.538 E.2064
G1 X88.438 Y162.946 E.20437
G1 X88.462 Y161.037 E.12758
G1 X82.945 Y161.067 E.36855
G1 X84.378 Y155.733 E.36897
G1 X84.93 Y147.415 E.5569
G1 X86.865 Y137.062 E.70358
G1 X90.956 Y122.406 E1.01657
G1 X93.308 Y116.202 E.4432
G1 X99.095 Y102.967 E.96504
G1 X99.226 Y102.703 E.0197
G1 X103.231 Y95.568 E.54659
G1 X109.387 Y85.239 E.80329
G1 X115.535 Y75.86 E.74918
G1 X122.043 Y68.832 E.6399
G1 X121.729 Y67.644 E.08212
G1 X121.613 Y65.381 E.15139
G1 X120.9 Y63.48 E.13566
G1 X120.714 Y61.573 E.12799
G1 X121.029 Y59.683 E.12799
G1 X121.821 Y57.939 E.12799
G1 X123.038 Y56.459 E.12799
G1 X124.597 Y55.345 E.12799
G1 X126.013 Y54.814 E.10104
G1 X126.197 Y55.606 E.05437
G1 X124.98 Y56.063 E.08684
G1 X123.594 Y57.054 E.1138
G1 X122.512 Y58.369 E.1138
G1 X121.807 Y59.92 E.1138
G1 X121.528 Y61.6 E.11379
G1 X121.693 Y63.296 E.11379
G1 X122.291 Y64.89 E.1138
G1 X123.282 Y66.276 E.1138
G1 X124.597 Y67.358 E.1138
G1 X126.148 Y68.063 E.11379
G1 X127.396 Y68.27 E.08451
G1 X127.828 Y68.342 E.02929
G1 X129.524 Y68.177 E.11379
G1 X131.119 Y67.579 E.11379
G1 X132.504 Y66.589 E.1138
G1 X133.599 Y65.258 E.11513
G1 X134.324 Y63.143 E.14932
G1 X134.473 Y61.935 E.08134
G1 X134.316 Y60.509 E.09581
G1 X133.817 Y58.765 E.12121
G1 X132.817 Y57.366 E.11487
G1 X131.501 Y56.284 E.1138
G1 X129.95 Y55.579 E.11379
G1 X128.668 Y55.366 E.08684
G1 X128.696 Y54.552 E.05437
G1 X130.188 Y54.801 E.10104
G1 X131.932 Y55.593 E.12799
G1 X133.411 Y56.81 E.12799
G1 X134.515 Y58.354 E.1268
G1 X135.148 Y60.634 E.15808
G1 X135.282 Y61.974 E.08994
G1 X135.16 Y63.011 E.06975
G1 X134.263 Y65.721 E.19068
G1 X133.06 Y67.183 E.12652
G1 X131.502 Y68.297 E.12799
G1 X129.708 Y68.97 E.12799
G1 X128.839 Y69.055 E.05833
G1 X127.932 Y70.573 E.11814
G1 X127.499 Y70.905 E.03643
G1 X127.139 Y70.996 E.02484
G1 X121.685 Y78.587 E.62442
G1 X117.302 Y87.991 E.69313
G1 X112.22 Y98.747 E.79472
G1 X109.364 Y106.483 E.55091
G1 X105.24 Y119.333 E.90157
G1 X103.267 Y126.023 E.46598
G1 X101.501 Y138.169 E.81994
G1 X100.551 Y147.352 E.61674
G1 X100.89 Y155.728 E.56001
G1 X102.323 Y161.039 E.3675
G1 X96.843 Y161.039 E.36607
G1 X96.401 Y161.159 F9000
G1 E-3.5 F3600
;WIPE_START
G1 F7200
G1 X96.787 Y162.944 E-.90514
G1 X97.718 Y163.518 E-.51986
;WIPE_END
G1 E-.075 F3600
G1 X97.352 Y164.11 F9000
G1 E5 F2400
;TYPE:Solid infill
;WIDTH:0.601676
G1 F1200
G1 X98.164 Y164.921 E.07693
G1 X97.931 Y165.448 E.0386
G1 X85.498 Y153.015 E1.17829
G1 X85.545 Y152.303 E.04786
G1 X95.849 Y162.606 E.9765
G1 X95.847 Y161.845 E.05102
G1 X85.592 Y151.59 E.97189
G1 X85.639 Y150.877 E.04786
G1 X95.846 Y161.084 E.96728
G1 X95.844 Y160.322 E.05102
G1 X85.687 Y150.165 E.96266
G1 X85.734 Y149.452 E.04786
G1 X96.383 Y160.102 E1.00927
G1 X97.143 Y160.102 E.05092
G1 X85.781 Y148.74 E1.0768
G1 X85.828 Y148.027 E.04786
G1 X97.903 Y160.102 E1.14434
G1 X98.663 Y160.102 E.05092
G1 X85.898 Y147.336 E1.20978
G1 X86.017 Y146.696 E.04364
G1 X99.423 Y160.102 E1.27045
G1 X100.182 Y160.102 E.05092
G1 X86.137 Y146.056 E1.33112
G1 X86.257 Y145.416 E.04364
G1 X100.942 Y160.102 E1.39179
G1 X101.099 Y160.102 E.01049
G1 X100.876 Y159.275 E.05734
G1 X86.376 Y144.776 E1.37417
G1 X86.496 Y144.136 E.04364
G1 X100.595 Y158.235 E1.33622
G1 X100.315 Y157.194 E.07223
G1 X86.616 Y143.495 E1.29827
G1 X86.735 Y142.855 E.04364
G1 X100.034 Y156.154 E1.26032
G1 X99.957 Y155.871 E.01965
G1 X99.934 Y155.294 E.03867
G1 X86.855 Y142.215 E1.23953
G1 X86.975 Y141.575 E.04364
G1 X99.902 Y154.502 E1.22515
G1 X99.87 Y153.71 E.05311
G1 X87.094 Y140.935 E1.21077
G1 X87.214 Y140.295 E.04364
G1 X99.838 Y152.918 E1.19639
G1 X99.806 Y152.126 E.05311
G1 X87.334 Y139.654 E1.18201
G1 X87.453 Y139.014 E.04364
G1 X99.774 Y151.335 E1.16763
G1 X99.742 Y150.543 E.05311
G1 X87.573 Y138.374 E1.15325
G1 X87.693 Y137.734 E.04364
G1 X99.71 Y149.751 E1.13887
G1 X99.678 Y148.959 E.05311
G1 X87.825 Y137.107 E1.12326
G1 X87.991 Y136.513 E.04133
G1 X99.646 Y148.167 E1.1045
G1 X99.613 Y147.375 E.05311
G1 X88.157 Y135.919 E1.08575
G1 X88.323 Y135.325 E.04133
G1 X99.678 Y146.68 E1.07614
G1 X99.749 Y145.991 E.04639
G1 X88.489 Y134.731 E1.06718
G1 X88.655 Y134.136 E.04133
G1 X99.82 Y145.302 E1.05823
G1 X99.892 Y144.614 E.04639
G1 X88.82 Y133.542 E1.04927
G1 X88.986 Y132.948 E.04133
G1 X99.963 Y143.925 E1.04031
G1 X100.034 Y143.237 E.04639
G1 X89.152 Y132.354 E1.03135
G1 X89.318 Y131.76 E.04133
G1 X100.106 Y142.548 E1.02239
G1 X100.177 Y141.86 E.04639
G1 X89.484 Y131.166 E1.01343
G1 X89.649 Y130.572 E.04133
G1 X100.248 Y141.171 E1.00448
G1 X100.319 Y140.482 E.04639
G1 X89.815 Y129.978 E.99552
G1 X89.981 Y129.384 E.04133
G1 X100.391 Y139.794 E.98656
G1 X100.462 Y139.105 E.04639
G1 X90.147 Y128.79 E.9776
G1 X90.313 Y128.196 E.04133
G1 X100.533 Y138.417 E.96864
G1 X100.616 Y137.74 E.04569
G1 X90.478 Y127.602 E.96081
G1 X90.644 Y127.008 E.04133
G1 X100.713 Y137.077 E.95423
G1 X100.809 Y136.413 E.04493
G1 X90.81 Y126.414 E.94766
G1 X90.976 Y125.82 E.04133
G1 X100.906 Y135.75 E.94108
G1 X101.002 Y135.086 E.04493
G1 X91.142 Y125.226 E.93451
G1 X91.307 Y124.632 E.04133
G1 X101.099 Y134.423 E.92793
G1 X101.195 Y133.76 E.04493
G1 X91.473 Y124.038 E.92136
G1 X91.639 Y123.444 E.04133
G1 X101.291 Y133.096 E.91478
G1 X101.388 Y132.433 E.04493
G1 X91.805 Y122.85 E.90821
G1 X91.847 Y122.698 E.01053
G1 X92.003 Y122.288 E.02943
G1 X101.484 Y131.769 E.89859
G1 X101.581 Y131.106 E.04493
G1 X92.212 Y121.737 E.88793
G1 X92.421 Y121.186 E.03949
G1 X101.677 Y130.442 E.87727
G1 X101.774 Y129.779 E.04493
G1 X92.629 Y120.635 E.86661
G1 X92.838 Y120.084 E.03949
G1 X101.87 Y129.116 E.85595
G1 X101.966 Y128.452 E.04493
G1 X93.047 Y119.533 E.8453
G1 X93.256 Y118.982 E.03949
G1 X102.063 Y127.789 E.83464
G1 X102.159 Y127.125 E.04493
G1 X93.465 Y118.431 E.82398
G1 X93.674 Y117.88 E.03949
G1 X102.256 Y126.462 E.81332
G1 X102.355 Y125.801 E.04477
G1 X93.883 Y117.329 E.80292
G1 X94.092 Y116.778 E.03949
G1 X102.528 Y125.214 E.79952
G1 X102.701 Y124.628 E.041
G1 X94.314 Y116.241 E.79487
G1 X94.545 Y115.712 E.03867
G1 X102.874 Y124.041 E.78936
G1 X103.047 Y123.454 E.041
G1 X94.776 Y115.183 E.78385
G1 X95.007 Y114.654 E.03867
G1 X103.22 Y122.867 E.77835
G1 X103.393 Y122.28 E.041
G1 X95.239 Y114.126 E.77284
G1 X95.47 Y113.597 E.03867
G1 X103.566 Y121.694 E.76733
G1 X103.739 Y121.107 E.041
G1 X95.701 Y113.068 E.76183
G1 X95.932 Y112.54 E.03867
G1 X103.912 Y120.52 E.75632
G1 X104.085 Y119.933 E.041
G1 X96.163 Y112.011 E.75081
G1 X96.394 Y111.482 E.03867
G1 X104.259 Y119.346 E.74531
G1 X104.437 Y118.766 E.04073
G1 X96.626 Y110.954 E.74035
G1 X96.857 Y110.425 E.03867
G1 X104.622 Y118.19 E.73595
G1 X104.807 Y117.615 E.04048
G1 X97.088 Y109.896 E.73154
G1 X97.319 Y109.368 E.03867
G1 X104.991 Y117.04 E.72713
G1 X105.176 Y116.465 E.04048
G1 X97.55 Y108.839 E.72272
G1 X97.781 Y108.31 E.03867
G1 X105.361 Y115.89 E.71831
G1 X105.545 Y115.314 E.04048
G1 X98.013 Y107.782 E.7139
G1 X98.244 Y107.253 E.03867
G1 X105.73 Y114.739 E.70949
G1 X105.915 Y114.164 E.04048
G1 X98.475 Y106.724 E.70508
G1 X98.706 Y106.195 E.03867
G1 X106.099 Y113.589 E.70067
G1 X106.284 Y113.013 E.04048
G1 X98.937 Y105.667 E.69626
G1 X99.168 Y105.138 E.03867
G1 X106.468 Y112.438 E.69185
G1 X106.653 Y111.863 E.04048
G1 X99.4 Y104.609 E.68744
G1 X99.631 Y104.081 E.03867
G1 X106.838 Y111.288 E.68303
G1 X107.022 Y110.713 E.04048
G1 X99.862 Y103.552 E.67862
G1 X99.945 Y103.363 E.01383
G1 X100.111 Y103.041 E.02427
G1 X107.207 Y110.137 E.67254
G1 X107.392 Y109.562 E.04048
G1 X100.384 Y102.554 E.66414
G1 X100.657 Y102.068 E.0374
G1 X107.576 Y108.987 E.65575
G1 X107.761 Y108.412 E.04048
G1 X100.93 Y101.581 E.64736
G1 X101.203 Y101.094 E.0374
G1 X107.946 Y107.837 E.63897
G1 X108.13 Y107.261 E.04048
G1 X101.477 Y100.608 E.63057
G1 X101.75 Y100.121 E.0374
G1 X108.315 Y106.686 E.62218
G1 X108.502 Y106.113 E.04038
G1 X102.023 Y99.634 E.61401
G1 X102.296 Y99.148 E.0374
G1 X108.707 Y105.558 E.60753
G1 X108.911 Y105.003 E.03965
G1 X102.569 Y98.661 E.60105
G1 X102.843 Y98.174 E.0374
G1 X109.116 Y104.448 E.59458
G1 X109.321 Y103.893 E.03965
G1 X103.116 Y97.688 E.5881
G1 X103.389 Y97.201 E.0374
G1 X109.526 Y103.338 E.58162
G1 X109.731 Y102.783 E.03965
G1 X103.662 Y96.714 E.57514
G1 X103.935 Y96.228 E.0374
G1 X109.936 Y102.228 E.56866
G1 X110.14 Y101.673 E.03965
G1 X104.215 Y95.748 E.56157
G1 X104.499 Y95.271 E.03714
G1 X110.345 Y101.118 E.55409
G1 X110.55 Y100.563 E.03965
G1 X104.782 Y94.795 E.54661
G1 X105.066 Y94.319 E.03714
G1 X110.755 Y100.008 E.53914
G1 X110.96 Y99.453 E.03965
G1 X105.35 Y93.843 E.53166
G1 X105.634 Y93.367 E.03714
G1 X111.165 Y98.898 E.52418
G1 X111.372 Y98.346 E.03953
G1 X105.917 Y92.891 E.51696
G1 X106.201 Y92.415 E.03714
G1 X111.616 Y97.83 E.51318
G1 X111.86 Y97.314 E.03825
G1 X106.485 Y91.939 E.5094
G1 X106.769 Y91.463 E.03714
G1 X112.104 Y96.798 E.50562
G1 X112.348 Y96.282 E.03825
G1 X107.053 Y90.987 E.50183
G1 X107.336 Y90.511 E.03714
G1 X112.591 Y95.766 E.49805
G1 X112.835 Y95.25 E.03825
G1 X107.62 Y90.034 E.49427
G1 X107.904 Y89.558 E.03714
G1 X113.079 Y94.734 E.49049
G1 X113.323 Y94.218 E.03825
G1 X108.188 Y89.082 E.4867
G1 X108.471 Y88.606 E.03714
G1 X113.567 Y93.702 E.48292
G1 X113.811 Y93.186 E.03825
G1 X108.755 Y88.13 E.47914
G1 X109.039 Y87.654 E.03714
G1 X114.055 Y92.67 E.47536
G1 X114.298 Y92.154 E.03825
G1 X109.323 Y87.178 E.47157
G1 X109.606 Y86.702 E.03714
G1 X114.542 Y91.638 E.46779
G1 X114.786 Y91.122 E.03825
G1 X109.89 Y86.226 E.46401
G1 X110.174 Y85.75 E.03714
G1 X115.03 Y90.606 E.46023
G1 X115.274 Y90.09 E.03825
G1 X110.474 Y85.29 E.45487
G1 X110.775 Y84.831 E.03678
G1 X115.518 Y89.574 E.44946
G1 X115.761 Y89.058 E.03825
G1 X111.076 Y84.372 E.44406
G1 X111.377 Y83.913 E.03678
G1 X116.005 Y88.542 E.43865
G1 X116.249 Y88.026 E.03825
G1 X111.678 Y83.454 E.43325
G1 X111.979 Y82.995 E.03678
G1 X116.493 Y87.509 E.42781
G1 X116.734 Y86.991 E.03832
G1 X112.279 Y82.536 E.42218
G1 X112.58 Y82.077 E.03678
G1 X116.976 Y86.473 E.41656
G1 X117.217 Y85.954 E.03832
G1 X112.881 Y81.618 E.41094
G1 X113.182 Y81.159 E.03678
G1 X117.459 Y85.436 E.40531
G1 X117.7 Y84.918 E.03832
G1 X113.483 Y80.7 E.39969
G1 X113.784 Y80.241 E.03678
G1 X117.942 Y84.399 E.39406
G1 X118.183 Y83.881 E.03832
G1 X114.085 Y79.782 E.38844
G1 X114.386 Y79.323 E.03678
G1 X118.425 Y83.363 E.38282
G1 X118.666 Y82.844 E.03832
G1 X114.686 Y78.865 E.37719
G1 X114.987 Y78.406 E.03678
G1 X118.908 Y82.326 E.37157
G1 X119.15 Y81.808 E.03832
G1 X115.288 Y77.947 E.36595
G1 X115.589 Y77.488 E.03678
G1 X119.391 Y81.29 E.36032
G1 X119.633 Y80.771 E.03832
G1 X115.89 Y77.029 E.3547
G1 X116.191 Y76.57 E.03678
G1 X119.874 Y80.253 E.34908
G1 X120.116 Y79.735 E.03832
G1 X116.538 Y76.157 E.33907
G1 X116.903 Y75.762 E.03603
G1 X120.357 Y79.216 E.32734
G1 X120.599 Y78.698 E.03832
G1 X117.269 Y75.368 E.31561
G1 X117.634 Y74.973 E.03603
G1 X120.84 Y78.18 E.30387
G1 X121.148 Y77.727 E.03665
G1 X117.999 Y74.579 E.29841
G1 X118.365 Y74.184 E.03603
G1 X121.466 Y77.285 E.29389
G1 X121.783 Y76.843 E.03649
G1 X118.73 Y73.79 E.28938
G1 X119.095 Y73.395 E.03603
G1 X122.101 Y76.401 E.28486
