; generated by PrusaSlicer 2.4.1-beta3+arm64 on 2022-03-14 at 03:18:20 UTC

; 

; external perimeters extrusion width = 0.45mm
; perimeters extrusion width = 0.45mm
; infill extrusion width = 0.45mm
; solid infill extrusion width = 0.45mm
; top infill extrusion width = 0.40mm
; support material extrusion width = 0.38mm
; first layer extrusion width = 0.60mm

M107
;TYPE:Custom
G90 ; use absolute coordinates
M83 ; extruder relative mode
M140 S70 ; set final bed temp
M104 S150 ; set temporary nozzle temp to prevent oozing during homing
G4 S10 ; allow partial nozzle warmup
G28 ; home all axis
G1 Z50 F240
G1 X2 Y10 F3000
M104 S215 ; set final nozzle temp
M190 S70 ; wait for bed temp to stabilize
M109 S215 ; wait for nozzle temp to stabilize
G1 Z0.28 F240
G92 E0
G1 Y140 E10 F1500 ; prime the nozzle
G1 X2.3 F5000
G92 E0
G1 Y10 E10 F1200 ; prime the nozzle
G92 E0
G21 ; set units to millimeters
G90 ; use absolute coordinates
M83 ; use relative distances for extrusion
; Filament gcode
M107
;LAYER_CHANGE
;Z:0.3
;HEIGHT:0.3
;BEFORE_LAYER_CHANGE
G92 E0
;0.3


G1 E-5 F3600
G1 Z.3 F9000
;AFTER_LAYER_CHANGE
;0.3
G1 X89.226 Y89.226
G1 E5 F2400
M204 S500
;TYPE:Skirt/Brim
;WIDTH:0.6
G1 F1200
G1 X95.09 Y83.362 E.55403
G1 X97.023 Y81.991 E.15833
G1 X100.09 Y81.291 E.21017
G1 X110.527 Y81.291 E.69723
G1 X111.914 Y81.428 E.0931
G1 X123.642 Y83.774 E.79903
G1 X125.855 Y84.621 E.15833
G1 X127.256 Y85.708 E.11838
G1 X134.293 Y92.744 E.66483
G1 X135.664 Y94.677 E.15833
G1 X136.364 Y97.745 E.21017
G1 X136.364 Y122.255 E1.63745
G1 X135.966 Y124.592 E.15833
G1 X134.293 Y127.256 E.21017
G1 X127.256 Y134.293 E.66483
G1 X125.323 Y135.664 E.15833
G1 X123.642 Y136.226 E.11838
G1 X111.914 Y138.572 E.79903
G1 X110.527 Y138.709 E.0931
G1 X100.09 Y138.709 E.69723
G1 X97.754 Y138.312 E.15833
G1 X95.09 Y136.638 E.21017
G1 X88.053 Y129.601 E.66483
G1 X86.729 Y127.763 E.15134
G1 X84.383 Y123.072 E.3504
G1 X83.636 Y119.91 E.21707
G1 X83.636 Y100.09 E1.32405
G1 X84.383 Y96.928 E.21707
G1 X86.729 Y92.237 E.3504
G1 X88.053 Y90.399 E.15134
G1 X89.184 Y89.268 E.1068
G1 X89.562 Y89.647 F9000
G1 F1200
G1 X95.469 Y83.741 E.55804
G1 X97.336 Y82.435 E.15217
G1 X100.09 Y81.826 E.18847
G1 X110.527 Y81.826 E.69723
G1 X111.809 Y81.953 E.08605
G1 X123.537 Y84.299 E.79903
G1 X125.659 Y85.128 E.15217
G1 X126.877 Y86.086 E.10353
G1 X133.914 Y93.123 E.66483
G1 X135.219 Y94.99 E.15217
G1 X135.828 Y97.745 E.18847
G1 X135.828 Y122.255 E1.63745
G1 X135.431 Y124.498 E.15217
G1 X133.914 Y126.877 E.18847
G1 X126.877 Y133.914 E.66483
G1 X125.01 Y135.219 E.15217
G1 X123.537 Y135.701 E.10353
G1 X111.809 Y138.047 E.79903
G1 X110.527 Y138.174 E.08605
G1 X100.09 Y138.174 E.69723
G1 X97.847 Y137.777 E.15217
G1 X95.469 Y136.259 E.18847
G1 X88.432 Y129.222 E.66483
G1 X87.208 Y127.524 E.13988
G1 X84.862 Y122.833 E.3504
G1 X84.172 Y119.91 E.20063
G1 X84.172 Y100.09 E1.32405
G1 X84.862 Y97.167 E.20063
G1 X87.208 Y92.476 E.3504
G1 X88.432 Y90.778 E.13988
G1 X89.52 Y89.69 E.10279
G1 E-3.5 F3600
;WIPE_START
G1 F7200
G1 X91.641 Y87.568 E-1.425
;WIPE_END
G1 E-.075 F3600
G1 X110.527 Y90.708 F9000
G1 E5 F2400
;TYPE:Support material
G1 F1200
G1 X122.255 Y90.708 E.78352
G1 X122.255 Y93.053 E.1567
G1 X124.601 Y93.053 E.1567
G1 X124.601 Y95.399 E.1567
G1 X126.947 Y95.399 E.1567
G1 X126.947 Y97.745 E.1567
G1 X129.292 Y97.745 E.1567
G1 X129.292 Y122.255 E1.63745
G1 X126.947 Y122.255 E.1567
G1 X126.947 Y124.601 E.1567
G1 X124.601 Y124.601 E.1567
G1 X124.601 Y126.947 E.1567
G1 X122.255 Y126.947 E.1567
G1 X122.255 Y129.292 E.1567
G1 X110.527 Y129.292 E.78352
G1 X110.527 Y131.638 E.1567
G1 X100.09 Y131.638 E.69723
G1 X100.09 Y129.292 E.1567
G1 X97.745 Y129.292 E.1567
G1 X97.745 Y126.947 E.1567
G1 X95.399 Y126.947 E.1567
G1 X95.399 Y124.601 E.1567
G1 X93.053 Y124.601 E.1567
G1 X93.053 Y119.91 E.31341
G1 X90.708 Y119.91 E.1567
G1 X90.708 Y100.09 E1.32405
G1 X93.053 Y100.09 E.1567
G1 X93.053 Y95.399 E.31341
G1 X95.399 Y95.399 E.1567
G1 X95.399 Y93.053 E.1567
G1 X97.745 Y93.053 E.1567
G1 X97.745 Y90.708 E.1567
G1 X100.09 Y90.708 E.1567
G1 X100.09 Y88.362 E.1567
G1 X110.527 Y88.362 E.69723
G1 X110.527 Y90.627 E.15134
G1 X106.236 Y98.43 F9000
G1 F1200
G1 X105.079 Y98.487 E.07742
G1 X103.933 Y98.654 E.07739
G1 X102.809 Y98.931 E.07732
G1 X101.718 Y99.314 E.07721
G1 X100.671 Y99.8 E.07715
G1 X99.677 Y100.384 E.07702
G1 X98.745 Y101.061 E.07691
G1 X97.886 Y101.824 E.07676
G1 X97.108 Y102.666 E.07658
G1 X96.417 Y103.579 E.07647
G1 X95.821 Y104.554 E.07635
G1 X95.326 Y105.581 E.07617
G1 X94.935 Y106.652 E.07615
G1 X94.66 Y107.726 E.07411
G1 X94.488 Y108.851 E.07598
G1 X94.43 Y109.986 E.07593
G1 X94.485 Y111.121 E.07592
G1 X94.655 Y112.246 E.07598
G1 X94.935 Y113.348 E.07601
G1 X95.326 Y114.419 E.07615
G1 X95.821 Y115.446 E.07617
G1 X96.417 Y116.421 E.07635
G1 X97.108 Y117.334 E.07647
G1 X97.886 Y118.176 E.07658
G1 X98.745 Y118.939 E.07677
G1 X99.677 Y119.616 E.07691
G1 X100.671 Y120.2 E.07702
G1 X101.718 Y120.686 E.07716
G1 X102.809 Y121.069 E.07721
G1 X103.933 Y121.346 E.07732
G1 X105.079 Y121.513 E.07739
G1 X106.236 Y121.57 E.07742
G1 X107.394 Y121.516 E.07743
G1 X108.54 Y121.351 E.07737
G1 X109.665 Y121.076 E.07735
G1 X110.756 Y120.697 E.07717
G1 X111.805 Y120.212 E.07717
G1 X112.8 Y119.631 E.07701
G1 X113.733 Y118.956 E.07689
G1 X114.594 Y118.195 E.07676
G1 X115.374 Y117.355 E.07659
G1 X116.067 Y116.444 E.07645
G1 X116.665 Y115.471 E.07634
G1 X117.166 Y114.438 E.0767
G1 X117.556 Y113.375 E.07561
G1 X117.84 Y112.274 E.07601
G1 X118.012 Y111.149 E.07598
G1 X118.07 Y110.014 E.07593
G1 X118.015 Y108.879 E.07592
G1 X117.845 Y107.754 E.07598
G1 X117.565 Y106.652 E.07601
G1 X117.174 Y105.581 E.07615
G1 X116.679 Y104.554 E.07618
G1 X116.083 Y103.579 E.07635
G1 X115.392 Y102.666 E.07647
G1 X114.614 Y101.824 E.07658
G1 X113.755 Y101.061 E.07677
G1 X112.823 Y100.384 E.07691
G1 X111.829 Y99.8 E.07702
G1 X110.782 Y99.314 E.07715
G1 X109.691 Y98.931 E.07721
G1 X108.567 Y98.654 E.07732
G1 X107.421 Y98.487 E.07739
G1 X106.317 Y98.433 E.07388
G1 E-3.5 F3600
;WIPE_START
G1 F7200
G1 X107.421 Y98.487 E-.52528
G1 X108.567 Y98.654 E-.55027
G1 X109.282 Y98.83 E-.34944
;WIPE_END
G1 E-.075 F3600
G1 X128.449 Y122.014 F9000
G1 E5 F2400
G1 F1200
G1 X128.449 Y98.227 E1.58915
G1 X127.854 Y98.227 E.03976
G1 X127.854 Y121.773 E1.57304
G1 X127.259 Y121.773 E.03976
G1 X127.259 Y98.227 E1.57304
G1 X126.664 Y98.227 E.03976
G1 X126.664 Y121.773 E1.57304
G1 X126.465 Y121.773 E.0133
G1 X126.465 Y124.119 E.1567
G1 X126.069 Y124.119 E.02646
G1 X126.069 Y95.881 E1.88645
G1 X125.473 Y95.881 E.03976
G1 X125.473 Y124.119 E1.88645
G1 X124.878 Y124.119 E.03976
G1 X124.878 Y95.881 E1.88645
G1 X124.283 Y95.881 E.03976
G1 X124.283 Y124.119 E1.88645
G1 X124.119 Y124.119 E.01097
G1 X124.119 Y126.465 E.1567
G1 X123.688 Y126.465 E.02879
G1 X123.688 Y93.535 E2.19986
G1 X123.093 Y93.535 E.03976
G1 X123.093 Y126.465 E2.19986
G1 X122.498 Y126.465 E.03976
G1 X122.498 Y93.535 E2.19986
G1 X121.903 Y93.535 E.03976
G1 X121.903 Y126.465 E2.19986
G1 X121.773 Y126.465 E.00864
G1 X121.773 Y128.81 E.1567
G1 X121.308 Y128.81 E.03112
G1 X121.308 Y91.19 E2.51326
G1 X120.712 Y91.19 E.03976
G1 X120.712 Y128.81 E2.51326
G1 X120.117 Y128.81 E.03976
G1 X120.117 Y91.19 E2.51326
G1 X119.522 Y91.19 E.03976
G1 X119.522 Y128.81 E2.51326
G1 X118.927 Y128.81 E.03976
G1 X118.927 Y91.19 E2.51326
G1 X118.332 Y91.19 E.03976
G1 X118.332 Y128.81 E2.51326
G1 X117.737 Y128.81 E.03976
G1 X117.737 Y114.285 E.97036
G1 X117.608 Y114.631 E.02468
G1 X117.142 Y115.597 E.07161
G1 X117.142 Y128.81 E.88275
G1 X116.546 Y128.81 E.03976
G1 X116.546 Y116.587 E.81661
G1 X115.951 Y117.394 E.06698
G1 X115.951 Y128.81 E.7627
G1 X115.356 Y128.81 E.03976
G1 X115.356 Y118.083 E.71662
G1 X114.959 Y118.512 E.03902
G1 X114.761 Y118.691 E.01784
G1 X114.761 Y128.81 E.67603
G1 X114.166 Y128.81 E.03976
G1 X114.166 Y119.218 E.64079
G1 X113.571 Y119.669 E.04987
G1 X113.571 Y128.81 E.61068
G1 X112.976 Y128.81 E.03976
G1 X112.976 Y120.087 E.58279
G1 X112.381 Y120.435 E.04608
G1 X112.381 Y128.81 E.55949
G1 X111.785 Y128.81 E.03976
G1 X111.785 Y120.753 E.53829
G1 X111.19 Y121.028 E.04381
G1 X111.19 Y128.81 E.51989
G1 X110.595 Y128.81 E.03976
G1 X110.595 Y121.263 E.50418
G1 X110 Y121.471 E.04211
G1 X110 Y131.156 E.64699
G1 X109.405 Y131.156 E.03976
G1 X109.405 Y121.637 E.63595
G1 X108.81 Y121.783 E.04094
G1 X108.81 Y131.156 E.62618
G1 X108.215 Y131.156 E.03976
G1 X108.215 Y121.885 E.61933
G1 X107.619 Y121.971 E.04017
G1 X107.619 Y131.156 E.61358
G1 X107.024 Y131.156 E.03976
G1 X107.024 Y122.016 E.6106
G1 X106.429 Y122.045 E.0398
G1 X106.429 Y131.156 E.60869
G1 X105.834 Y131.156 E.03976
G1 X105.834 Y122.033 E.60945
G1 X105.239 Y122.005 E.0398
G1 X105.239 Y131.156 E.61136
G1 X104.644 Y131.156 E.03976
G1 X104.644 Y121.937 E.61587
G1 X104.049 Y121.851 E.04017
G1 X104.049 Y131.156 E.62162
G1 X103.454 Y131.156 E.03976
G1 X103.454 Y121.725 E.63007
G1 X102.858 Y121.578 E.04094
G1 X102.858 Y131.156 E.63983
G1 X102.263 Y131.156 E.03976
G1 X102.263 Y121.389 E.65251
G1 X101.668 Y121.181 E.04211
G1 X101.668 Y131.156 E.6664
G1 X101.073 Y131.156 E.03976
G1 X101.073 Y120.919 E.68391
G1 X100.478 Y120.643 E.04382
G1 X100.478 Y128.81 E.54563
G1 X99.883 Y128.81 E.03976
G1 X99.883 Y120.297 E.56876
G1 X99.288 Y119.929 E.04673
G1 X99.288 Y128.81 E.59332
G1 X98.692 Y128.81 E.03976
G1 X98.692 Y119.498 E.62214
G1 X98.434 Y119.307 E.02141
G1 X98.097 Y119.009 E.03009
G1 X98.097 Y126.465 E.4981
G1 X97.502 Y126.465 E.03976
G1 X97.502 Y118.47 E.53407
G1 X96.907 Y117.828 E.05851
G1 X96.907 Y126.465 E.57699
G1 X96.312 Y126.465 E.03976
G1 X96.312 Y117.082 E.62683
G1 X96.013 Y116.683 E.03328
G1 X95.717 Y116.201 E.03782
G1 X95.717 Y124.119 E.52898
G1 X95.122 Y124.119 E.03976
G1 X95.122 Y115.108 E.60201
G1 X94.877 Y114.596 E.03788
G1 X94.527 Y113.638 E.06815
G1 X94.527 Y124.119 E.70018
G1 X93.931 Y124.119 E.03976
G1 X93.931 Y95.881 E1.88645
G1 X94.527 Y95.881 E.03976
G1 X94.527 Y106.362 E.70018
G1 X94.877 Y105.404 E.06815
G1 X95.122 Y104.892 E.03788
G1 X95.122 Y95.881 E.60201
G1 X95.717 Y95.881 E.03976
G1 X95.717 Y103.799 E.52898
G1 X96.013 Y103.317 E.03782
G1 X96.312 Y102.918 E.03328
G1 X96.312 Y93.535 E.62683
G1 X96.907 Y93.535 E.03976
G1 X96.907 Y102.172 E.57699
G1 X97.502 Y101.53 E.05851
G1 X97.502 Y93.535 E.53407
G1 X98.097 Y93.535 E.03976
G1 X98.097 Y100.991 E.4981
G1 X98.434 Y100.693 E.03009
G1 X98.692 Y100.502 E.02141
G1 X98.692 Y91.19 E.62214
G1 X99.288 Y91.19 E.03976
G1 X99.288 Y100.071 E.59332
G1 X99.883 Y99.703 E.04673
G1 X99.883 Y91.19 E.56876
G1 X100.478 Y91.19 E.03976
G1 X100.478 Y99.357 E.54563
G1 X101.073 Y99.081 E.04382
G1 X101.073 Y88.844 E.68391
G1 X101.668 Y88.844 E.03976
G1 X101.668 Y98.819 E.6664
G1 X102.263 Y98.611 E.04211
G1 X102.263 Y88.844 E.65251
G1 X102.858 Y88.844 E.03976
G1 X102.858 Y98.422 E.63983
G1 X103.454 Y98.275 E.04094
G1 X103.454 Y88.844 E.63007
G1 X104.049 Y88.844 E.03976
G1 X104.049 Y98.149 E.62162
G1 X104.644 Y98.063 E.04017
G1 X104.644 Y88.844 E.61586
G1 X105.239 Y88.844 E.03976
G1 X105.239 Y97.995 E.61136
G1 X105.834 Y97.967 E.0398
G1 X105.834 Y88.844 E.60945
G1 X106.429 Y88.844 E.03976
G1 X106.429 Y97.955 E.60869
G1 X107.024 Y97.984 E.0398
G1 X107.024 Y88.844 E.6106
G1 X107.619 Y88.844 E.03976
G1 X107.619 Y98.029 E.61358
G1 X108.215 Y98.115 E.04017
G1 X108.215 Y88.844 E.61933
G1 X108.81 Y88.844 E.03976
G1 X108.81 Y98.217 E.62618
G1 X109.405 Y98.363 E.04094
G1 X109.405 Y88.844 E.63595
G1 X110 Y88.844 E.03976
G1 X110 Y98.529 E.64699
G1 X110.595 Y98.737 E.04211
G1 X110.595 Y91.19 E.50418
G1 X111.19 Y91.19 E.03976
G1 X111.19 Y98.972 E.51989
G1 X111.785 Y99.247 E.04381
G1 X111.785 Y91.19 E.53829
G1 X112.381 Y91.19 E.03976
G1 X112.381 Y99.565 E.55949
G1 X112.976 Y99.913 E.04608
G1 X112.976 Y91.19 E.58279
G1 X113.571 Y91.19 E.03976
G1 X113.571 Y100.331 E.61068
G1 X114.166 Y100.782 E.04987
G1 X114.166 Y91.19 E.64079
G1 X114.761 Y91.19 E.03976
G1 X114.761 Y101.309 E.67603
G1 X114.959 Y101.488 E.01784
G1 X115.356 Y101.917 E.03902
G1 X115.356 Y91.19 E.71662
G1 X115.951 Y91.19 E.03976
G1 X115.951 Y102.606 E.7627
G1 X116.546 Y103.413 E.06698
G1 X116.546 Y91.19 E.81661
G1 X117.142 Y91.19 E.03976
G1 X117.142 Y104.403 E.88275
G1 X117.602 Y105.355 E.07067
G1 X117.737 Y105.715 E.02562
G1 X117.737 Y90.949 E.98646
G1 E-3.5 F3600
;WIPE_START
G1 F7200
G1 X117.737 Y93.949 E-1.425
;WIPE_END
G1 E-.075 F3600
G1 X93.336 Y124.36 F9000
G1 E5 F2400
G1 F1200
G1 X93.336 Y100.572 E1.58915
G1 X92.741 Y100.572 E.03976
G1 X92.741 Y119.428 E1.25964
G1 X92.146 Y119.428 E.03976
G1 X92.146 Y100.572 E1.25964
G1 X91.551 Y100.572 E.03976
G1 X91.551 Y119.669 E1.27574
G1 E-3.5 F3600
;WIPE_START
G1 F7200
G1 X91.551 Y116.669 E-1.425
;WIPE_END
G1 E-.075 F3600
G1 X109.436 Y107.843 F9000
G1 E5 F2400
;TYPE:Perimeter
G1 F1200
G1 X109.436 Y112.157 E.28814
G1 X108.498 Y113.094 E.08859
G1 X107.432 Y113.638 E.07994
G1 X106.25 Y113.825 E.07995
G1 X105.068 Y113.638 E.07995
G1 X104.002 Y113.094 E.07994
G1 X103.156 Y112.248 E.07996
G1 X102.612 Y111.182 E.07994
G1 X102.425 Y110 E.07995
G1 X102.612 Y108.818 E.07995
G1 X103.156 Y107.752 E.07994
G1 X104.002 Y106.906 E.07996
G1 X105.068 Y106.362 E.07997
G1 X106.25 Y106.176 E.0799
G1 X107.432 Y106.362 E.0799
G1 X108.498 Y106.906 E.07997
G1 X109.393 Y107.801 E.08458
G1 X108.9 Y108.065 F9000
;TYPE:External perimeter
G1 F1200
G1 X108.9 Y111.935 E.25849
G1 X108.179 Y112.656 E.06811
G1 X107.264 Y113.122 E.0686
G1 X106.25 Y113.283 E.06861
G1 X105.236 Y113.122 E.06861
G1 X104.321 Y112.656 E.0686
G1 X103.594 Y111.929 E.06864
G1 X103.128 Y111.014 E.0686
G1 X102.967 Y110 E.0686
G1 X103.128 Y108.986 E.0686
G1 X103.594 Y108.071 E.0686
G1 X104.321 Y107.344 E.06864
G1 X105.236 Y106.878 E.06862
G1 X106.25 Y106.718 E.06858
G1 X107.264 Y106.878 E.06858
G1 X108.179 Y107.344 E.06862
G1 X108.858 Y108.023 E.0641
G1 X109.291 Y108.148 F9000
G1 E-3.5 F3600
;WIPE_START
G1 F7200
G1 X108.89 Y111.023 E-1.425
;WIPE_END
G1 E-.075 F3600
G1 X114.228 Y103.624 F9000
G1 E5 F2400
;TYPE:Perimeter
G1 F1200
G1 X114.831 Y104.418 E.06655
G1 X115.35 Y105.265 E.06637
G1 X115.781 Y106.155 E.06612
G1 X116.121 Y107.084 E.06608
G1 X116.366 Y108.041 E.06594
G1 X116.514 Y109.016 E.06589
G1 X116.563 Y110 E.06583
G1 X116.514 Y110.984 E.06583
G1 X116.366 Y111.959 E.06589
G1 X116.121 Y112.916 E.06594
G1 X115.781 Y113.845 E.06608
G1 X115.35 Y114.735 E.06613
G1 X114.831 Y115.582 E.06637
G1 X114.228 Y116.376 E.06655
G1 X113.55 Y117.108 E.0667
G1 X112.801 Y117.772 E.06688
G1 X111.988 Y118.362 E.06709
G1 X111.119 Y118.871 E.06727
G1 X110.203 Y119.295 E.0674
G1 X109.25 Y119.628 E.0675
G1 X108.266 Y119.87 E.06766
G1 X107.263 Y120.015 E.06768
G1 X106.25 Y120.063 E.06778
G1 X105.237 Y120.015 E.06778
G1 X104.234 Y119.87 E.06768
G1 X103.25 Y119.628 E.06766
G1 X102.297 Y119.295 E.0675
G1 X101.381 Y118.871 E.0674
G1 X100.512 Y118.362 E.06727
G1 X99.699 Y117.772 E.06709
G1 X98.95 Y117.108 E.06688
G1 X98.272 Y116.376 E.06671
G1 X97.669 Y115.582 E.06655
G1 X97.15 Y114.735 E.06637
G1 X96.719 Y113.845 E.06613
G1 X96.379 Y112.916 E.06608
G1 X96.134 Y111.959 E.06594
G1 X95.986 Y110.984 E.06589
G1 X95.937 Y110 E.06583
G1 X95.986 Y109.016 E.06583
G1 X96.134 Y108.041 E.06589
G1 X96.379 Y107.084 E.06594
G1 X96.719 Y106.155 E.06608
G1 X97.15 Y105.265 E.06613
G1 X97.669 Y104.418 E.06637
G1 X98.272 Y103.624 E.06655
G1 X98.95 Y102.892 E.0667
G1 X99.699 Y102.228 E.06688
G1 X100.512 Y101.638 E.06709
G1 X101.381 Y101.129 E.06727
G1 X102.297 Y100.705 E.0674
G1 X103.25 Y100.372 E.0675
G1 X104.234 Y100.13 E.06766
G1 X105.237 Y99.985 E.06768
G1 X106.25 Y99.937 E.06778
G1 X107.263 Y99.985 E.06778
G1 X108.266 Y100.13 E.06768
G1 X109.25 Y100.372 E.06766
G1 X110.203 Y100.705 E.0675
G1 X111.119 Y101.129 E.0674
G1 X111.988 Y101.638 E.06727
G1 X112.801 Y102.228 E.06709
G1 X113.55 Y102.892 E.06688
G1 X114.188 Y103.58 E.0627
G1 X114.639 Y103.279 F9000
;TYPE:External perimeter
G1 F1200
G1 X115.273 Y104.115 E.07008
G1 X115.821 Y105.007 E.06992
G1 X116.275 Y105.946 E.0697
G1 X116.633 Y106.926 E.06967
G1 X116.892 Y107.934 E.06953
G1 X117.048 Y108.962 E.06948
G1 X117.099 Y110 E.06942
G1 X117.048 Y111.038 E.06942
G1 X116.892 Y112.066 E.06948
G1 X116.633 Y113.074 E.06953
G1 X116.275 Y114.054 E.06966
G1 X115.821 Y114.993 E.0697
