; generated by PrusaSlicer 2.4.1-beta3+arm64 on 2022-02-27 at 17:12:29 UTC

; 

; external perimeters extrusion width = 0.45mm
; perimeters extrusion width = 0.45mm
; infill extrusion width = 0.45mm
; solid infill extrusion width = 0.45mm
; top infill extrusion width = 0.40mm
; support material extrusion width = 0.38mm
; first layer extrusion width = 0.42mm

M107
;TYPE:Custom
G90 ; use absolute coordinates
M83 ; extruder relative mode
M140 S70 ; set final bed temp
M104 S150 ; set temporary nozzle temp to prevent oozing during homing
G4 S10 ; allow partial nozzle warmup
G28 ; home all axis
G1 Z50 F240
G1 X2 Y10 F3000
M104 S215 ; set final nozzle temp
M190 S70 ; wait for bed temp to stabilize
M109 S215 ; wait for nozzle temp to stabilize
G1 Z0.28 F240
G92 E0
G1 Y140 E10 F1500 ; prime the nozzle
G1 X2.3 F5000
G92 E0
G1 Y10 E10 F1200 ; prime the nozzle
G92 E0
G21 ; set units to millimeters
G90 ; use absolute coordinates
M83 ; use relative distances for extrusion
; Filament gcode
M107
;LAYER_CHANGE
;Z:0.3
;HEIGHT:0.3
;BEFORE_LAYER_CHANGE
G92 E0
;0.3


G1 E-5 F3600
G1 Z.2 F9000
;AFTER_LAYER_CHANGE
;0.3
G1 X65.198 Y41.487
G1 E5 F2400
M204 S500
;TYPE:Skirt/Brim
;WIDTH:0.42
G1 F1200
G1 X66.515 Y39.47 E.10684
G1 X68.303 Y37.816 E.10802
G1 X70.217 Y36.743 E.09735
G1 X72.255 Y36.146 E.09416
G1 X74.548 Y35.942 E.10213
G1 X78.112 Y35.933 E.15808
G1 X78.84 Y35.954 E.0323
G1 X79.499 Y36.016 E.02937
G1 X79.986 Y36.029 E.02159
G1 X140.014 Y36.029 E2.66253
G1 X140.5 Y36.016 E.02157
G1 X141.157 Y35.954 E.02926
G1 X141.871 Y35.934 E.03169
G1 X145.565 Y35.948 E.16383
G1 X148.025 Y36.203 E.10969
G1 X150.456 Y37.057 E.11432
G1 X152.508 Y38.462 E.11029
G1 X153.672 Y39.713 E.07577
G1 X154.642 Y41.16 E.07729
G1 X155.678 Y44.265 E.14518
G1 X155.828 Y46.193 E.08575
G1 X155.846 Y47.116 E.04095
G1 X155.845 Y172.973 E5.5824
G1 X155.817 Y173.998 E.04544
G1 X155.635 Y175.924 E.08582
G1 X154.837 Y178.438 E.11699
G1 X153.321 Y180.729 E.12185
G1 X152.044 Y181.91 E.07714
G1 X150.606 Y182.872 E.07675
G1 X147.603 Y183.884 E.14058
G1 X145.648 Y184.049 E.08702
G1 X144.771 Y184.071 E.03888
G1 X75.218 Y184.07 E3.08502
G1 X74.289 Y184.045 E.04124
G1 X72.04 Y183.808 E.1003
G1 X69.807 Y183.07 E.10432
G1 X67.52 Y181.566 E.1214
G1 X66.33 Y180.289 E.0774
G1 X65.359 Y178.841 E.07735
G1 X64.322 Y175.735 E.14524
G1 X64.172 Y173.807 E.08575
G1 X64.154 Y172.884 E.04098
G1 X64.178 Y46.077 E5.62447
G1 X64.425 Y43.766 E.10311
G1 X65.178 Y41.543 E.10409
G1 X65.508 Y41.662 F9000
G1 F1200
G1 X66.801 Y39.683 E.10484
G1 X68.528 Y38.092 E.10416
G1 X70.372 Y37.063 E.09368
G1 X72.337 Y36.493 E.09073
G1 X74.557 Y36.298 E.09884
G1 X78.105 Y36.289 E.15738
G1 X78.824 Y36.309 E.03192
G1 X79.478 Y36.371 E.02911
G1 X79.981 Y36.385 E.02233
G1 X140.019 Y36.385 E2.66298
G1 X140.522 Y36.371 E.02231
G1 X141.173 Y36.309 E.029
G1 X141.879 Y36.289 E.03131
G1 X145.538 Y36.303 E.1623
G1 X147.928 Y36.546 E.10656
G1 X150.276 Y37.364 E.11029
G1 X152.261 Y38.72 E.10664
G1 X153.385 Y39.924 E.07306
G1 X154.313 Y41.297 E.07348
G1 X155.325 Y44.315 E.1412
G1 X155.473 Y46.215 E.08454
G1 X155.49 Y47.117 E.04003
G1 X155.49 Y172.971 E5.58222
G1 X155.462 Y173.982 E.04487
G1 X155.29 Y175.835 E.08255
G1 X154.526 Y178.263 E.11288
G1 X153.063 Y180.483 E.11792
G1 X151.835 Y181.622 E.07431
G1 X150.428 Y182.563 E.07506
G1 X147.51 Y183.54 E.13648
G1 X145.624 Y183.694 E.08395
G1 X144.765 Y183.715 E.03811
G1 X75.22 Y183.715 E3.08463
G1 X74.305 Y183.69 E.04062
G1 X72.132 Y183.464 E.09689
G1 X69.981 Y182.759 E.10038
G1 X67.765 Y181.308 E.11753
G1 X66.618 Y180.079 E.07455
G1 X65.667 Y178.663 E.07565
G1 X64.675 Y175.685 E.13919
G1 X64.527 Y173.785 E.08455
G1 X64.51 Y172.882 E.04005
G1 X64.532 Y46.105 E5.62317
G1 X64.769 Y43.86 E.10012
G1 X65.489 Y41.719 E.10021
G1 X65.818 Y41.836 F9000
G1 F1200
G1 X67.058 Y39.93 E.10088
G1 X68.753 Y38.368 E.10222
G1 X70.527 Y37.384 E.08997
G1 X72.418 Y36.839 E.0873
G1 X74.565 Y36.654 E.09556
G1 X78.098 Y36.645 E.15669
G1 X78.808 Y36.665 E.03154
G1 X79.456 Y36.726 E.02885
G1 X79.976 Y36.741 E.02307
G1 X140.024 Y36.741 E2.66344
G1 X140.544 Y36.726 E.02306
G1 X141.189 Y36.665 E.02874
G1 X141.886 Y36.645 E.03092
G1 X145.511 Y36.657 E.16079
G1 X147.831 Y36.889 E.10344
G1 X150.096 Y37.672 E.10626
G1 X152.015 Y38.977 E.10295
G1 X153.115 Y40.156 E.07154
G1 X154.004 Y41.475 E.07055
G1 X154.972 Y44.364 E.13514
G1 X155.119 Y46.237 E.08334
G1 X155.135 Y47.119 E.0391
G1 X155.134 Y172.969 E5.58204
G1 X155.107 Y173.967 E.04431
G1 X154.945 Y175.748 E.07932
G1 X154.215 Y178.089 E.10876
G1 X152.805 Y180.237 E.11398
G1 X151.624 Y181.335 E.07152
G1 X150.292 Y182.234 E.07129
G1 X147.46 Y183.188 E.13254
G1 X145.6 Y183.339 E.08276
G1 X144.759 Y183.359 E.03734
G1 X75.223 Y183.359 E3.08424
G1 X74.321 Y183.334 E.04001
G1 X72.224 Y183.12 E.09352
G1 X70.156 Y182.448 E.09644
G1 X68.009 Y181.049 E.11365
G1 X66.904 Y179.868 E.07175
G1 X65.996 Y178.526 E.07184
G1 X65.028 Y175.636 E.13521
G1 X64.881 Y173.763 E.08334
G1 X64.865 Y172.881 E.03913
G1 X64.887 Y46.133 E5.62188
G1 X65.112 Y43.954 E.09714
G1 X65.799 Y41.893 E.09635
G1 X66.129 Y42.011 F9000
G1 F1200
G1 X67.344 Y40.143 E.09885
G1 X68.978 Y38.645 E.0983
G1 X70.681 Y37.705 E.08627
G1 X72.499 Y37.186 E.08388
G1 X74.573 Y37.009 E.09232
G1 X78.09 Y37 E.15601
G1 X78.792 Y37.02 E.03115
G1 X79.434 Y37.081 E.02858
G1 X79.971 Y37.096 E.02382
G1 X140.029 Y37.096 E2.66389
G1 X140.566 Y37.081 E.02381
G1 X141.205 Y37.02 E.02848
G1 X141.893 Y37 E.03053
G1 X145.485 Y37.012 E.15931
G1 X147.736 Y37.232 E.10033
G1 X149.916 Y37.98 E.10222
G1 X151.769 Y39.234 E.09926
G1 X152.828 Y40.367 E.06877
G1 X153.696 Y41.654 E.06885
G1 X154.619 Y44.414 E.12907
G1 X154.764 Y46.26 E.08213
G1 X154.779 Y47.12 E.03818
G1 X154.778 Y172.961 E5.58165
G1 X154.752 Y173.941 E.04345
G1 X154.593 Y175.697 E.07824
G1 X153.904 Y177.915 E.10302
G1 X152.546 Y179.992 E.11004
G1 X151.414 Y181.048 E.0687
G1 X150.113 Y181.925 E.06959
G1 X147.368 Y182.843 E.12838
G1 X145.577 Y182.985 E.07967
G1 X144.752 Y183.004 E.0366
G1 X75.225 Y183.004 E3.08386
G1 X74.337 Y182.979 E.0394
G1 X72.314 Y182.775 E.09019
G1 X70.329 Y182.137 E.09249
G1 X68.254 Y180.789 E.10975
G1 X67.191 Y179.657 E.06891
G1 X66.305 Y178.347 E.07013
G1 X65.381 Y175.586 E.12912
G1 X65.236 Y173.74 E.08214
G1 X65.221 Y172.879 E.03821
G1 X65.242 Y46.159 E5.62063
G1 X65.456 Y44.047 E.09418
G1 X66.11 Y42.068 E.09245
G1 X66.44 Y42.185 F9000
G1 F1200
G1 X67.63 Y40.356 E.0968
G1 X69.201 Y38.922 E.09435
G1 X70.834 Y38.027 E.08258
G1 X72.579 Y37.533 E.08046
G1 X74.581 Y37.365 E.0891
G1 X78.083 Y37.356 E.15533
G1 X78.776 Y37.375 E.03076
G1 X79.412 Y37.436 E.02831
G1 X79.966 Y37.452 E.02458
G1 X140.034 Y37.452 E2.66435
G1 X140.588 Y37.436 E.02457
G1 X141.221 Y37.375 E.02822
G1 X141.901 Y37.356 E.03014
G1 X145.459 Y37.367 E.15785
G1 X147.642 Y37.576 E.09724
G1 X149.737 Y38.288 E.09817
G1 X151.524 Y39.493 E.09557
G1 X152.542 Y40.579 E.06605
G1 X153.367 Y41.791 E.06503
G1 X154.267 Y44.463 E.12507
G1 X154.409 Y46.282 E.08091
G1 X154.424 Y47.122 E.03726
G1 X154.423 Y172.954 E5.58127
G1 X154.397 Y173.914 E.04259
G1 X154.24 Y175.647 E.07716
G1 X153.592 Y177.742 E.09729
G1 X152.287 Y179.747 E.10609
G1 X151.202 Y180.762 E.06592
G1 X149.976 Y181.596 E.06577
G1 X147.318 Y182.491 E.12439
G1 X145.554 Y182.63 E.07847
G1 X144.746 Y182.648 E.03585
G1 X75.228 Y182.648 E3.08348
G1 X74.353 Y182.624 E.03881
G1 X72.404 Y182.431 E.08689
G1 X70.502 Y181.825 E.08853
G1 X68.498 Y180.53 E.10585
G1 X67.476 Y179.444 E.06612
G1 X66.634 Y178.21 E.06629
G1 X65.733 Y175.537 E.12511
G1 X65.591 Y173.718 E.08092
G1 X65.576 Y172.878 E.03728
G1 X65.596 Y46.186 E5.6194
G1 X65.8 Y44.139 E.09124
G1 X66.421 Y42.242 E.08852
G1 X66.751 Y42.358 F9000
G1 F1200
G1 X67.887 Y40.602 E.09277
G1 X69.392 Y39.223 E.09054
G1 X70.951 Y38.363 E.07897
G1 X72.626 Y37.886 E.07728
G1 X74.589 Y37.72 E.08737
G1 X78.076 Y37.711 E.15464
G1 X78.76 Y37.73 E.03037
G1 X79.389 Y37.791 E.02804
G1 X79.96 Y37.808 E.02534
G1 X140.04 Y37.808 E2.6648
G1 X140.61 Y37.791 E.02533
G1 X141.238 Y37.731 E.02795
G1 X141.908 Y37.711 E.02975
G1 X145.434 Y37.722 E.15641
G1 X147.548 Y37.919 E.09416
G1 X149.559 Y38.597 E.09412
G1 X151.279 Y39.751 E.09186
G1 X152.256 Y40.79 E.06329
G1 X153.059 Y41.971 E.06332
G1 X153.914 Y44.513 E.11895
G1 X154.054 Y46.304 E.0797
G1 X154.068 Y47.123 E.03634
G1 X154.067 Y172.947 E5.5809
G1 X154.043 Y173.888 E.04172
G1 X153.888 Y175.596 E.07609
G1 X153.28 Y177.57 E.0916
G1 X152.028 Y179.503 E.10214
G1 X150.99 Y180.476 E.06311
G1 X149.796 Y181.288 E.06406
G1 X147.268 Y182.138 E.11828
G1 X145.531 Y182.275 E.07728
G1 X144.74 Y182.293 E.0351
G1 X75.23 Y182.292 E3.0831
G1 X74.369 Y182.268 E.03821
G1 X72.493 Y182.086 E.08363
G1 X70.674 Y181.513 E.08457
G1 X68.741 Y180.27 E.10193
G1 X67.762 Y179.232 E.06329
G1 X66.941 Y178.03 E.06457
G1 X66.086 Y175.487 E.11898
G1 X65.946 Y173.696 E.0797
G1 X65.932 Y172.876 E.03636
G1 X65.951 Y46.211 E5.61819
G1 X66.144 Y44.23 E.08831
G1 X66.733 Y42.415 E.0846
G1 X67.063 Y42.531 F9000
G1 F1200
G1 X68.145 Y40.848 E.08873
G1 X69.583 Y39.523 E.08672
G1 X71.069 Y38.699 E.07535
G1 X72.674 Y38.239 E.07407
G1 X74.597 Y38.076 E.08563
G1 X78.068 Y38.067 E.15396
G1 X78.744 Y38.086 E.02997
G1 X79.367 Y38.146 E.02777
G1 X79.955 Y38.163 E.02611
G1 X140.045 Y38.163 E2.66525
G1 X140.633 Y38.146 E.02609
G1 X141.254 Y38.086 E.02768
G1 X141.915 Y38.067 E.02935
G1 X145.41 Y38.076 E.15501
G1 X147.455 Y38.263 E.0911
G1 X149.382 Y38.906 E.09006
G1 X151.034 Y40.01 E.08814
G1 X151.971 Y41.003 E.06059
G1 X152.73 Y42.109 E.05947
G1 X153.561 Y44.563 E.11491
G1 X153.699 Y46.327 E.07847
G1 X153.712 Y47.125 E.03542
G1 X153.712 Y172.941 E5.58052
G1 X153.688 Y173.861 E.04086
G1 X153.535 Y175.546 E.07503
G1 X152.968 Y177.398 E.08592
G1 X151.769 Y179.259 E.09818
G1 X150.777 Y180.191 E.06035
G1 X149.658 Y180.96 E.06022
G1 X147.218 Y181.785 E.11425
G1 X145.509 Y181.92 E.07607
G1 X144.734 Y181.937 E.03435
G1 X75.233 Y181.937 E3.08273
G1 X74.385 Y181.913 E.03762
G1 X72.58 Y181.741 E.0804
G1 X70.845 Y181.201 E.08061
G1 X68.984 Y180.009 E.098
G1 X68.047 Y179.019 E.06052
G1 X67.27 Y177.892 E.0607
G1 X66.439 Y175.437 E.11493
G1 X66.301 Y173.673 E.07847
G1 X66.288 Y172.875 E.03544
G1 X66.306 Y46.237 E5.617
G1 X66.489 Y44.32 E.08541
G1 X67.045 Y42.588 E.08068
G1 X67.376 Y42.702 F9000
G1 F1200
G1 X68.404 Y41.093 E.08469
G1 X69.775 Y39.823 E.08291
G1 X71.187 Y39.035 E.07173
G1 X72.722 Y38.592 E.07084
G1 X74.606 Y38.432 E.08387
G1 X78.061 Y38.422 E.15327
G1 X78.728 Y38.441 E.02957
G1 X79.345 Y38.501 E.02749
G1 X79.95 Y38.519 E.02688
G1 X140.05 Y38.519 E2.66571
G1 X140.655 Y38.501 E.02687
G1 X141.27 Y38.441 E.02741
G1 X141.923 Y38.423 E.02896
G1 X145.386 Y38.431 E.15362
G1 X147.364 Y38.608 E.08806
G1 X149.205 Y39.215 E.086
G1 X150.79 Y40.269 E.08441
G1 X151.686 Y41.216 E.05784
G1 X152.423 Y42.289 E.05774
G1 X153.216 Y44.652 E.11055
G1 X153.279 Y45.657 E.04464
G1 X153.344 Y46.354 E.03107
G1 X153.357 Y47.126 E.03425
G1 X153.356 Y172.934 E5.58016
G1 X153.333 Y173.835 E.03999
G1 X153.183 Y175.496 E.07396
G1 X152.655 Y177.227 E.08028
G1 X151.508 Y179.015 E.09422
G1 X150.565 Y179.906 E.05755
G1 X149.477 Y180.653 E.05851
G1 X147.168 Y181.432 E.10809
G1 X145.486 Y181.565 E.07487
G1 X144.728 Y181.581 E.03359
G1 X75.235 Y181.581 E3.08236
G1 X74.4 Y181.558 E.03704
G1 X72.667 Y181.396 E.07722
G1 X71.016 Y180.888 E.07663
G1 X69.227 Y179.749 E.09405
G1 X68.331 Y178.805 E.0577
G1 X67.577 Y177.711 E.05897
G1 X66.784 Y175.348 E.11055
G1 X66.721 Y174.343 E.04464
G1 X66.656 Y173.646 E.03107
G1 X66.643 Y172.873 E.03427
G1 X66.661 Y46.261 E5.61585
G1 X66.834 Y44.409 E.08252
G1 X67.358 Y42.759 E.07676
G1 X67.689 Y42.873 F9000
G1 F1200
G1 X68.663 Y41.338 E.08064
G1 X69.968 Y40.123 E.0791
G1 X71.307 Y39.371 E.06809
G1 X72.77 Y38.944 E.06758
G1 X74.614 Y38.787 E.08211
G1 X78.054 Y38.778 E.15258
G1 X78.711 Y38.796 E.02917
G1 X79.322 Y38.857 E.02721
G1 X79.945 Y38.874 E.02765
G1 X140.055 Y38.874 E2.66616
G1 X140.678 Y38.857 E.02764
G1 X141.287 Y38.797 E.02713
G1 X141.93 Y38.778 E.02856
G1 X145.363 Y38.786 E.15227
G1 X147.273 Y38.952 E.08504
G1 X149.029 Y39.525 E.08193
G1 X150.546 Y40.529 E.08066
G1 X151.402 Y41.431 E.05516
G1 X152.094 Y42.428 E.05384
G1 X152.863 Y44.698 E.10631
G1 X152.924 Y45.684 E.04384
G1 X152.989 Y46.38 E.03101
G1 X153.001 Y47.128 E.03315
G1 X153.001 Y172.927 E5.57981
G1 X152.979 Y173.809 E.03911
G1 X152.83 Y175.446 E.07291
G1 X152.342 Y177.057 E.07467
G1 X151.248 Y178.772 E.09025
G1 X150.35 Y179.622 E.05481
G1 X149.339 Y180.324 E.05463
G1 X147.118 Y181.079 E.10403
G1 X145.463 Y181.21 E.07365
G1 X144.723 Y181.226 E.03283
G1 X75.238 Y181.225 E3.08199
G1 X74.416 Y181.203 E.03647
G1 X72.752 Y181.05 E.07409
G1 X71.185 Y180.574 E.07265
G1 X69.469 Y179.487 E.09009
G1 X68.615 Y178.59 E.05494
G1 X67.905 Y177.572 E.05504
G1 X67.137 Y175.302 E.1063
G1 X67.076 Y174.316 E.04384
G1 X67.011 Y173.62 E.03101
G1 X66.999 Y172.872 E.03317
G1 X67.016 Y46.285 E5.61473
G1 X67.179 Y44.497 E.07966
G1 X67.671 Y42.93 E.07284
G1 X68.002 Y43.042 F9000
G1 F1200
G1 X68.923 Y41.581 E.07659
G1 X70.162 Y40.421 E.07529
G1 X71.427 Y39.706 E.06446
G1 X72.818 Y39.297 E.0643
G1 X74.622 Y39.143 E.08033
G1 X78.047 Y39.133 E.15188
G1 X78.695 Y39.152 E.02877
G1 X79.299 Y39.212 E.02693
G1 X79.94 Y39.23 E.02843
G1 X140.06 Y39.23 E2.66661
G1 X140.701 Y39.212 E.02843
G1 X141.303 Y39.152 E.02685
G1 X141.938 Y39.134 E.02816
G1 X145.341 Y39.141 E.15095
G1 X147.184 Y39.297 E.08204
G1 X148.854 Y39.836 E.07785
G1 X150.303 Y40.789 E.0769
G1 X151.118 Y41.645 E.05243
G1 X151.788 Y42.61 E.05209
G1 X152.518 Y44.788 E.10189
G1 X152.569 Y45.71 E.041
G1 X152.635 Y46.407 E.03101
G1 X152.645 Y47.129 E.03204
G1 X152.645 Y172.921 E5.57946
G1 X152.624 Y173.782 E.03824
G1 X152.477 Y175.396 E.07186
G1 X152.028 Y176.887 E.06909
G1 X150.987 Y178.529 E.08624
G1 X150.116 Y179.354 E.05321
G1 X149.157 Y180.017 E.05171
G1 X147.029 Y180.734 E.09963
G1 X146.087 Y180.792 E.04187
G1 X145.434 Y180.855 E.02909
G1 X144.717 Y180.87 E.03179
G1 X75.24 Y180.87 E3.08164
G1 X74.431 Y180.847 E.0359
G1 X72.837 Y180.704 E.071
G1 X71.354 Y180.26 E.06867
G1 X69.711 Y179.226 E.08608
G1 X68.882 Y178.355 E.05334
G1 X68.212 Y177.39 E.05209
G1 X67.482 Y175.212 E.10189
G1 X67.431 Y174.29 E.041
G1 X67.365 Y173.593 E.03101
G1 X67.355 Y172.871 E.03206
G1 X67.371 Y46.309 E5.61363
G1 X67.524 Y44.583 E.07682
G1 X67.984 Y43.099 E.06893
G1 X68.316 Y43.211 F9000
G1 F1200
G1 X69.184 Y41.824 E.07254
G1 X70.357 Y40.72 E.07148
G1 X71.548 Y40.041 E.06081
G1 X72.867 Y39.65 E.06099
G1 X74.631 Y39.498 E.07854
G1 X78.039 Y39.489 E.15119
G1 X78.679 Y39.507 E.02836
G1 X79.276 Y39.567 E.02664
G1 X79.935 Y39.586 E.02922
G1 X140.065 Y39.586 E2.66707
G1 X140.724 Y39.567 E.02922
G1 X141.32 Y39.507 E.02657
G1 X141.945 Y39.489 E.02775
G1 X145.318 Y39.496 E.14961
G1 X147.134 Y39.65 E.08083
G1 X148.68 Y40.147 E.07203
G1 X150.06 Y41.05 E.07315
G1 X150.835 Y41.861 E.04977
G1 X151.459 Y42.748 E.04813
G1 X152.164 Y44.832 E.09755
G1 X152.215 Y45.737 E.04021
G1 X152.28 Y46.433 E.03099
G1 X152.29 Y47.13 E.03094
G1 X152.289 Y172.914 E5.57913
G1 X152.269 Y173.756 E.03736
G1 X152.125 Y175.346 E.07081
G1 X151.715 Y176.719 E.06354
G1 X150.726 Y178.287 E.08223
G1 X149.901 Y179.071 E.05049
G1 X149.018 Y179.689 E.04779
G1 X146.983 Y180.381 E.09534
G1 X146.059 Y180.438 E.04108
G1 X145.406 Y180.501 E.02906
G1 X144.712 Y180.515 E.0308
G1 X75.243 Y180.514 E3.08129
G1 X74.447 Y180.492 E.03533
G1 X72.886 Y180.351 E.0695
G1 X71.522 Y179.946 E.06315
G1 X69.953 Y178.964 E.08208
G1 X69.165 Y178.139 E.0506
G1 X68.541 Y177.252 E.04813
G1 X67.836 Y175.168 E.09755
G1 X67.785 Y174.263 E.04021
G1 X67.72 Y173.567 E.03099
G1 X67.71 Y172.869 E.03095
G1 X67.726 Y46.332 E5.61253
G1 X67.877 Y44.634 E.07565
G1 X68.298 Y43.268 E.06339
G1 X68.63 Y43.378 F9000
G1 F1200
G1 X69.445 Y42.066 E.06851
G1 X70.553 Y41.017 E.06767
G1 X71.671 Y40.376 E.05716
G1 X72.915 Y40.003 E.05765
G1 X74.639 Y39.854 E.07674
G1 X78.032 Y39.845 E.15049
G1 X78.662 Y39.862 E.02795
G1 X79.253 Y39.922 E.02636
G1 X79.93 Y39.941 E.03002
G1 X140.07 Y39.941 E2.66752
G1 X140.747 Y39.922 E.03001
G1 X141.336 Y39.862 E.02629
G1 X141.953 Y39.845 E.02735
G1 X145.296 Y39.851 E.14828
G1 X147.084 Y40.002 E.07962
