; generated by PrusaSlicer 2.4.1-beta3+arm64 on 2022-02-27 at 06:44:19 UTC

; 

; external perimeters extrusion width = 0.45mm
; perimeters extrusion width = 0.45mm
; infill extrusion width = 0.45mm
; solid infill extrusion width = 0.45mm
; top infill extrusion width = 0.40mm
; first layer extrusion width = 0.60mm

M107
;TYPE:Custom
G90 ; use absolute coordinates
M83 ; extruder relative mode
M140 S70 ; set final bed temp
M104 S150 ; set temporary nozzle temp to prevent oozing during homing
G4 S10 ; allow partial nozzle warmup
G28 ; home all axis
G1 Z50 F240
G1 X2 Y10 F3000
M104 S215 ; set final nozzle temp
M190 S70 ; wait for bed temp to stabilize
M109 S215 ; wait for nozzle temp to stabilize
G1 Z0.28 F240
G92 E0
G1 Y140 E10 F1500 ; prime the nozzle
G1 X2.3 F5000
G92 E0
G1 Y10 E10 F1200 ; prime the nozzle
G92 E0
G21 ; set units to millimeters
G90 ; use absolute coordinates
M83 ; use relative distances for extrusion
; Filament gcode
M107
;LAYER_CHANGE
;Z:0.2
;HEIGHT:0.2
;BEFORE_LAYER_CHANGE
G92 E0
;0.2


G1 E-5 F3600
G1 Z.2 F9000
;AFTER_LAYER_CHANGE
;0.2
G1 X65.824 Y41.712
G1 E5 F2400
M204 S500
;TYPE:Skirt/Brim
;WIDTH:0.6
G1 F1200
G1 X66.912 Y40.071 E.0912
G1 X68.116 Y38.838 E.07979
G1 X69.539 Y37.82 E.08106
G1 X71.132 Y37.108 E.08084
G1 X72.819 Y36.73 E.08006
G1 X74.756 Y36.623 E.08986
G1 X78.526 Y36.625 E.17463
G1 X79.778 Y36.714 E.05814
G1 X80.42 Y36.725 E.02977
G1 X139.58 Y36.725 E2.74034
G1 X140.222 Y36.714 E.02977
G1 X141.477 Y36.625 E.05828
G1 X145.484 Y36.631 E.18558
G1 X147.828 Y36.832 E.109
G1 X149.113 Y37.193 E.06184
G1 X150.41 Y37.791 E.06616
G1 X151.742 Y38.716 E.07508
G1 X152.891 Y39.835 E.07429
G1 X154.173 Y41.705 E.10505
G1 X154.61 Y42.738 E.05194
G1 X154.927 Y43.849 E.05352
G1 X155.152 Y46.557 E.12588
G1 X155.152 Y173.444 E5.87754
G1 X154.926 Y176.153 E.12592
G1 X154.594 Y177.307 E.05563
G1 X154.063 Y178.494 E.06027
G1 X152.89 Y180.166 E.09457
G1 X151.576 Y181.417 E.08406
G1 X150.08 Y182.391 E.08267
G1 X149.039 Y182.834 E.05242
G1 X147.968 Y183.143 E.05163
G1 X145.255 Y183.377 E.12611
G1 X74.632 Y183.373 E3.27136
G1 X72.047 Y183.145 E.12022
G1 X70.85 Y182.794 E.05776
G1 X69.656 Y182.246 E.06084
G1 X68.041 Y181.099 E.09175
G1 X66.794 Y179.783 E.084
G1 X65.823 Y178.284 E.08273
G1 X65.379 Y177.23 E.05299
G1 X65.073 Y176.151 E.05192
G1 X64.848 Y173.443 E.12588
G1 X64.853 Y46.379 E5.88577
G1 X65.026 Y44.118 E.10507
G1 X65.349 Y42.857 E.06027
G1 X65.801 Y41.767 E.05466
G1 X66.315 Y41.982 F9000
G1 F1200
G1 X67.361 Y40.402 E.08774
G1 X68.496 Y39.246 E.07507
G1 X69.793 Y38.316 E.07392
G1 X71.283 Y37.645 E.0757
G1 X72.873 Y37.285 E.07551
G1 X74.763 Y37.18 E.08769
G1 X78.516 Y37.182 E.17381
G1 X79.753 Y37.271 E.05747
G1 X80.416 Y37.282 E.0307
G1 X139.584 Y37.282 E2.74077
G1 X140.247 Y37.271 E.0307
G1 X141.487 Y37.182 E.05759
G1 X145.449 Y37.187 E.18353
G1 X147.705 Y37.376 E.10485
G1 X148.902 Y37.709 E.05758
G1 X150.115 Y38.264 E.06176
G1 X151.37 Y39.131 E.07069
G1 X152.482 Y40.215 E.07192
G1 X153.671 Y41.948 E.09737
G1 X154.09 Y42.939 E.04982
G1 X154.383 Y43.974 E.04984
G1 X154.595 Y46.568 E.12057
G1 X154.595 Y173.432 E5.87651
G1 X154.383 Y176.026 E.12055
G1 X154.076 Y177.1 E.0517
G1 X153.59 Y178.198 E.05566
G1 X152.484 Y179.783 E.0895
G1 X151.249 Y180.966 E.07923
G1 X149.839 Y181.889 E.07808
G1 X148.868 Y182.303 E.0489
G1 X147.84 Y182.6 E.04955
G1 X145.244 Y182.82 E.12069
G1 X74.668 Y182.817 E3.26918
G1 X72.175 Y182.602 E.11587
G1 X71.062 Y182.278 E.05373
G1 X69.956 Y181.775 E.05628
G1 X68.426 Y180.695 E.08677
G1 X67.246 Y179.457 E.0792
G1 X66.326 Y178.044 E.07812
G1 X65.91 Y177.061 E.04942
G1 X65.617 Y176.026 E.04984
G1 X65.405 Y173.432 E.12055
G1 X65.41 Y46.39 E5.88475
G1 X65.58 Y44.185 E.10242
G1 X65.883 Y43.017 E.05592
G1 X66.292 Y42.037 E.04917
G1 X66.805 Y42.253 F9000
G1 F1200
G1 X67.809 Y40.735 E.08431
G1 X68.842 Y39.683 E.06826
G1 X70.05 Y38.811 E.06902
G1 X71.436 Y38.181 E.07053
G1 X72.928 Y37.84 E.07091
G1 X74.771 Y37.737 E.0855
G1 X78.505 Y37.739 E.17298
G1 X79.728 Y37.827 E.0568
G1 X80.411 Y37.839 E.03163
G1 X139.589 Y37.839 E2.7412
G1 X140.272 Y37.827 E.03163
G1 X141.497 Y37.739 E.05689
G1 X145.415 Y37.743 E.18152
G1 X147.583 Y37.92 E.10073
G1 X148.693 Y38.226 E.05334
G1 X149.819 Y38.737 E.05728
G1 X151.034 Y39.576 E.0684
G1 X152.073 Y40.593 E.06737
G1 X153.169 Y42.191 E.08975
G1 X153.57 Y43.14 E.0477
G1 X153.839 Y44.098 E.04613
G1 X154.038 Y46.579 E.11529
G1 X154.038 Y173.422 E5.8755
G1 X153.839 Y175.901 E.11524
G1 X153.558 Y176.894 E.04781
G1 X153.116 Y177.904 E.05104
G1 X152.078 Y179.401 E.08441
G1 X150.92 Y180.515 E.0744
G1 X149.597 Y181.387 E.07342
G1 X148.665 Y181.784 E.04691
G1 X147.713 Y182.057 E.04587
G1 X145.232 Y182.263 E.11531
G1 X74.702 Y182.26 E3.26706
G1 X72.303 Y182.06 E.11152
G1 X71.271 Y181.762 E.04974
G1 X70.253 Y181.304 E.05171
G1 X68.809 Y180.289 E.08177
G1 X67.698 Y179.13 E.07439
G1 X66.829 Y177.803 E.07346
G1 X66.43 Y176.86 E.04741
G1 X66.161 Y175.902 E.04613
G1 X65.962 Y173.421 E.11528
G1 X65.967 Y46.401 E5.88375
G1 X66.133 Y44.254 E.09974
G1 X66.417 Y43.178 E.05152
G1 X66.782 Y42.308 E.04372
G1 X67.295 Y42.525 F9000
G1 F1200
G1 X67.333 Y42.436 E.0045
G1 X68.256 Y41.068 E.07641
G1 X69.221 Y40.092 E.06363
G1 X70.307 Y39.306 E.06209
G1 X71.59 Y38.718 E.06537
G1 X72.983 Y38.394 E.06626
G1 X74.779 Y38.294 E.08328
G1 X78.495 Y38.296 E.17215
G1 X79.703 Y38.384 E.05613
G1 X80.406 Y38.396 E.03257
G1 X139.594 Y38.396 E2.74163
G1 X140.297 Y38.384 E.03257
G1 X141.506 Y38.296 E.05619
G1 X145.382 Y38.3 E.17954
G1 X147.462 Y38.464 E.09663
G1 X148.485 Y38.743 E.04912
G1 X149.525 Y39.21 E.0528
G1 X150.661 Y39.991 E.06388
G1 X151.664 Y40.973 E.06498
G1 X152.667 Y42.435 E.08217
G1 X153.039 Y43.308 E.04392
G1 X153.296 Y44.222 E.04401
G1 X153.481 Y46.59 E.11
G1 X153.481 Y173.411 E5.87452
G1 X153.296 Y175.778 E.10996
G1 X153.039 Y176.692 E.04397
G1 X152.642 Y177.611 E.0464
G1 X151.67 Y179.021 E.07931
G1 X150.591 Y180.065 E.06957
G1 X149.353 Y180.885 E.06876
G1 X148.494 Y181.254 E.04329
G1 X147.587 Y181.514 E.04375
G1 X145.221 Y181.706 E.10992
G1 X74.736 Y181.704 E3.26499
G1 X72.429 Y181.516 E.1072
G1 X71.479 Y181.244 E.04578
G1 X70.549 Y180.831 E.04712
G1 X69.19 Y179.883 E.07676
G1 X68.148 Y178.801 E.06957
G1 X67.331 Y177.561 E.06879
G1 X66.961 Y176.692 E.04374
G1 X66.704 Y175.778 E.04401
G1 X66.519 Y173.41 E.10999
G1 X66.525 Y46.412 E5.88275
G1 X66.687 Y44.323 E.09703
G1 X66.949 Y43.342 E.04706
G1 X67.272 Y42.58 E.0383
G1 X67.784 Y42.799 F9000
G1 F1200
G1 X67.834 Y42.68 E.00599
G1 X68.702 Y41.403 E.07149
G1 X69.568 Y40.528 E.05703
G1 X70.567 Y39.799 E.05729
G1 X71.746 Y39.253 E.06017
G1 X73.039 Y38.949 E.06154
G1 X74.786 Y38.851 E.08105
G1 X78.484 Y38.853 E.1713
G1 X79.678 Y38.941 E.05545
G1 X80.402 Y38.953 E.03352
G1 X139.598 Y38.953 E2.74206
G1 X140.322 Y38.941 E.03352
G1 X141.516 Y38.853 E.05549
G1 X145.351 Y38.856 E.1776
G1 X147.343 Y39.009 E.09256
G1 X148.279 Y39.261 E.04492
G1 X149.231 Y39.684 E.04824
G1 X150.325 Y40.436 E.06151
G1 X151.254 Y41.35 E.06035
G1 X152.166 Y42.679 E.07465
G1 X152.519 Y43.509 E.04177
G1 X152.752 Y44.345 E.0402
G1 X152.924 Y46.6 E.10478
G1 X152.924 Y173.401 E5.87356
G1 X152.752 Y175.655 E.10474
G1 X152.519 Y176.491 E.04019
G1 X152.166 Y177.32 E.04173
G1 X151.261 Y178.641 E.07419
G1 X150.26 Y179.616 E.06474
G1 X149.11 Y180.383 E.06403
G1 X148.291 Y180.734 E.04124
G1 X147.461 Y180.97 E.03997
G1 X145.211 Y181.149 E.10459
G1 X74.768 Y181.148 E3.26297
G1 X72.554 Y180.973 E.1029
G1 X71.684 Y180.726 E.04188
G1 X70.844 Y180.357 E.04251
G1 X69.571 Y179.475 E.07174
G1 X68.598 Y178.471 E.06476
G1 X67.834 Y177.319 E.06405
G1 X67.481 Y176.491 E.04168
G1 X67.248 Y175.655 E.0402
G1 X67.076 Y173.4 E.10476
G1 X67.082 Y46.423 E5.88177
G1 X67.24 Y44.393 E.09428
G1 X67.481 Y43.508 E.04253
G1 X67.76 Y42.854 E.03292
G1 X68.271 Y43.073 F9000
G1 F1200
G1 X68.335 Y42.925 E.00748
G1 X69.146 Y41.74 E.06654
G1 X69.947 Y40.937 E.05251
G1 X70.829 Y40.292 E.05061
G1 X71.904 Y39.788 E.05499
G1 X73.096 Y39.504 E.05676
G1 X74.794 Y39.409 E.07878
G1 X78.474 Y39.41 E.17046
G1 X79.653 Y39.498 E.05477
G1 X80.397 Y39.51 E.03448
G1 X139.603 Y39.51 E2.74249
G1 X140.347 Y39.498 E.03448
G1 X141.527 Y39.41 E.05479
G1 X145.32 Y39.412 E.1757
G1 X147.226 Y39.554 E.08852
G1 X148.076 Y39.78 E.04075
G1 X148.939 Y40.16 E.04368
G1 X149.953 Y40.851 E.05683
G1 X150.844 Y41.729 E.05793
G1 X151.665 Y42.924 E.06719
G1 X151.987 Y43.677 E.03791
G1 X152.207 Y44.468 E.03803
G1 X152.367 Y46.61 E.09954
G1 X152.367 Y173.391 E5.87263
G1 X152.207 Y175.533 E.09949
G1 X151.987 Y176.323 E.03803
G1 X151.665 Y177.075 E.03788
G1 X150.851 Y178.263 E.06669
G1 X149.927 Y179.169 E.05995
G1 X148.864 Y179.882 E.0593
G1 X148.121 Y180.204 E.03749
G1 X147.336 Y180.427 E.0378
G1 X145.2 Y180.592 E.09925
G1 X74.8 Y180.592 E3.26102
G1 X72.677 Y180.429 E.09862
G1 X71.887 Y180.207 E.03803
G1 X71.136 Y179.883 E.03789
G1 X69.95 Y179.066 E.0667
G1 X69.046 Y178.14 E.05995
G1 X68.335 Y177.075 E.05931
G1 X68.013 Y176.323 E.03788
G1 X67.793 Y175.533 E.03803
G1 X67.633 Y173.39 E.09952
G1 X67.639 Y46.434 E5.88079
G1 X67.793 Y44.465 E.09148
G1 X68.013 Y43.676 E.03792
G1 X68.248 Y43.128 E.02761
G1 X68.76 Y43.348 F9000
G1 F1200
G1 X68.836 Y43.17 E.009
G1 X69.559 Y42.115 E.05922
G1 X70.325 Y41.346 E.05029
G1 X71.133 Y40.759 E.04628
G1 X72.112 Y40.305 E.04995
G1 X73.152 Y40.059 E.0495
G1 X74.802 Y39.966 E.07655
G1 X78.463 Y39.967 E.16961
G1 X79.627 Y40.054 E.05408
G1 X80.393 Y40.067 E.03545
G1 X139.607 Y40.067 E2.74292
G1 X140.373 Y40.054 E.03544
G1 X141.537 Y39.967 E.05409
G1 X145.29 Y39.968 E.17384
G1 X147.11 Y40.1 E.08452
G1 X147.875 Y40.3 E.03663
G1 X148.648 Y40.635 E.03901
G1 X149.617 Y41.297 E.05437
G1 X150.433 Y42.105 E.05319
G1 X151.164 Y43.169 E.05979
G1 X151.468 Y43.878 E.03574
G1 X151.663 Y44.588 E.0341
G1 X151.81 Y46.62 E.09437
G1 X151.81 Y173.381 E5.87172
G1 X151.663 Y175.412 E.09433
G1 X151.468 Y176.122 E.0341
G1 X151.164 Y176.83 E.03572
G1 X150.441 Y177.885 E.05925
G1 X149.593 Y178.722 E.05519
G1 X148.619 Y179.382 E.05448
G1 X147.918 Y179.685 E.03538
G1 X147.213 Y179.883 E.03391
G1 X145.19 Y180.035 E.09398
G1 X74.81 Y180.035 E3.26009
G1 X72.799 Y179.885 E.09341
G1 X72.09 Y179.688 E.0341
G1 X71.382 Y179.382 E.03572
G1 X70.328 Y178.656 E.05925
G1 X69.494 Y177.806 E.05519
G1 X68.837 Y176.831 E.05449
G1 X68.532 Y176.122 E.03574
G1 X68.337 Y175.412 E.0341
G1 X68.19 Y173.38 E.09435
G1 X68.195 Y46.465 E5.87889
G1 X68.338 Y44.586 E.08729
G1 X68.532 Y43.878 E.03401
G1 X68.736 Y43.403 E.02392
G1 X69.246 Y43.624 F9000
G1 F1200
G1 X69.337 Y43.416 E.01051
G1 X69.971 Y42.49 E.05199
G1 X70.704 Y41.756 E.04804
G1 X71.437 Y41.226 E.04193
G1 X72.27 Y40.84 E.0425
G1 X73.209 Y40.613 E.04475
G1 X74.809 Y40.523 E.07425
G1 X78.452 Y40.524 E.16875
G1 X79.602 Y40.611 E.05339
G1 X80.388 Y40.624 E.03642
G1 X139.612 Y40.624 E2.74335
G1 X140.398 Y40.611 E.03642
G1 X141.548 Y40.524 E.05339
G1 X145.261 Y40.525 E.17202
G1 X146.996 Y40.646 E.08057
G1 X147.677 Y40.821 E.03255
G1 X148.359 Y41.112 E.03435
G1 X149.244 Y41.711 E.04949
G1 X150.022 Y42.482 E.05075
G1 X150.663 Y43.416 E.05247
G1 X150.936 Y44.045 E.03178
G1 X151.118 Y44.709 E.03187
G1 X151.253 Y46.63 E.08919
G1 X151.253 Y173.371 E5.87085
G1 X151.118 Y175.291 E.08915
G1 X150.936 Y175.955 E.03187
G1 X150.663 Y176.584 E.03176
G1 X150.029 Y177.509 E.05197
G1 X149.257 Y178.277 E.05046
G1 X148.371 Y178.882 E.04967
G1 X147.748 Y179.154 E.03148
G1 X147.09 Y179.339 E.03168
G1 X145.18 Y179.478 E.08869
G1 X74.82 Y179.478 E3.25918
G1 X72.921 Y179.34 E.08818
G1 X72.258 Y179.156 E.03188
G1 X71.63 Y178.882 E.03176
G1 X70.706 Y178.246 E.05197
G1 X69.939 Y177.471 E.05046
G1 X69.337 Y176.584 E.04967
G1 X69.064 Y175.955 E.03179
G1 X68.882 Y175.291 E.03187
G1 X68.747 Y173.371 E.08917
G1 X68.751 Y46.495 E5.87706
G1 X68.882 Y44.707 E.08304
G1 X69.064 Y44.045 E.0318
G1 X69.223 Y43.679 E.01846
G1 X69.734 Y43.901 F9000
G1 F1200
G1 X69.837 Y43.662 E.01205
G1 X70.383 Y42.866 E.04474
G1 X71.081 Y42.166 E.04577
G1 X71.739 Y41.696 E.03746
G1 X72.476 Y41.358 E.03756
G1 X73.265 Y41.168 E.0376
G1 X74.817 Y41.08 E.07199
G1 X78.441 Y41.081 E.16789
G1 X79.576 Y41.168 E.0527
G1 X80.383 Y41.181 E.0374
G1 X139.617 Y41.181 E2.74378
G1 X140.424 Y41.168 E.0374
G1 X141.558 Y41.081 E.05269
G1 X145.234 Y41.081 E.17025
G1 X146.883 Y41.192 E.07655
G1 X147.516 Y41.355 E.0303
G1 X148.113 Y41.613 E.03014
G1 X148.87 Y42.125 E.04231
G1 X149.611 Y42.86 E.04834
G1 X150.163 Y43.662 E.04511
G1 X150.417 Y44.248 E.02957
G1 X150.573 Y44.827 E.02779
G1 X150.696 Y46.639 E.08411
G1 X150.696 Y173.362 E5.87001
G1 X150.573 Y175.173 E.08407
G1 X150.417 Y175.752 E.02779
G1 X150.163 Y176.338 E.02956
G1 X149.617 Y177.134 E.04475
G1 X148.919 Y177.834 E.04578
G1 X148.123 Y178.382 E.04475
G1 X147.544 Y178.635 E.02927
G1 X146.969 Y178.794 E.02764
G1 X145.171 Y178.921 E.0835
G1 X74.829 Y178.921 E3.25831
G1 X73.041 Y178.796 E.08305
G1 X72.462 Y178.637 E.0278
G1 X71.877 Y178.382 E.02956
G1 X71.082 Y177.834 E.04475
G1 X70.383 Y177.134 E.04578
G1 X69.837 Y176.338 E.04474
G1 X69.583 Y175.752 E.02956
G1 X69.427 Y175.173 E.02779
G1 X69.304 Y173.362 E.08409
G1 X69.308 Y46.524 E5.87531
G1 X69.427 Y44.826 E.07886
G1 X69.584 Y44.248 E.02774
G1 X69.71 Y43.956 E.01472
G1 X70.219 Y44.179 F9000
G1 F1200
G1 X70.336 Y43.911 E.01358
G1 X70.796 Y43.241 E.03761
G1 X71.458 Y42.577 E.04346
G1 X72.039 Y42.165 E.03296
G1 X72.636 Y41.893 E.03039
G1 X73.324 Y41.723 E.03283
G1 X74.825 Y41.637 E.06965
G1 X78.43 Y41.638 E.16702
G1 X79.55 Y41.725 E.052
G1 X80.379 Y41.738 E.0384
G1 X139.621 Y41.738 E2.74421
G1 X140.45 Y41.725 E.0384
G1 X141.569 Y41.638 E.05199
G1 X145.208 Y41.638 E.16853
G1 X146.772 Y41.738 E.07263
G1 X147.316 Y41.876 E.026
G1 X147.869 Y42.114 E.02786
G1 X148.496 Y42.538 E.03509
G1 X149.2 Y43.237 E.04593
G1 X149.664 Y43.911 E.03788
G1 X149.884 Y44.414 E.02547
G1 X150.028 Y44.945 E.0255
G1 X150.139 Y46.647 E.079
G1 X150.139 Y173.354 E5.86921
G1 X150.028 Y175.055 E.07896
G1 X149.884 Y175.586 E.0255
G1 X149.664 Y176.089 E.02546
G1 X149.204 Y176.759 E.03761
G1 X148.542 Y177.423 E.04343
G1 X147.874 Y177.884 E.03761
G1 X147.375 Y178.104 E.02523
G1 X146.848 Y178.25 E.02535
G1 X145.162 Y178.364 E.07829
G1 X74.838 Y178.364 E3.25748
G1 X73.16 Y178.251 E.0779
G1 X72.629 Y178.106 E.0255
G1 X72.126 Y177.884 E.02547
G1 X71.458 Y177.423 E.03761
G1 X70.796 Y176.759 E.04343
G1 X70.336 Y176.089 E.03761
G1 X70.116 Y175.586 E.02546
G1 X69.972 Y175.055 E.0255
G1 X69.861 Y173.353 E.07898
G1 X69.864 Y46.551 E5.87363
G1 X69.972 Y44.944 E.07461
G1 X70.116 Y44.414 E.02545
G1 X70.195 Y44.234 E.0091
G1 X70.702 Y44.46 F9000
G1 F1200
G1 X70.834 Y44.161 E.01514
G1 X71.208 Y43.617 E.03059
G1 X71.835 Y42.988 E.04111
G1 X72.335 Y42.638 E.0283
G1 X72.84 Y42.411 E.02562
G1 X73.382 Y42.278 E.02584
G1 X74.833 Y42.194 E.06733
G1 X78.419 Y42.196 E.16614
G1 X79.523 Y42.281 E.0513
G1 X80.374 Y42.295 E.0394
G1 X139.626 Y42.295 E2.74464
G1 X140.476 Y42.281 E.0394
G1 X141.58 Y42.196 E.05128
G1 X145.183 Y42.194 E.16686
G1 X146.661 Y42.285 E.06863
G1 X147.157 Y42.41 E.02367
G1 X147.621 Y42.614 E.02349
G1 X148.122 Y42.952 E.02803
G1 X148.789 Y43.614 E.04351
G1 X149.166 Y44.161 E.03076
G1 X149.353 Y44.581 E.0213
G1 X149.483 Y45.063 E.02314
G1 X149.581 Y46.655 E.07389
G1 X149.581 Y173.345 E5.86845
G1 X149.483 Y174.937 E.07385
G1 X149.353 Y175.419 E.02314
G1 X149.166 Y175.839 E.0213
G1 X148.792 Y176.383 E.03059
G1 X148.166 Y177.011 E.04107
G1 X147.622 Y177.386 E.03059
G1 X147.206 Y177.573 E.02113
G1 X146.727 Y177.705 E.02299
G1 X145.153 Y177.806 E.07308
G1 X74.847 Y177.806 E3.25669
G1 X73.28 Y177.706 E.07275
G1 X72.798 Y177.574 E.02314
G1 X72.378 Y177.386 E.0213
G1 X71.834 Y177.011 E.03059
G1 X71.208 Y176.383 E.04107
G1 X70.834 Y175.839 E.03059
G1 X70.647 Y175.419 E.0213
G1 X70.517 Y174.937 E.02314
G1 X70.419 Y173.345 E.07387
G1 X70.421 Y46.577 E5.87205
G1 X70.517 Y45.062 E.07032
G1 X70.677 Y44.514 E.02644
G1 X71.186 Y44.741 F9000
G1 F1200
G1 X71.333 Y44.411 E.01674
G1 X71.621 Y43.992 E.02353
G1 X72.211 Y43.4 E.03871
G1 X72.628 Y43.112 E.02349
G1 X73.041 Y42.931 E.0209
G1 X73.44 Y42.832 E.01903
G1 X74.841 Y42.751 E.065
G1 X78.408 Y42.753 E.16525
G1 X79.497 Y42.838 E.05059
G1 X80.369 Y42.852 E.04041
G1 X139.631 Y42.852 E2.74507
