; generated by PrusaSlicer 2.4.1+arm64 on 2022-04-28 at 00:39:03 UTC

; 

; external perimeters extrusion width = 0.45mm
; perimeters extrusion width = 0.45mm
; infill extrusion width = 0.45mm
; solid infill extrusion width = 0.45mm
; top infill extrusion width = 0.40mm
; first layer extrusion width = 0.60mm

M107
;TYPE:Custom
G90 ; use absolute coordinates
M83 ; extruder relative mode
M140 S70 ; set final bed temp
M104 S150 ; set temporary nozzle temp to prevent oozing during homing
G4 S10 ; allow partial nozzle warmup
G28 ; home all axis
G1 Z50 F240
G1 X2 Y10 F3000
M104 S215 ; set final nozzle temp
M190 S70 ; wait for bed temp to stabilize
M109 S215 ; wait for nozzle temp to stabilize
G1 Z0.28 F240
G92 E0
G1 Y140 E10 F1500 ; prime the nozzle
G1 X2.3 F5000
G92 E0
G1 Y10 E10 F1200 ; prime the nozzle
G92 E0
G21 ; set units to millimeters
G90 ; use absolute coordinates
M83 ; use relative distances for extrusion
; Filament gcode
M107
;LAYER_CHANGE
;Z:0.3
;HEIGHT:0.3
;BEFORE_LAYER_CHANGE
G92 E0
;0.3


G1 E-5 F3600
G1 Z.3 F9000
;AFTER_LAYER_CHANGE
;0.3
G1 X75.938 Y95.272
G1 E5 F2400
M204 S500
;TYPE:Skirt/Brim
;WIDTH:0.6
G1 F1200
G1 X77.279 Y94.339 E.10913
G1 X78.334 Y93.828 E.07829
G1 X79.275 Y93.494 E.06671
G1 X80.869 Y93.132 E.10924
G1 X83.706 Y92.93 E.19
G1 X99.094 Y92.936 E1.02799
G1 X100.948 Y93.169 E.12486
G1 X102.139 Y93.518 E.08291
G1 X103.096 Y93.932 E.06962
G1 X103.926 Y94.407 E.0639
G1 X104.768 Y95.027 E.06986
G1 X105.85 Y96.129 E.10315
G1 X106.381 Y96.866 E.06067
G1 X107.152 Y98.451 E.11778
G1 X107.427 Y99.436 E.0683
G1 X107.59 Y101 E.10506
G1 X107.572 Y119.505 E1.23625
G1 X107.438 Y120.509 E.06766
G1 X107.171 Y121.493 E.06809
G1 X106.815 Y122.355 E.06234
G1 X106.322 Y123.224 E.06673
G1 X105.84 Y123.884 E.0546
G1 X104.866 Y124.89 E.09354
G1 X103.95 Y125.577 E.07648
G1 X103.119 Y126.057 E.06414
G1 X102.166 Y126.472 E.06941
G1 X101.201 Y126.771 E.06748
G1 X99.387 Y127.05 E.12264
G1 X83.846 Y127.071 E1.03824
G1 X82.187 Y127.01 E.11087
G1 X80.636 Y126.83 E.10433
G1 X79.318 Y126.519 E.09045
G1 X78.334 Y126.172 E.06973
G1 X76.722 Y125.322 E.12176
G1 X75.437 Y124.265 E.11114
G1 X74.59 Y123.238 E.08893
G1 X73.724 Y121.582 E.12483
G1 X73.438 Y120.611 E.06761
G1 X73.258 Y119.023 E.1068
G1 X73.256 Y101.001 E1.20399
G1 X73.394 Y99.609 E.09344
G1 X73.738 Y98.377 E.08547
G1 X74.614 Y96.728 E.1247
G1 X75.151 Y96.04 E.0583
G1 X75.895 Y95.314 E.06948
G1 X76.268 Y95.696 F9000
G1 F1200
G1 X77.536 Y94.81 E.10336
G1 X78.529 Y94.327 E.07377
G1 X79.422 Y94.009 E.06331
G1 X80.956 Y93.66 E.10506
G1 X83.717 Y93.466 E.18493
G1 X99.07 Y93.471 E1.02568
G1 X100.825 Y93.69 E.11813
G1 X101.962 Y94.023 E.07916
G1 X102.862 Y94.413 E.06552
G1 X103.629 Y94.853 E.05906
G1 X104.421 Y95.435 E.06566
G1 X105.432 Y96.463 E.09636
G1 X105.93 Y97.156 E.05698
G1 X106.646 Y98.627 E.10929
G1 X106.902 Y99.542 E.06353
G1 X107.054 Y101 E.0979
G1 X107.038 Y119.467 E1.23369
G1 X106.914 Y120.401 E.06294
G1 X106.666 Y121.316 E.06333
G1 X106.335 Y122.119 E.05804
G1 X105.873 Y122.933 E.06255
G1 X105.423 Y123.549 E.05092
G1 X104.517 Y124.483 E.08695
G1 X103.652 Y125.133 E.07227
G1 X102.883 Y125.576 E.05929
G1 X101.987 Y125.967 E.0653
G1 X101.077 Y126.25 E.06365
G1 X99.362 Y126.515 E.11598
G1 X83.846 Y126.536 E1.03656
G1 X82.039 Y126.462 E.1208
G1 X80.261 Y126.211 E.11992
G1 X78.834 Y125.793 E.09939
G1 X77.781 Y125.324 E.07697
G1 X76.679 Y124.635 E.08684
G1 X75.819 Y123.89 E.07599
G1 X75.107 Y123.043 E.07395
G1 X74.43 Y121.892 E.08919
G1 X73.967 Y120.52 E.09671
G1 X73.793 Y119.023 E.10071
G1 X73.791 Y101.001 E1.20399
G1 X73.919 Y99.714 E.08636
G1 X74.239 Y98.567 E.0796
G1 X75.055 Y97.031 E.11616
G1 X75.554 Y96.394 E.05407
G1 X76.225 Y95.738 E.06269
G1 E-3.5 F3600
;WIPE_START
G1 F7200
G1 X77.536 Y94.81 E-.76308
G1 X78.529 Y94.327 E-.5245
G1 X78.802 Y94.23 E-.13742
;WIPE_END
G1 E-.075 F3600
G1 X81.885 Y101.294 F9000
G1 E5 F2400
;TYPE:Perimeter
G1 F1200
G1 X82.106 Y101.202 E.01599
G1 X82.427 Y101.124 E.02209
G1 X82.894 Y101.047 E.03156
G1 X84.113 Y100.949 E.08175
G1 X85.06 Y100.936 E.06325
G1 X98.64 Y100.948 E.90721
G1 X99.001 Y101.015 E.02452
G1 X99.262 Y101.135 E.01918
G1 X99.262 Y118.865 E1.18452
G1 X99.001 Y118.985 E.01918
G1 X98.622 Y119.056 E.02576
G1 X98.433 Y119.064 E.01263
G1 X85.06 Y119.064 E.89338
G1 X84.15 Y119.052 E.06079
G1 X83.563 Y119.019 E.03927
G1 X82.539 Y118.896 E.0689
G1 X82.122 Y118.802 E.02859
G1 X81.885 Y118.706 E.01705
G1 X81.885 Y101.354 E1.15924
G1 X81.378 Y100.992 F9000
;TYPE:External perimeter
G1 F1200
G1 X81.519 Y100.884 E.01189
G1 X81.715 Y100.777 E.01492
G1 X81.949 Y100.689 E.01667
G1 X82.321 Y100.599 E.02559
G1 X82.824 Y100.516 E.03407
G1 X83.514 Y100.448 E.04631
G1 X84.094 Y100.413 E.03882
G1 X85.057 Y100.4 E.06432
G1 X98.69 Y100.412 E.91076
G1 X99.139 Y100.496 E.03057
G1 X99.324 Y100.561 E.01305
G1 X99.611 Y100.724 E.02204
G1 X99.742 Y100.858 E.01255
G1 X99.772 Y100.912 E.00416
G1 X99.797 Y101.034 E.00828
G1 X99.797 Y118.966 E1.19797
G1 X99.774 Y119.08 E.00778
G1 X99.7 Y119.194 E.00905
G1 X99.486 Y119.36 E.0181
G1 X99.139 Y119.504 E.02509
G1 X98.683 Y119.589 E.03101
G1 X98.445 Y119.6 E.01593
G1 X85.056 Y119.6 E.89443
G1 X84.131 Y119.588 E.06182
G1 X83.516 Y119.552 E.04116
G1 X82.448 Y119.425 E.07183
G1 X81.97 Y119.317 E.03279
G1 X81.714 Y119.223 E.01818
G1 X81.395 Y119.025 E.0251
G1 X81.35 Y118.956 E.00554
G1 X81.35 Y101.043 E1.19665
G1 X81.555 Y101.007 F9000
G1 E-3.5 F3600
;WIPE_START
G1 F7200
G1 X81.519 Y100.884 E-.11059
G1 X81.715 Y100.777 E-.10606
G1 X81.949 Y100.689 E-.11855
G1 X82.321 Y100.599 E-.18194
G1 X82.824 Y100.516 E-.24224
G1 X83.514 Y100.448 E-.32926
G1 X84.094 Y100.413 E-.27601
G1 X84.221 Y100.412 E-.06035
;WIPE_END
G1 E-.075 F3600
G1 X82.046 Y117.493 F9000
G1 E5 F2400
;TYPE:Solid infill
;WIDTH:0.606566
G1 F1200
G1 X83.113 Y118.56 E.10209
G1 X83.599 Y118.618 E.03305
G1 X83.959 Y118.639 E.0244
G1 X82.287 Y116.967 E.15989
G1 X82.287 Y116.2 E.05185
G1 X84.745 Y118.659 E.23509
G1 X85.516 Y118.663 E.05214
G1 X82.287 Y115.434 E.30882
G1 X82.287 Y114.667 E.05185
G1 X86.283 Y118.663 E.38215
G1 X87.05 Y118.663 E.05185
G1 X82.287 Y113.9 E.45548
G1 X82.287 Y113.133 E.05185
G1 X87.816 Y118.663 E.52881
G1 X88.583 Y118.663 E.05185
G1 X82.287 Y112.366 E.60214
G1 X82.287 Y111.6 E.05185
G1 X89.35 Y118.663 E.67547
G1 X90.117 Y118.663 E.05185
G1 X82.287 Y110.833 E.7488
G1 X82.287 Y110.066 E.05185
G1 X90.883 Y118.663 E.82213
G1 X91.65 Y118.663 E.05185
G1 X82.287 Y109.299 E.89546
G1 X82.287 Y108.533 E.05185
G1 X92.417 Y118.663 E.96879
G1 X93.184 Y118.663 E.05185
G1 X82.287 Y107.766 E1.04212
G1 X82.287 Y106.999 E.05185
G1 X93.95 Y118.663 E1.11545
G1 X94.717 Y118.663 E.05185
G1 X82.287 Y106.232 E1.18878
G1 X82.287 Y105.466 E.05185
G1 X95.484 Y118.663 E1.26211
G1 X96.251 Y118.663 E.05185
G1 X82.287 Y104.699 E1.33544
G1 X82.287 Y103.932 E.05185
G1 X97.017 Y118.663 E1.40877
G1 X97.784 Y118.663 E.05185
G1 X82.287 Y103.165 E1.48209
G1 X82.287 Y102.399 E.05185
G1 X98.546 Y118.657 E1.5549
G1 X98.86 Y118.603 E.02158
G1 X98.86 Y118.205 E.02691
G1 X82.287 Y101.632 E1.58497
G1 X82.287 Y101.571 E.00408
G1 X82.879 Y101.457 E.04077
G1 X98.86 Y117.438 E1.52836
G1 X98.86 Y116.671 E.05185
G1 X83.583 Y101.395 E1.46098
G1 X84.303 Y101.348 E.04879
G1 X98.86 Y115.905 E1.39213
G1 X98.86 Y115.138 E.05185
G1 X85.06 Y101.337 E1.31981
G1 X85.827 Y101.338 E.05189
G1 X98.86 Y114.371 E1.24642
G1 X98.86 Y113.604 E.05185
G1 X86.594 Y101.339 E1.17302
G1 X87.362 Y101.339 E.0519
G1 X98.86 Y112.838 E1.09963
G1 X98.86 Y112.071 E.05185
G1 X88.129 Y101.34 E1.02623
G1 X88.897 Y101.341 E.0519
G1 X98.86 Y111.304 E.95284
G1 X98.86 Y110.537 E.05185
G1 X89.664 Y101.341 E.87945
G1 X90.432 Y101.342 E.0519
G1 X98.86 Y109.77 E.80605
G1 X98.86 Y109.004 E.05185
G1 X91.199 Y101.343 E.73266
G1 X91.966 Y101.343 E.0519
G1 X98.86 Y108.237 E.65926
G1 X98.86 Y107.47 E.05185
G1 X92.734 Y101.344 E.58587
G1 X93.501 Y101.345 E.0519
G1 X98.86 Y106.703 E.51247
G1 X98.86 Y105.937 E.05185
G1 X94.269 Y101.345 E.43908
G1 X95.036 Y101.346 E.0519
G1 X98.86 Y105.17 E.36569
G1 X98.86 Y104.403 E.05185
G1 X95.804 Y101.347 E.29229
G1 X96.571 Y101.347 E.0519
G1 X98.86 Y103.636 E.2189
G1 X98.86 Y102.87 E.05185
G1 X97.339 Y101.348 E.1455
G1 X98.106 Y101.349 E.0519
G1 X99.101 Y102.344 E.09516
M106 S255
;LAYER_CHANGE
;Z:0.45
;HEIGHT:0.15
;BEFORE_LAYER_CHANGE
G92 E0
;0.45


G1 E-3.5 F3600
;WIPE_START
G1 F7200
G1 X98.106 Y101.349 E-.66841
G1 X97.339 Y101.348 E-.36453
G1 X97.922 Y101.932 E-.39205
;WIPE_END
G1 E-.075 F3600
G1 Z.45 F9000
;AFTER_LAYER_CHANGE
;0.45
M104 S210 ; set temperature
M140 S60 ; set bed temperature
G1 X97.926 Y92.936
G1 E5 F2400
;TYPE:Skirt/Brim
;WIDTH:0.6
G1 X99.094 Y92.936 E.04138
G1 X100.948 Y93.169 E.06618
G1 X102.139 Y93.518 E.04394
G1 X103.096 Y93.932 E.0369
G1 X103.926 Y94.407 E.03387
G1 X104.768 Y95.027 E.03703
G1 X105.85 Y96.129 E.05468
G1 X106.381 Y96.866 E.03216
G1 X107.152 Y98.451 E.06243
G1 X107.427 Y99.436 E.0362
G1 X107.59 Y101 E.05569
G1 X107.572 Y119.505 E.65527
G1 X107.438 Y120.509 E.03586
G1 X107.171 Y121.493 E.03609
G1 X106.815 Y122.355 E.03304
G1 X106.322 Y123.224 E.03537
G1 X105.84 Y123.884 E.02894
G1 X104.866 Y124.89 E.04958
G1 X103.95 Y125.577 E.04054
G1 X103.119 Y126.057 E.034
G1 X102.166 Y126.472 E.03679
G1 X101.201 Y126.771 E.03577
G1 X99.387 Y127.05 E.065
G1 X83.846 Y127.071 E.55032
G1 X82.187 Y127.01 E.05876
G1 X80.636 Y126.83 E.0553
G1 X79.318 Y126.519 E.04794
G1 X78.334 Y126.172 E.03696
G1 X76.722 Y125.322 E.06454
G1 X75.437 Y124.265 E.05891
G1 X74.59 Y123.238 E.04714
G1 X73.724 Y121.582 E.06617
G1 X73.438 Y120.611 E.03584
G1 X73.258 Y119.023 E.05661
G1 X73.256 Y101.001 E.63817
G1 X73.394 Y99.609 E.04953
G1 X73.738 Y98.377 E.04531
G1 X74.614 Y96.728 E.0661
G1 X75.151 Y96.04 E.0309
G1 X75.938 Y95.272 E.03895
G1 X77.279 Y94.339 E.05785
G1 X78.334 Y93.828 E.0415
G1 X79.275 Y93.494 E.03536
G1 X80.869 Y93.132 E.0579
G1 X83.706 Y92.93 E.10071
G1 X97.866 Y92.935 E.50138
G1 X97.865 Y93.471 F9000
G1 F2400
G1 X99.07 Y93.471 E.04265
G1 X100.825 Y93.69 E.06262
G1 X101.962 Y94.023 E.04196
G1 X102.862 Y94.413 E.03473
G1 X103.629 Y94.853 E.03131
G1 X104.421 Y95.435 E.0348
G1 X105.432 Y96.463 E.05107
G1 X105.93 Y97.156 E.0302
G1 X106.646 Y98.627 E.05793
G1 X106.902 Y99.542 E.03367
G1 X107.054 Y101 E.05189
G1 X107.038 Y119.467 E.65392
G1 X106.914 Y120.401 E.03336
G1 X106.666 Y121.316 E.03357
G1 X106.335 Y122.119 E.03076
G1 X105.873 Y122.933 E.03315
G1 X105.423 Y123.549 E.02699
G1 X104.517 Y124.483 E.04609
G1 X103.652 Y125.133 E.0383
G1 X102.883 Y125.576 E.03142
G1 X101.987 Y125.967 E.03461
G1 X101.077 Y126.25 E.03374
G1 X99.362 Y126.515 E.06148
G1 X83.846 Y126.536 E.54943
G1 X82.039 Y126.462 E.06403
G1 X80.261 Y126.211 E.06356
G1 X78.834 Y125.793 E.05268
G1 X77.781 Y125.324 E.0408
G1 X76.679 Y124.635 E.04603
G1 X75.819 Y123.89 E.04028
G1 X75.107 Y123.043 E.0392
G1 X74.43 Y121.892 E.04728
G1 X73.967 Y120.52 E.05126
G1 X73.793 Y119.023 E.05338
G1 X73.791 Y101.001 E.63817
G1 X73.919 Y99.714 E.04578
G1 X74.239 Y98.567 E.04219
G1 X75.055 Y97.031 E.06157
G1 X75.554 Y96.394 E.02866
G1 X76.281 Y95.684 E.036
G1 X77.536 Y94.81 E.05415
G1 X78.529 Y94.327 E.0391
G1 X79.422 Y94.009 E.03356
G1 X80.956 Y93.66 E.05569
G1 X83.717 Y93.466 E.09802
G1 X97.805 Y93.471 E.49888
G1 E-3.5 F3600
;WIPE_START
G1 F7200
G1 X99.07 Y93.471 E-.60068
G1 X100.792 Y93.686 E-.82432
;WIPE_END
G1 E-.075 F3600
G1 X99.772 Y100.909 F9000
G1 E5 F2400
;TYPE:Perimeter
;WIDTH:0.45
G1 X99.855 Y100.994 E.00311
G1 X99.876 Y101.044 E.00141
G1 X99.876 Y118.934 E.46613
G1 X99.831 Y119.039 E.00298
G1 X99.686 Y119.149 E.00475
G1 X99.385 Y119.273 E.00848
G1 X98.995 Y119.346 E.01035
G1 X98.76 Y119.357 E.00613
G1 X83.858 Y119.357 E.38827
G1 X82.662 Y119.31 E.0312
G1 X81.917 Y119.222 E.01953
G1 X81.415 Y119.094 E.01352
G1 X81.185 Y119.004 E.00642
G1 X80.97 Y118.876 E.00654
G1 X80.97 Y101.126 E.46248
G1 X81.185 Y100.996 E.00656
G1 X81.424 Y100.903 E.00667
G1 X81.721 Y100.817 E.00807
G1 X82.098 Y100.748 E.00998
G1 X83.24 Y100.655 E.02986
G1 X98.998 Y100.655 E.41059
G1 X99.385 Y100.727 E.01025
G1 X99.551 Y100.785 E.00458
G1 X99.722 Y100.875 E.00503
G1 X100.279 Y100.91 F9000
;TYPE:External perimeter
G1 F1500
G1 X100.294 Y101.015 E.00277
G1 X100.294 Y118.977 E.468
G1 X100.258 Y119.148 E.00457
G1 X100.155 Y119.309 E.00497
G1 X100.045 Y119.411 E.0039
G1 X99.895 Y119.512 E.0047
G1 X99.713 Y119.601 E.00529
G1 X99.503 Y119.675 E.00579
G1 X99.033 Y119.763 E.01246
G1 X98.77 Y119.775 E.00687
G1 X83.85 Y119.775 E.38875
G1 X82.629 Y119.727 E.03184
G1 X81.841 Y119.634 E.02067
G1 X81.287 Y119.493 E.01491
G1 X81.008 Y119.383 E.00779
G1 X80.791 Y119.265 E.00645
G1 X80.646 Y119.154 E.00474
G1 X80.575 Y119.063 E.00302
G1 X80.552 Y118.971 E.00245
G1 X80.552 Y101.024 E.46763
G1 X80.567 Y100.953 E.00189
G1 X80.632 Y100.859 E.00297
G1 X80.792 Y100.735 E.00528
G1 X81.008 Y100.617 E.00642
G1 X81.29 Y100.506 E.00788
G1 X81.626 Y100.41 E.00911
G1 X82.038 Y100.334 E.01094
G1 X82.63 Y100.273 E.01549
G1 X83.228 Y100.237 E.01561
G1 X99.027 Y100.237 E.41165
G1 X99.503 Y100.325 E.01263
G1 X99.895 Y100.488 E.01106
G1 X100.041 Y100.586 E.00457
G1 X100.201 Y100.75 E.00598
G1 X100.253 Y100.856 E.00307
G1 X100.207 Y100.988 F9000
G1 E-3.5 F3600
;WIPE_START
G1 F7200
G1 X100.294 Y101.015 E-.07804
G1 X100.294 Y103.851 E-1.34696
;WIPE_END
G1 E-.075 F3600
G1 X82.298 Y100.857 F9000
G1 E5 F2400
;TYPE:Solid infill
;WIDTH:0.454825
G1 X81.283 Y101.873 E.03784
G1 X81.283 Y102.47 E.01575
G1 X82.743 Y101.01 E.05443
G1 X83.382 Y100.968 E.01688
G1 X81.283 Y103.068 E.07825
G1 X81.283 Y103.666 E.01575
G1 X83.98 Y100.968 E.10053
G1 X84.578 Y100.968 E.01575
G1 X81.283 Y104.263 E.12281
G1 X81.283 Y104.861 E.01575
G1 X85.176 Y100.968 E.14509
G1 X85.773 Y100.968 E.01575
G1 X81.283 Y105.459 E.16737
G1 X81.283 Y106.056 E.01575
G1 X86.371 Y100.968 E.18965
G1 X86.969 Y100.968 E.01575
G1 X81.283 Y106.654 E.21193
G1 X81.283 Y107.252 E.01575
G1 X87.566 Y100.968 E.23421
G1 X88.164 Y100.968 E.01575
G1 X81.283 Y107.849 E.25649
G1 X81.283 Y108.447 E.01575
G1 X88.762 Y100.968 E.27876
G1 X89.36 Y100.968 E.01575
G1 X81.283 Y109.045 E.30104
G1 X81.283 Y109.643 E.01575
G1 X89.957 Y100.968 E.32332
G1 X90.555 Y100.968 E.01575
G1 X81.283 Y110.24 E.3456
G1 X81.283 Y110.838 E.01575
G1 X91.153 Y100.968 E.36788
G1 X91.75 Y100.968 E.01575
G1 X81.283 Y111.436 E.39016
G1 X81.283 Y112.033 E.01575
G1 X92.348 Y100.968 E.41244
G1 X92.946 Y100.968 E.01575
G1 X81.283 Y112.631 E.43472
G1 X81.283 Y113.229 E.01575
G1 X93.544 Y100.968 E.457
G1 X94.141 Y100.968 E.01575
G1 X81.283 Y113.826 E.47927
G1 X81.283 Y114.424 E.01575
G1 X94.739 Y100.968 E.50155
G1 X95.337 Y100.968 E.01575
G1 X81.283 Y115.022 E.52383
G1 X81.283 Y115.62 E.01575
G1 X95.934 Y100.968 E.54611
G1 X96.532 Y100.968 E.01575
G1 X81.283 Y116.217 E.56839
G1 X81.283 Y116.815 E.01575
G1 X97.13 Y100.968 E.59067
G1 X97.727 Y100.968 E.01575
G1 X81.283 Y117.413 E.61295
G1 X81.283 Y118.01 E.01575
G1 X98.325 Y100.968 E.63523
G1 X98.923 Y100.968 E.01575
G1 X81.283 Y118.608 E.65751
G1 X81.283 Y118.698 E.00236
G1 X81.511 Y118.795 E.00653
G1 X81.657 Y118.832 E.00396
G1 X99.412 Y101.077 E.66182
G1 X99.562 Y101.145 E.00436
G1 X99.562 Y101.524 E.00998
G1 X82.152 Y118.934 E.64894
G1 X82.687 Y118.997 E.01419
G1 X99.562 Y102.122 E.62901
G1 X99.562 Y102.719 E.01575
G1 X83.262 Y119.02 E.60759
G1 X83.837 Y119.043 E.01516
G1 X99.562 Y103.317 E.58616
G1 X99.562 Y103.915 E.01575
G1 X84.433 Y119.044 E.56392
G1 X85.031 Y119.044 E.01575
G1 X99.562 Y104.512 E.54164
G1 X99.562 Y105.11 E.01575
G1 X85.629 Y119.044 E.51936
G1 X86.226 Y119.044 E.01575
G1 X99.562 Y105.708 E.49708
G1 X99.562 Y106.306 E.01575
G1 X86.824 Y119.044 E.47481
G1 X87.422 Y119.044 E.01575
G1 X99.562 Y106.903 E.45253
G1 X99.562 Y107.501 E.01575
G1 X88.02 Y119.044 E.43025
G1 X88.617 Y119.044 E.01575
G1 X99.562 Y108.099 E.40797
G1 X99.562 Y108.696 E.01575
G1 X89.215 Y119.044 E.38569
G1 X89.813 Y119.044 E.01575
G1 X99.562 Y109.294 E.36341
G1 X99.562 Y109.892 E.01575
G1 X90.41 Y119.044 E.34113
G1 X91.008 Y119.044 E.01575
G1 X99.562 Y110.489 E.31886
G1 X99.562 Y111.087 E.01575
G1 X91.606 Y119.044 E.29658
G1 X92.203 Y119.044 E.01575
G1 X99.562 Y111.685 E.2743
G1 X99.562 Y112.283 E.01575
G1 X92.801 Y119.044 E.25202
